<?xml version="1.0" encoding="UTF-8"?>
<map version="1.10" tiledversion="1.12.1" orientation="orthogonal" renderorder="right-down" width="156" height="156" tilewidth="32" tileheight="32" infinite="0" nextlayerid="8" nextobjectid="128">
 <tileset firstgid="1" name="mygoodmap" tilewidth="32" tileheight="32" tilecount="8100" columns="90">
  <image source="../../ideas/mygoodmap.png" width="2900" height="2900"/>
 </tileset>
 <tileset firstgid="8101" name="tile" tilewidth="32" tileheight="32" tilecount="120" columns="8">
  <image source="../../../TopDownFantasy_Forest_v1/TopDownFantasy-Forest/Tiles/tile.png" width="256" height="480"/>
 </tileset>
 <tileset firstgid="8221" name="Tileset" tilewidth="32" tileheight="32" tilecount="96" columns="12">
  <image source="../../../Your_Forest_by_Grandero/Tileset.png" width="384" height="256"/>
  <tile id="13" probability="1.5"/>
  <tile id="29" probability="0.1"/>
  <tile id="30" probability="0.1"/>
  <tile id="41" probability="0.1"/>
  <tile id="42" probability="0.1"/>
  <tile id="53" probability="0.1"/>
  <tile id="54" probability="0.1"/>
  <tile id="63" probability="0.1"/>
  <tile id="74" probability="0.1"/>
 </tileset>
 <tileset firstgid="8317" name="treest" tilewidth="32" tileheight="32" tilecount="77" columns="11">
  <image source="../../../Your_Forest_by_Grandero/treest.png" width="352" height="230"/>
 </tileset>
 <tileset firstgid="8394" name="Decorations" tilewidth="32" tileheight="32" tilecount="132" columns="12">
  <image source="../../../TopDownFantasy_Forest_v1/TopDownFantasy_Forest_v1/TopDownFantasy-Forest/Decorations/Decorations.png" width="384" height="352"/>
 </tileset>
 <layer id="1" name="lower" width="156" height="156">
  <data encoding="csv">
8234,8234,8234,8234,8234,8234,8234,8234,8234,8234,8234,8234,8234,8234,8234,8234,8234,8234,8234,8234,8234,8234,8234,8234,8234,8234,8234,8234,8234,8234,8234,8234,8234,8234,8234,8234,8234,8234,8234,8234,8234,8234,8234,8234,8234,8234,8234,8234,8234,8234,8234,8234,8234,8234,8234,8234,8234,8234,8234,8234,8234,8234,8234,8234,8234,8234,8234,8234,8234,8234,8234,8234,8234,8234,8234,8234,8234,8234,8234,8234,8234,8234,8234,8234,8234,8234,8234,8234,8234,8234,8234,8234,8234,8234,8234,8234,8234,8234,8234,8234,8234,8234,8234,8234,8234,8234,8234,8234,8234,8234,8234,8234,8234,8234,8234,8234,8234,8234,8234,8234,8234,8234,8234,8234,8234,8234,8234,8234,8234,8234,8234,8234,8234,8234,8234,8234,8234,8234,8234,8234,8234,8234,8234,8234,8234,8234,8234,8234,8234,8234,8234,8234,8234,8234,8234,8234,
8234,8234,8234,8234,8234,8234,8234,8234,8234,8234,8234,8234,8234,8234,8234,8234,8234,8234,8234,8234,8234,8234,8234,8234,8234,8234,8234,8234,8234,8234,8234,8234,8234,8234,8234,8234,8234,8234,8234,8234,8234,8234,8234,8234,8234,8234,8234,8234,8234,8234,8234,8234,8234,8234,8234,8234,8234,8234,8234,8234,8234,8234,8234,8234,8234,8234,8234,8234,8234,8234,8234,8234,8234,8234,8234,8234,8234,8234,8234,8234,8234,8234,8234,8234,8234,8234,8234,8234,8234,8234,8234,8234,8234,8234,8234,8234,8234,8234,8234,8234,8234,8234,8234,8234,8234,8234,8234,8234,8234,8234,8234,8234,8234,8234,8234,8234,8234,8234,8234,8234,8234,8234,8234,8234,8234,8234,8234,8234,8234,8234,8234,8234,8234,8234,8234,8234,8234,8234,8234,8234,8234,8234,8234,8234,8234,8234,8234,8234,8234,8234,8234,8234,8234,8234,8234,8234,
8234,8234,8234,8234,8234,8234,8234,8234,8234,8234,8234,8234,8234,8234,8234,8234,8234,8234,8234,8234,8234,8234,8234,8234,8234,8234,8234,8234,8234,8234,8234,8234,8234,8234,8234,8234,8234,8234,8234,8234,8234,8234,8234,8234,8234,8234,8234,8234,8234,8234,8234,8234,8234,8234,8234,8234,8234,8234,8234,8234,8234,8234,8234,8234,8234,8234,8234,8234,8234,8234,8234,8234,8234,8234,8234,8234,8234,8234,8234,8234,8234,8234,8234,8234,8234,8234,8234,8234,8234,8234,8234,8234,8234,8234,8234,8234,8234,8234,8234,8234,8234,8234,8234,8234,8234,8234,8234,8234,8234,8234,8234,8234,8234,8234,8234,8234,8234,8234,8234,8234,8234,8234,8234,8234,8234,8234,8234,8234,8234,8234,8234,8234,8234,8234,8234,8234,8234,8234,8234,8234,8234,8234,8234,8234,8234,8234,8234,8234,8234,8234,8234,8234,8234,8234,8234,8234,
8234,8234,8234,8234,8234,8234,8234,8234,8234,8234,8234,8234,8234,8234,8234,8234,8234,8234,8234,8234,8234,8234,8234,8234,8234,8234,8234,8234,8234,8234,8234,8234,8234,8234,8234,8234,8234,8234,8234,8234,8234,8234,8234,8234,8234,8234,8234,8234,8234,8234,8234,8234,8234,8234,8234,8234,8234,8234,8234,8234,8234,8234,8234,8234,8234,8234,8234,8234,8234,8234,8234,8234,8234,8234,8234,8234,8234,8234,8234,8234,8234,8234,8234,8234,8234,8234,8234,8234,8234,8234,8234,8234,8234,8234,8234,8234,8234,8234,8234,8234,8234,8234,8234,8234,8234,8234,8234,8234,8234,8234,8234,8234,8234,8234,8234,8234,8234,8234,8234,8234,8234,8234,8234,8234,8234,8234,8234,8234,8234,8234,8234,8234,8234,8234,8234,8234,8234,8234,8234,8234,8234,8234,8234,8234,8234,8234,8234,8234,8234,8234,8234,8234,8234,8234,8234,8234,
8234,8234,8234,8234,8234,8234,8234,8234,8234,8234,8234,8234,8234,8234,8234,8234,8234,8234,8234,8234,8234,8234,8234,8234,8234,8234,8234,8234,8234,8234,8234,8234,8234,8234,8234,8234,8234,8234,8234,8234,8234,8234,8234,8234,8234,8234,8234,8234,8234,8234,8234,8234,8234,8234,8234,8234,8234,8234,8234,8234,8234,8234,8234,8234,8234,8234,8234,8234,8234,8234,8234,8234,8234,8234,8234,8234,8234,8234,8234,8234,8234,8234,8234,8234,8234,8234,8234,8234,8234,8234,8234,8134,8134,8134,8134,8134,8134,8134,8134,8234,8234,8234,8234,8234,8234,8234,8234,8234,8234,8234,8234,8234,8234,8234,8234,8234,8234,8234,8234,8234,8234,8234,8234,8234,8234,8234,8234,8234,8234,8234,8234,8234,8234,8234,8234,8234,8234,8234,8234,8234,8234,8234,8234,8234,8234,8234,8234,8234,8234,8226,8234,8234,8234,8234,8234,8234,
8234,8234,8234,8234,8234,8234,8234,8234,8234,8234,8234,8234,8234,8234,8234,8234,8234,8234,8234,8234,8234,8234,8234,8234,8234,8234,8234,8234,8234,8234,8234,8234,8234,8234,8234,8234,8234,8234,8234,8234,8234,8234,8234,8234,8234,8234,8234,8234,8234,8234,8234,8234,8234,8234,8234,8234,8234,8234,8234,8234,8234,8234,8234,8234,8234,8234,8234,8234,8234,8234,8234,8234,8234,8234,8234,8234,8234,8234,8234,8234,8234,8234,8234,8234,8234,8234,8234,8134,8134,8134,8134,8134,8134,8134,8134,8134,8134,8134,8134,8134,8134,8234,8234,8234,8234,8234,8234,8234,8234,8234,8234,8234,8234,8234,8234,8234,8234,8234,8234,8234,8234,8234,8234,8234,8234,8234,8234,8234,8234,8234,8234,8234,8234,8234,8234,8234,8234,8234,8234,8234,8234,8234,8234,8234,8234,8234,8234,8234,8234,8234,8234,8234,8234,8234,8234,8234,
8234,8234,8234,8234,8234,8234,8234,8234,8234,8234,8234,8234,8234,8234,8234,8234,8234,8234,8234,8234,8234,8234,8234,8234,8234,8234,8234,8234,8234,8234,8234,8234,8234,8234,8234,8234,8234,8234,8234,8234,8234,8234,8234,8234,8234,8234,8234,8234,8234,8234,8234,8234,8234,8234,8234,8234,8234,8234,8234,8234,8234,8234,8234,8234,8234,8234,8234,8234,8234,8234,8234,8234,8234,8234,8234,8234,8234,8234,8234,8234,8234,8234,8234,8234,8234,8234,8234,8134,8134,8134,8134,8134,8134,8134,8134,8134,8134,8134,8134,8134,8134,8134,8234,8234,8234,8234,8234,8234,8234,8234,8234,8234,8234,8234,8234,8234,8234,8234,8234,8234,8234,8234,8234,8234,8234,8234,8234,8234,8234,8234,8234,8234,8234,8234,8249,8249,8249,8249,8249,8249,8249,8249,8249,8249,8249,8249,8249,8249,8249,8234,8234,8234,8234,8234,8234,8234,
8234,8234,8234,8234,8234,8234,8234,8234,8234,8234,8234,8234,8234,8234,8234,8234,8234,8234,8234,8234,8234,8234,8234,8234,8234,8234,8234,8234,8234,8234,8234,8234,8234,8234,8234,8234,8234,8234,8234,8234,8234,8234,8234,8234,8234,8234,8234,8234,8234,8234,8234,8234,8234,8234,8234,8234,8234,8234,8234,8234,8234,8234,8234,8234,8234,8234,8234,8234,8234,8234,8234,8234,8234,8234,8234,8234,8234,8234,8234,8234,8234,8234,8234,8234,8234,8234,8234,8134,8134,8134,8134,8134,8134,8134,8134,8134,8134,8134,8134,8134,8134,8134,8234,8234,8234,8234,8234,8234,8234,8234,8234,8234,8234,8234,8234,8234,8234,8234,8234,8234,8234,8234,8234,8234,8234,8234,8234,8234,8234,8234,8234,8234,8234,8249,8249,8249,8249,8249,8249,8249,8249,8249,8249,8249,8249,8249,8249,8249,8249,8234,8234,8234,8234,8234,8234,8234,
8234,8234,8234,8234,8234,8234,8234,8234,8234,8234,8234,8234,8234,8234,8234,8234,8234,8234,8234,8234,8234,8234,8234,8234,8234,8234,8234,8234,8234,8234,8234,8234,8234,8234,8234,8234,8234,8234,8234,8234,8234,8234,8234,8234,8234,8234,8234,8234,8234,8234,8234,8234,8234,8234,8234,8234,8234,8234,8234,8234,8234,8234,8234,8234,8234,8234,8234,8234,8234,8234,8234,8234,8234,8234,8234,8234,8234,8234,8234,8234,8234,8234,8234,8234,8234,8234,8134,8134,8134,8134,8134,8134,8134,8134,8134,8134,8134,8134,8134,8134,8134,8134,8134,8234,8234,8234,8234,8234,8234,8234,8234,8234,8234,8234,8234,8234,8234,8234,8234,8234,8234,8234,8234,8234,8234,8234,8234,8234,8234,8234,8234,8234,8234,8249,8249,8249,8249,8249,8249,8249,8249,8249,8249,8249,8249,8249,8249,8249,8249,8234,8234,8234,8234,8234,8234,8234,
8234,8234,8234,8234,8234,8234,8234,8234,8234,8234,8234,8234,8234,8234,8234,8234,8234,8234,8234,8234,8234,8234,8234,8234,8234,8234,8234,8234,8234,8234,8234,8234,8234,8234,8234,8234,8234,8234,8234,8234,8234,8234,8234,8234,8234,8234,8234,8234,8234,8234,8234,8234,8234,8234,8234,8234,8234,8234,8234,8234,8234,8234,8234,8234,8234,8234,8234,8234,8234,8234,8110,8110,8110,8110,8110,8110,8110,8110,8110,8110,8234,8234,8234,8234,8234,8134,8134,8134,8134,8134,8134,8134,8134,8134,8134,8134,8134,8134,8134,8134,8134,8134,8134,8134,8234,8234,8234,8234,8234,8234,8234,8234,8234,8234,8234,8234,8234,8234,8234,8234,8234,8234,8234,8234,8234,8234,8234,8234,8234,8234,8234,8234,8234,8249,8249,8249,8249,8249,8249,8249,8249,8229,8249,8249,8249,8249,8249,8249,8249,8234,8234,8234,8234,8234,8234,8234,
8234,8234,8234,8234,8234,8234,8234,8234,8234,8234,8234,8234,8234,8234,8234,8234,8234,8234,8234,8234,8234,8234,8234,8234,8234,8234,8234,8234,8234,8234,8234,8234,8234,8234,8234,8234,8234,8234,8234,8234,8234,8234,8234,8234,8234,8234,8234,8234,8234,8234,8234,8234,8234,8234,8234,8234,8234,8234,8234,8234,8234,8234,8234,8234,8234,8234,8234,8234,8110,8110,8110,8110,8110,8110,8110,8110,8110,8110,8110,8110,8110,8110,8110,8110,8110,8134,8134,8134,8134,8134,8134,8134,8134,8134,8134,8134,8134,8134,8134,8134,8134,8134,8134,8134,8134,8234,8234,8234,8234,8234,8234,8234,8234,8234,8234,8234,8234,8234,8234,8234,8234,8234,8234,8234,8234,8234,8234,8234,8234,8234,8234,8249,8234,8249,8249,8249,8249,8249,8249,8249,8249,8249,8249,8249,8249,8249,8249,8249,8249,8234,8234,8234,8234,8234,8234,8234,
8234,8234,8234,8234,8234,8234,8234,8234,8234,8234,8234,8234,8234,8234,8234,8234,8234,8234,8234,8234,8234,8234,8234,8234,8234,8234,8234,8234,8234,8234,8234,8234,8234,8234,8234,8234,8234,8234,8234,8234,8234,8234,8234,8234,8234,8234,8234,8234,8234,8234,8234,8234,8234,8234,8234,8110,8110,8110,8110,8110,8110,8110,8110,8110,8110,8110,8110,8110,8110,8110,8110,8110,8110,8110,8110,8110,8110,8110,8110,8110,8110,8110,8110,8110,8110,8110,8110,8134,8134,8134,8134,8134,8134,8134,8134,8134,8134,8134,8134,8134,8134,8134,8134,8134,8134,8134,8234,8234,8234,8234,8234,8234,8234,8234,8234,8234,8234,8234,8234,8234,8234,8234,8234,8234,8234,8234,8234,8234,8234,8234,8249,8249,8234,8249,8249,8249,8228,8249,8249,8249,8249,8249,8249,8249,8249,8249,8249,8249,8249,8234,8234,8234,8234,8234,8234,8234,
8234,8234,8234,8234,8234,8234,8234,8234,8234,8234,8234,8234,8234,8234,8234,8234,8234,8234,8234,8234,8234,8234,8234,8234,8234,8234,8234,8234,8234,8234,8234,8234,8234,8134,8134,8134,8134,8134,8134,8134,8234,8234,8234,8234,8234,8234,8234,8234,8234,8234,8234,8234,8234,8110,8110,8110,8110,8110,8110,8110,8110,8110,8110,8110,8110,8110,8110,8110,8110,8110,8110,8110,8110,8110,8110,8110,8110,8110,8110,8110,8110,8110,8110,8110,8110,8110,8110,8110,8134,8134,8134,8134,8134,8134,8134,8134,8134,8134,8134,8134,8134,8134,8134,8134,8134,8134,8134,8234,8234,8234,8234,8234,8234,8234,8234,8234,8234,8234,8234,8234,8234,8234,8234,8234,8234,8234,8234,8234,8234,8234,8249,8249,8234,8249,8249,8249,8249,8249,8249,8249,8249,8249,8249,8249,8249,8249,8249,8249,8234,8234,8234,8234,8234,8234,8234,8234,
8234,8234,8234,8234,8234,8234,8234,8234,8234,8234,8234,8234,8234,8234,8234,8234,8234,8234,8234,8234,8234,8234,8234,8234,8234,8234,8234,8234,8234,8234,8234,8234,8134,8134,8134,8134,8134,8134,8134,8134,8134,8234,8234,8234,8234,8234,8234,8234,8234,8234,8234,8110,8110,8110,8110,8110,8110,8110,8110,8110,8110,8110,8110,8110,8110,8110,8110,8110,8110,8110,8110,8110,8110,8110,8110,8110,8110,8110,8110,8110,8110,8110,8110,8110,8110,8110,8110,8110,8134,8134,8134,8134,8134,8134,8134,8134,8134,8134,8134,8134,8134,8134,8134,8134,8134,8134,8134,8134,8234,8234,8234,8234,8234,8234,8234,8234,8234,8234,8234,8234,8234,8234,8234,8234,8234,8234,8234,8234,8234,8234,8249,8249,8249,8249,8249,8249,8249,8249,8249,8249,8249,8249,8249,8249,8249,8234,8234,8234,8234,8234,8234,8234,8234,8234,8234,8234,
8234,8234,8234,8234,8234,8234,8234,8234,8234,8234,8234,8234,8234,8234,8234,8234,8234,8234,8234,8234,8234,8234,8234,8234,8234,8234,8234,8234,8234,8234,8234,8134,8134,8134,8134,8134,8134,8134,8134,8134,8134,8134,8234,8234,8234,8234,8234,8234,8234,8110,8110,8110,8110,8110,8110,8110,8110,8110,8110,8110,8110,8110,8110,8110,8110,8110,8110,8110,8110,8110,8110,8110,8110,8110,8110,8110,8110,8110,8110,8110,8110,8110,8110,8110,8110,8110,8110,8110,8110,8134,8134,8134,8134,8134,8134,8134,8134,8134,8134,8134,8134,8134,8134,8134,8134,8134,8134,8134,8234,8234,8234,8234,8234,8234,8234,8234,8234,8234,8234,8234,8234,8234,8234,8234,8234,8234,8234,8234,8234,8234,8249,8249,8249,8234,8249,8249,8249,8234,8249,8249,8249,8249,8249,8249,8234,8234,8234,8234,8234,8234,8234,8234,8234,8234,8234,8234,
8234,8234,8234,8234,8234,8234,8234,8234,8234,8234,8234,8234,8234,8234,8234,8234,8234,8234,8234,8234,8234,8234,8234,8234,8234,8234,8234,8234,8234,8234,8134,8134,8134,8134,8134,8134,8134,8134,8134,8134,8134,8134,8234,8234,8234,8234,8234,8110,8110,8110,8110,8110,8110,8110,8110,8110,8110,8110,8110,8110,8110,8110,8110,8110,8110,8110,8110,8110,8110,8110,8110,8110,8110,8110,8110,8110,8110,8110,8110,8110,8110,8110,8110,8110,8110,8110,8110,8110,8110,8134,8134,8134,8134,8134,8134,8134,8134,8134,8134,8134,8134,8134,8134,8134,8134,8134,8134,8134,8234,8234,8234,8234,8234,8234,8234,8234,8234,8234,8234,8234,8234,8234,8234,8234,8234,8234,8234,8234,8234,8234,8234,8234,8234,8234,8234,8234,8234,8234,8249,8249,8249,8234,8234,8234,8234,8234,8234,8234,8234,8234,8234,8234,8234,8234,8234,8234,
8234,8234,8234,8234,8234,8234,8234,8234,8234,8234,8234,8234,8234,8234,8234,8234,8234,8234,8234,8234,8234,8234,8234,8234,8234,8234,8234,8234,8234,8234,8134,8134,8134,8134,8134,8134,8134,8134,8134,8134,8134,8134,8134,8234,8234,8234,8110,8110,8110,8110,8110,8110,8110,8110,8110,8110,8110,8110,8110,8110,8110,8110,8110,8110,8110,8110,8110,8110,8110,8110,8110,8110,8110,8110,8110,8110,8110,8110,8110,8110,8110,8110,8110,8110,8110,8110,8110,8110,8110,8134,8134,8134,8134,8134,8134,8134,8134,8134,8134,8134,8134,8134,8134,8134,8134,8134,8134,8134,8234,8234,8234,8234,8234,8234,8234,8234,8234,8234,8234,8234,8234,8234,8234,8234,8234,8234,8234,8234,8234,8234,8234,8234,8234,8234,8234,8234,8234,8234,8234,8234,8234,8234,8234,8234,8234,8234,8234,8234,8234,8234,8234,8226,8226,8226,8226,8226,
8234,8234,8234,8234,8234,8234,8234,8234,8234,8234,8234,8234,8234,8234,8234,8234,8234,8234,8234,8234,8234,8234,8234,8234,8234,8234,8234,8234,8234,8234,8134,8134,8134,8134,8134,8134,8134,8134,8134,8134,8134,8134,8134,8134,8134,8110,8110,8110,8110,8110,8110,8110,8110,8110,8110,8110,8110,8110,8110,8110,8110,8110,8110,8110,8110,8110,8110,8110,8110,8110,8110,8110,8110,8110,8110,8110,8110,8110,8110,8110,8110,8110,8110,8110,8110,8110,8110,8110,8110,8134,8134,8134,8134,8134,8134,8134,8134,8134,8134,8134,8134,8134,8134,8134,8134,8134,8134,8134,8134,8234,8234,8234,8234,8234,8234,8234,8234,8234,8234,8234,8234,8234,8234,8234,8234,8234,8234,8234,8234,8234,8234,8234,8234,8234,8234,8234,8234,8234,8234,8234,8234,8234,8234,8234,8234,8234,8234,8234,8226,8226,8226,8226,8226,8226,8226,8226,
8234,8234,8234,8234,8234,8234,8234,8234,8234,8234,8234,8234,8234,8234,8234,8234,8234,8234,8234,8234,8234,8234,8234,8234,8234,8234,8234,8234,8234,8234,8134,8134,8134,8134,8134,8134,8134,8134,8134,8134,8134,8134,8134,8134,8134,8110,8110,8110,8110,8110,8110,8110,8110,8110,8110,8110,8110,8110,8110,8110,8110,8110,8110,8110,8110,8110,8110,8110,8110,8110,8110,8110,8110,8110,8110,8110,8110,8110,8110,8110,8110,8110,8110,8110,8110,8110,8110,8110,8110,8134,8134,8134,8134,8134,8134,8134,8134,8134,8134,8134,8134,8134,8134,8134,8134,8134,8134,8134,8134,8234,8234,8234,8234,8234,8234,8234,8234,8234,8234,8234,8234,8234,8234,8234,8234,8234,8234,8234,8234,8234,8234,8234,8234,8234,8234,8234,8234,8234,8234,8234,8234,8234,8234,8234,8234,8226,8226,8226,8226,8226,8226,8226,8226,8226,8226,8226,
8234,8234,8234,8234,8234,8234,8234,8234,8234,8234,8234,8234,8234,8234,8234,8234,8234,8234,8234,8234,8234,8234,8234,8234,8234,8234,8234,8234,8234,8234,8134,8134,8134,8134,8134,8134,8134,8134,8134,8134,8134,8134,8134,8134,8134,8110,8110,8110,8110,8110,8110,8110,8110,8110,8110,8110,8110,8110,8110,8110,8110,8110,8110,8110,8110,8110,8110,8110,8110,8110,8110,8110,8110,8110,8110,8110,8110,8110,8110,8110,8110,8110,8110,8110,8110,8110,8110,8110,8110,8134,8134,8134,8134,8134,8134,8134,8134,8134,8134,8134,8134,8134,8134,8134,8134,8134,8134,8134,8134,8234,8234,8234,8234,8234,8234,8234,8234,8234,8234,8234,8234,8234,8234,8234,8234,8234,8234,8234,8234,8234,8234,8234,8234,8234,8234,8234,8234,8234,8234,8234,8234,8226,8226,8226,8226,8226,8226,8226,8226,8226,8226,8226,8226,8226,8226,8226,
8234,8234,8234,8234,8234,8234,8234,8234,8234,8234,8234,8234,8234,8234,8234,8234,8234,8234,8234,8234,8234,8234,8234,8234,8234,8234,8234,8234,8234,8234,8134,8134,8134,8134,8134,8134,8134,8134,8134,8134,8134,8134,8134,8134,8134,8110,8110,8110,8110,8110,8110,8110,8110,8110,8110,8110,8110,8110,8110,8110,8110,8110,8110,8110,8110,8110,8110,8110,8110,8110,8110,8110,8110,8110,8110,8110,8110,8110,8110,8110,8110,8110,8110,8110,8110,8110,8110,8110,8110,8134,8134,8134,8134,8134,8134,8134,8134,8134,8134,8134,8134,8134,8134,8134,8134,8134,8134,8134,8134,8134,8234,8234,8234,8234,8234,8234,8234,8234,8234,8234,8234,8234,8234,8234,8234,8234,8234,8234,8234,8234,8234,8234,8234,8234,8234,8234,8234,8234,8234,8226,8226,8226,8226,8226,8226,8226,8226,8226,8226,8226,8226,8226,8226,8226,8226,8226,
8234,8234,8234,8234,8234,8234,8234,8234,8234,8234,8234,8234,8234,8234,8234,8234,8234,8234,8234,8234,8234,8234,8234,8234,8234,8234,8234,8234,8234,8234,8134,8134,8134,8134,8134,8134,8134,8134,8134,8134,8134,8134,8134,8134,8134,8110,8110,8110,8110,8110,8110,8110,8110,8110,8110,8110,8110,8110,8110,8110,8110,8110,8110,8110,8110,8110,8110,8110,8110,8110,8110,8110,8110,8110,8110,8110,8110,8110,8110,8110,8110,8110,8110,8110,8110,8110,8110,8110,8134,8134,8134,8134,8134,8134,8134,8134,8134,8134,8134,8134,8134,8134,8134,8134,8134,8134,8134,8134,8134,8134,8234,8234,8234,8234,8234,8234,8234,8234,8234,8234,8234,8234,8234,8234,8234,8234,8234,8234,8234,8234,8234,8234,8234,8234,8234,8234,8234,8234,8226,8226,8226,8226,8226,8226,8226,8226,8226,8226,8226,8226,8226,8226,8226,8226,8226,8226,
8234,8234,8234,8234,8234,8234,8234,8234,8234,8234,8234,8234,8234,8234,8234,8234,8234,8234,8234,8234,8234,8234,8234,8234,8234,8234,8234,8234,8234,8234,8134,8134,8134,8134,8134,8134,8134,8134,8134,8134,8134,8134,8134,8134,8134,8134,8110,8110,8110,8110,8110,8110,8110,8110,8110,8110,8110,8110,8110,8110,8110,8110,8110,8110,8110,8110,8110,8110,8110,8110,8110,8110,8110,8110,8110,8110,8110,8110,8110,8110,8110,8110,8110,8110,8110,8110,8110,8134,8134,8134,8134,8134,8134,8134,8134,8134,8134,8134,8134,8134,8134,8134,8134,8134,8134,8134,8134,8134,8134,8134,8234,8234,8234,8234,8234,8234,8234,8234,8234,8234,8234,8234,8234,8234,8234,8234,8234,8234,8234,8234,8234,8234,8234,8234,8234,8234,8234,8234,8226,8226,8226,8226,8226,8226,8226,8226,8226,8226,8226,8226,8226,8226,8226,8226,8226,8226,
8234,8234,8234,8234,8234,8234,8234,8234,8234,8234,8234,8234,8234,8234,8234,8234,8234,8234,8234,8234,8234,8234,8234,8234,8234,8234,8234,8234,8234,8234,8234,8134,8134,8134,8134,8134,8134,8134,8134,8134,8134,8134,8134,8134,8134,8134,8110,8110,8110,8110,8110,8110,8110,8110,8110,8110,8110,8110,8110,8110,8110,8110,8110,8110,8110,8110,8110,8110,8110,8110,8110,8110,8110,8110,8110,8110,8110,8110,8110,8110,8110,8110,8110,8110,8110,8110,8134,8134,8134,8134,8134,8134,8134,8134,8134,8134,8134,8134,8134,8134,8134,8134,8134,8134,8134,8134,8134,8134,8134,8134,8234,8234,8234,8234,8234,8234,8234,8234,8234,8234,8234,8234,8234,8234,8234,8234,8234,8234,8234,8234,8234,8234,8234,8234,8234,8234,8234,8234,8226,8226,8226,8226,8226,8226,8226,8226,8226,8226,8226,8226,8226,8226,8226,8226,8226,8226,
8234,8234,8234,8234,8234,8234,8234,8234,8234,8234,8234,8234,8234,8234,8234,8234,8234,8234,8234,8234,8234,8234,8234,8234,8234,8234,8234,8234,8234,8234,8234,8134,8134,8134,8134,8134,8134,8134,8134,8134,8134,8134,8134,8134,8134,8134,8134,8134,8110,8110,8110,8110,8110,8110,8110,8110,8110,8110,8110,8110,8110,8110,8110,8110,8110,8110,8110,8110,8110,8110,8110,8110,8110,8110,8110,8110,8110,8110,8110,8110,8110,8110,8110,8110,8134,8134,8134,8134,8134,8134,8134,8134,8134,8134,8134,8134,8134,8134,8134,8134,8134,8134,8134,8134,8134,8134,8134,8134,8134,8134,8234,8234,8234,8234,8234,8234,8234,8234,8234,8234,8234,8234,8234,8234,8234,8234,8234,8234,8234,8234,8234,8234,8234,8234,8234,8234,8234,8226,8226,8226,8226,8226,8226,8226,8226,8226,8226,8226,8226,8226,8226,8226,8226,8226,8226,8226,
8234,8234,8234,8234,8234,8234,8234,8234,8234,8234,8234,8234,8234,8234,8234,8234,8234,8234,8234,8234,8234,8234,8234,8234,8234,8234,8234,8234,8234,8234,8234,8134,8134,8134,8134,8134,8134,8134,8134,8134,8134,8134,8134,8134,8134,8134,8134,8134,8110,8110,8110,8110,8110,8110,8110,8110,8110,8110,8110,8110,8110,8110,8110,8110,8110,8110,8110,8110,8110,8110,8110,8110,8110,8110,8110,8110,8110,8110,8110,8110,8110,8110,8110,8134,8134,8134,8134,8134,8134,8134,8134,8134,8134,8134,8134,8134,8134,8134,8134,8134,8134,8134,8134,8134,8134,8134,8134,8134,8134,8134,8234,8234,8234,8234,8234,8234,8234,8234,8234,8234,8234,8234,8234,8234,8234,8234,8234,8234,8234,8234,8234,8234,8234,8234,8234,8234,8234,8226,8226,8226,8226,8226,8226,8226,8226,8226,8226,8226,8226,8226,8226,8226,8226,8226,8226,8226,
8234,8234,8234,8234,8234,8234,8234,8234,8234,8234,8234,8234,8234,8234,8234,8234,8234,8234,8234,8234,8234,8234,8234,8234,8234,8234,8234,8234,8234,8234,8234,8234,8134,8134,8134,8134,8134,8134,8134,8134,8134,8134,8134,8134,8134,8134,8134,8134,8134,8110,8110,8110,8110,8110,8110,8110,8110,8110,8110,8110,8110,8110,8110,8110,8110,8110,8110,8110,8110,8110,8110,8110,8110,8110,8110,8110,8110,8110,8110,8110,8110,8110,8134,8134,8134,8134,8134,8134,8134,8134,8134,8134,8134,8134,8134,8134,8134,8134,8134,8134,8134,8134,8134,8134,8134,8134,8134,8134,8134,8234,8234,8234,8234,8234,8234,8234,8234,8234,8234,8234,8234,8234,8234,8234,8234,8234,8234,8234,8234,8234,8234,8234,8234,8234,8234,8234,8226,8226,8226,8226,8226,8226,8226,8226,8226,8226,8226,8226,8226,8226,8226,8226,8226,8226,8226,8226,
8234,8234,8234,8234,8234,8234,8234,8234,8234,8234,8234,8234,8234,8234,8234,8234,8234,8234,8234,8234,8234,8234,8234,8234,8234,8234,8234,8234,8234,8234,8234,8234,8134,8134,8134,8134,8134,8134,8134,8134,8134,8134,8134,8134,8134,8134,8134,8134,8134,8134,8110,8110,8110,8110,8110,8110,8110,8110,8110,8110,8110,8110,8110,8110,8110,8110,8110,8110,8110,8110,8110,8110,8110,8110,8110,8110,8110,8110,8110,8110,8110,8134,8134,8134,8134,8134,8134,8134,8134,8134,8134,8134,8134,8134,8134,8134,8134,8134,8134,8134,8134,8134,8134,8134,8134,8134,8134,8134,8134,8234,8234,8234,8234,8234,8234,8234,8234,8234,8234,8234,8234,8234,8234,8234,8234,8234,8234,8234,8234,8234,8234,8234,8234,8234,8234,8234,8226,8226,8226,8226,8226,8226,8226,8226,8226,8226,8226,8226,8226,8226,8226,8226,8226,8226,8226,8226,
8234,8234,8234,8234,8234,8234,8234,8234,8234,8234,8234,8234,8234,8234,8234,8234,8234,8234,8234,8234,8234,8234,8234,8234,8234,8234,8234,8234,8234,8234,8234,8234,8134,8134,8134,8134,8134,8134,8134,8134,8134,8134,8134,8134,8134,8134,8134,8134,8134,8134,8134,8110,8110,8110,8110,8110,8110,8110,8110,8110,8110,8110,8110,8110,8110,8110,8110,8110,8110,8110,8110,8110,8110,8110,8110,8110,8110,8110,8110,8110,8134,8134,8134,8134,8134,8134,8134,8134,8134,8134,8134,8134,8134,8134,8134,8134,8134,8134,8134,8134,8134,8134,8134,8134,8134,8134,8134,8134,8234,8234,8234,8234,8234,8234,8234,8234,8234,8234,8234,8234,8234,8234,8234,8234,8234,8234,8234,8234,8234,8234,8234,8234,8234,8234,8234,8226,8226,8226,8226,8226,8226,8226,8226,8226,8226,8226,8226,8226,8226,8226,8226,8226,8226,8226,8226,8226,
8234,8234,8234,8234,8234,8234,8234,8234,8234,8234,8234,8234,8234,8234,8234,8234,8234,8234,8234,8234,8234,8234,8234,8234,8234,8234,8234,8234,8234,8234,8234,8234,8234,8134,8134,8134,8134,8134,8134,8134,8134,8134,8134,8134,8134,8134,8134,8134,8134,8134,8134,8134,8110,8110,8110,8110,8110,8110,8110,8110,8110,8110,8110,8110,8110,8110,8110,8110,8110,8110,8110,8110,8110,8110,8110,8110,8110,8110,8134,8134,8134,8134,8134,8134,8134,8134,8134,8134,8134,8134,8134,8134,8134,8134,8134,8134,8134,8134,8134,8134,8134,8134,8134,8134,8134,8134,8234,8234,8234,8234,8234,8234,8234,8234,8234,8234,8234,8234,8234,8234,8234,8234,8234,8234,8234,8234,8234,8234,8234,8234,8234,8234,8234,8234,8226,8226,8226,8226,8226,8226,8226,8226,8226,8226,8226,8226,8226,8226,8226,8226,8226,8226,8226,8226,8226,8226,
8234,8234,8234,8234,8234,8234,8234,8234,8234,8234,8234,8234,8234,8234,8234,8234,8302,8302,8302,8302,8234,8234,8234,8234,8234,8234,8234,8234,8234,8234,8234,8234,8234,8234,8134,8134,8134,8134,8134,8134,8134,8134,8134,8134,8134,8134,8134,8134,8134,8134,8134,8134,8134,8110,8110,8110,8110,8110,8110,8110,8110,8110,8110,8110,8110,8110,8110,8110,8110,8110,8110,8110,8110,8110,8110,8110,8134,8134,8134,8134,8134,8134,8134,8134,8134,8134,8134,8134,8134,8134,8134,8134,8134,8134,8134,8134,8134,8134,8134,8134,8134,8134,8134,8134,8134,8234,8234,8234,8234,8234,8234,8234,8234,8234,8234,8234,8234,8234,8234,8234,8234,8234,8234,8234,8234,8234,8234,8234,8234,8234,8234,8234,8234,8226,8226,8226,8226,8226,8226,8226,8226,8226,8226,8226,8226,8226,8226,8226,8226,8226,8226,8226,8226,8226,8226,8226,
8234,8234,8234,8234,8234,8234,8234,8234,8234,8234,8234,8234,8234,8302,8302,8302,8302,8302,8302,8302,8302,8234,8234,8234,8234,8234,8234,8234,8234,8234,8234,8234,8234,8234,8234,8134,8134,8134,8134,8134,8134,8134,8134,8134,8134,8134,8134,8134,8134,8134,8134,8134,8134,8134,8110,8110,8110,8110,8110,8110,8110,8110,8110,8110,8110,8110,8110,8110,8110,8110,8110,8110,8110,8110,8110,8134,8134,8134,8134,8134,8134,8134,8134,8134,8134,8134,8134,8134,8134,8134,8134,8134,8134,8134,8134,8134,8134,8134,8134,8134,8134,8134,8134,8134,8234,8234,8234,8234,8234,8234,8234,8234,8234,8234,8234,8234,8234,8234,8234,8234,8234,8234,8234,8234,8234,8234,8234,8234,8234,8234,8234,8234,8226,8226,8226,8226,8226,8226,8226,8226,8226,8226,8226,8226,8226,8226,8226,8226,8226,8226,8226,8226,8226,8226,8226,8226,
8234,8234,8234,8234,8234,8234,8234,8234,8234,8234,8234,8234,8302,8302,8302,8302,8302,8302,8302,8302,8302,8302,8234,8234,8234,8234,8234,8234,8234,8234,8234,8234,8234,8234,8234,8234,8134,8134,8134,8134,8134,8134,8134,8134,8134,8134,8134,8134,8134,8134,8134,8134,8134,8134,8134,8110,8110,8110,8110,8110,8110,8110,8110,8110,8110,8110,8110,8110,8110,8110,8110,8110,8110,8110,8134,8134,8134,8134,8134,8134,8134,8134,8134,8134,8134,8134,8134,8134,8134,8134,8134,8134,8134,8134,8134,8134,8134,8134,8134,8134,8134,8134,8134,8234,8234,8234,8234,8234,8234,8234,8234,8234,8234,8234,8234,8234,8234,8234,8234,8234,8234,8234,8234,8234,8234,8234,8234,8234,8234,8234,8234,8234,8226,8226,8226,8226,8226,8226,8226,8226,8226,8226,8226,8226,8226,8226,8226,8226,8226,8226,8226,8226,8226,8226,8226,8226,
8234,8234,8234,8234,8234,8234,8234,8234,8234,8234,8234,8302,8302,8302,8302,8302,8302,8302,8302,8302,8302,8302,8234,8234,8234,8234,8234,8234,8234,8234,8234,8234,8234,8234,8234,8234,8234,8134,8134,8134,8134,8134,8134,8134,8134,8134,8134,8134,8134,8134,8134,8134,8134,8134,8134,8110,8110,8110,8110,8110,8110,8110,8110,8110,8110,8110,8110,8110,8110,8110,8110,8110,8110,0,8134,8134,0,0,0,8134,8134,8134,8134,8134,8134,8134,8134,8134,8134,8134,8134,8134,8134,8134,8134,8134,8134,8134,8134,8134,8134,8134,8234,8234,8234,8234,8234,8234,8234,8234,8234,8234,8234,8234,8234,8234,8234,8234,8234,8234,8234,8234,8234,8234,8234,8234,8234,8234,8234,8234,8234,8226,8226,8226,8226,8226,8226,8226,8226,8226,8226,8226,8226,8226,8226,8226,8226,8226,8226,8226,8226,8226,8226,8226,8226,8226,
8234,8234,8234,8234,8234,8234,8234,8234,8234,8302,8302,8302,8302,8234,8234,8302,8302,8234,8302,8302,8302,8302,8302,8302,8302,8302,8302,8302,8234,8234,8234,8234,8234,8234,8234,8234,8234,8234,8134,8134,8134,8134,8134,8134,8134,8134,8134,8134,8134,8134,8134,8134,8134,8134,8134,8134,8110,8110,8110,8110,8110,8110,8110,8110,8110,8110,8110,8110,8110,8110,8110,8110,0,8134,8134,8134,8134,8134,8134,8134,8134,8134,8134,8134,8134,8134,8134,8134,8134,8134,8134,8134,8134,8134,8134,8134,8134,8134,8134,8134,8234,8234,8234,8234,8234,8234,8234,8234,8234,8234,8234,8234,8234,8234,8234,8234,8234,8234,8234,8234,8234,8234,8234,8234,8234,8234,8234,8234,8234,8234,8226,8226,8226,8226,8226,8226,8226,8226,8226,8226,8226,8226,8226,8226,8226,8226,8226,8226,8226,8226,8226,8226,8226,8226,8226,8226,
8234,8234,8234,8234,8234,8302,8302,8302,8302,8302,8302,8302,8302,8234,8234,8234,8234,8302,8302,8302,8234,8302,8302,8302,8302,8302,8302,8302,8234,8234,8234,8234,8234,8234,8234,8234,8234,8234,8234,8134,8134,8134,8134,8134,8134,8134,8134,8134,8134,8134,8134,8134,8134,8134,8134,8134,8134,8110,29,30,31,32,33,34,35,36,8110,38,39,40,8110,8110,43,44,8134,8134,47,48,8134,8134,8134,8134,8134,8134,8134,8134,8134,8134,8134,8134,8134,8134,8134,8134,8134,8134,8134,8134,8134,8134,8234,8234,8234,8234,8234,8234,8234,8234,8226,8226,8226,8234,8234,8234,8234,8234,8234,8234,8234,8234,8234,8234,8234,8234,8234,8234,8234,8234,8226,8226,8226,8226,8226,8226,8226,8226,8226,8226,8226,8226,8226,8226,8226,8226,8226,8226,8226,8226,8226,8226,8226,8226,8226,8226,8226,8226,
8234,8234,8234,8234,8302,8302,8302,8302,8302,8302,8234,8234,8234,8234,8234,8234,8234,8234,8302,8234,8234,8234,8234,8234,8234,8234,8302,8302,8234,8234,8234,8234,8234,8234,8234,8234,8234,8234,8234,8234,8134,8134,8134,8134,8134,8134,8134,8134,8134,8134,8134,8134,8134,8134,8134,8134,8134,8134,119,8110,8110,8110,8110,8110,8110,126,127,128,129,8110,8110,132,133,134,8134,8134,8134,8134,139,140,141,8134,8134,8134,8134,8134,8134,8134,8134,8134,8134,8134,8134,8134,8134,8134,8134,8134,8134,8134,8234,8234,8234,8234,8234,8234,8226,8226,8226,8226,8226,8226,8226,8234,8234,8234,8234,8234,8234,8234,8234,8234,8234,8234,8234,8234,8234,8226,8226,8226,8226,8226,8226,8226,8226,8226,8226,8226,8226,8226,8226,8226,8226,8226,8226,8226,8226,8226,8226,8226,8226,8226,8226,8226,8226,8226,
8234,8234,8234,8234,8302,8302,8234,8234,8234,8234,8234,8234,8234,8234,8234,8234,8234,8234,8302,8234,8234,8234,8234,8234,8234,8234,8302,8302,8234,8234,8234,8234,8234,8234,8234,8234,8234,8234,8234,8234,8234,8134,8134,8134,8134,8134,8134,8134,8134,8134,8134,8134,8134,8134,8134,8134,8134,8134,8134,8134,8134,8134,8110,8110,215,216,217,218,8110,8110,221,222,223,8134,8134,226,227,228,229,230,231,232,233,8134,8134,8134,8134,8134,8134,8134,8134,8134,8134,8134,8134,8134,8134,8134,8134,8134,8234,8234,8234,8234,8234,8234,8226,8226,8226,8226,8226,8226,8226,8226,8234,8234,8234,8234,8234,8234,8234,8234,8234,8234,8234,8234,8226,8226,8226,8226,8226,8226,8226,8226,8226,8226,8226,8226,8226,8226,8226,8226,8226,8226,8226,8226,8226,8226,8226,8226,8226,8226,8226,8226,8226,8226,
8234,8234,8234,8234,8302,8302,8302,8234,8234,8234,8234,8234,8234,8234,8234,8234,8234,8234,8302,8302,8234,8234,8234,8234,8234,8234,8302,8302,8234,8234,8234,8234,8234,8234,8234,8234,8234,8234,8234,8234,8234,8234,8234,8134,8134,8134,8134,8134,8134,8134,8134,8134,8134,8134,8134,8134,8134,8134,8134,8134,8134,8134,8134,8134,8134,8134,307,8110,309,310,311,312,313,314,8134,8134,8134,8134,8134,8134,321,8134,8134,8134,8134,8134,8134,328,8134,8134,8134,8134,8134,8134,335,336,337,8134,339,8134,8234,8234,8234,8234,8234,8234,8226,8226,8226,8226,8226,8226,8226,8226,8226,8226,8234,8234,8234,8234,8234,8234,8234,8234,8234,8226,8226,8226,8226,8226,8226,8226,8226,8226,8226,8226,8226,8226,8226,8226,8226,8226,8226,8226,8226,8226,8226,8226,8226,8226,8226,8226,8226,8226,8226,8226,
8234,8234,8234,8234,8302,8302,8234,8234,8234,8234,8234,8234,8234,8234,8234,8234,8234,8234,8234,8302,8234,8234,8234,8234,8234,8234,8302,8302,8234,8234,8234,8234,8234,8234,8234,8234,8234,8234,8234,8234,8234,8234,8234,8234,8134,8134,8134,8134,8134,8134,8134,8134,8134,8134,8134,8134,8134,8134,8134,8134,8134,8134,8134,8134,8134,8134,8134,8110,8110,8110,8110,8110,8110,8110,405,406,407,408,409,8134,8134,412,413,8134,8134,8134,8134,8134,8134,8134,8134,8134,8134,8134,8134,8134,8134,8134,429,8134,8234,8234,8234,8234,8234,8234,8226,8226,8226,8226,8226,8226,8226,8226,8226,8226,8234,8234,8234,8234,8234,8234,8234,8234,8226,8226,8226,8226,8226,8226,8226,8226,8226,8226,8226,8226,8226,8226,8226,8226,8226,8226,8226,8226,8226,8226,8226,8226,8226,8226,8226,8226,8226,8226,8226,8226,
8234,8234,8234,8234,8302,8302,8302,8302,8234,8234,8234,8234,8234,8234,8234,8234,8234,8234,8234,8302,8234,8234,8234,8234,8234,8302,8302,8302,8234,8234,8234,8234,8234,8234,8234,8234,8234,8234,8234,8234,8234,8234,8234,8234,8234,8134,8134,8134,8134,8134,8134,8134,8134,8134,8134,8134,8134,8134,8134,8134,8134,8134,8134,484,8134,8134,8134,8134,8134,8134,8134,8134,493,494,8110,8110,8110,498,499,500,8134,502,503,8134,8134,8134,8134,8134,8134,8134,8134,8134,8134,8134,8134,8134,8134,8134,519,8134,8234,8234,8234,8234,8234,8234,8226,8226,8226,8226,8226,8226,8226,8226,8226,8226,8234,8234,8234,8234,8234,8234,8234,8234,8226,8226,8226,8226,8226,8226,8226,8226,8226,8226,8226,8226,8226,8226,8226,8226,8226,8226,8226,8226,8226,8226,8226,8226,8226,8226,8226,8226,8226,8226,8226,8226,
8234,8234,8234,8234,8302,8302,8302,8302,8302,8302,8302,8302,8302,8302,8302,8302,8302,8302,8302,8302,8302,8234,8234,8234,8302,8302,8302,8302,8234,8234,8234,8234,8234,8234,8234,8234,8234,8234,8234,8234,8234,8234,8234,8234,8234,8234,8234,8134,8134,8134,8234,8134,8134,8134,8134,8134,8134,8134,8134,8134,8134,8134,8134,8134,8134,8134,577,8134,8134,8134,8134,8134,8134,8134,585,8110,8110,588,589,590,8134,592,593,8134,8134,8134,8134,8134,8134,8134,8134,8134,8134,8134,8134,8134,8134,8134,8134,8134,8234,8234,8234,8234,8234,8234,8234,8226,8226,8226,8226,8226,8226,8226,8226,8234,8234,8234,8234,8234,8234,8234,8234,8234,8226,8226,8226,8226,8226,8226,8226,8226,8226,8226,8226,8226,8226,8226,8226,8226,8226,8226,8226,8226,8226,8226,8226,8226,8226,8226,8226,8226,8226,8226,8226,8226,
8234,8234,8234,8234,8234,8234,8302,8302,8302,8302,8302,8302,8302,8302,8302,8302,8302,8234,8234,8234,8234,8234,8234,8302,8302,8302,8302,8234,8234,8234,8234,8234,8234,8234,8234,8234,8234,8234,8234,8234,8234,8234,8234,8234,8234,8234,8234,8234,8234,8234,8234,8234,8234,8134,8134,8134,8134,8134,8134,8134,8134,8134,8134,8134,8134,8134,8134,8134,8134,670,8134,8134,8134,8134,8134,8110,8110,8110,679,680,681,8134,8134,8134,8134,8134,8134,8134,8134,8134,8134,8134,8134,8134,8134,8134,8134,8134,8134,700,8134,8134,8234,8234,8234,8234,8234,8234,8226,8226,8226,8226,8226,8226,8226,8234,8234,8234,8234,8234,8234,8234,8234,8234,8226,8226,8226,8226,8226,8226,8226,8226,8226,8226,8226,8226,8226,8226,8226,8226,8226,8226,8226,8226,8226,8226,8226,8226,8226,8226,8226,8226,8226,8226,8226,8226,
8234,8234,8234,8234,8234,8234,8234,8234,8234,8234,8234,8234,8234,8234,8302,8302,8302,8302,8302,8302,8302,8302,8302,8302,8302,8302,8234,8234,8234,8234,8234,8234,8234,8234,8234,8234,8234,8234,8234,8234,8234,8234,8234,8234,8234,8234,8234,8234,8234,8234,8234,8234,8234,8234,8134,8134,8134,8134,8134,8134,8134,8134,8134,8134,8134,8134,8134,8134,8134,8134,8134,8134,8134,8134,8134,766,8110,8110,8110,8110,771,772,8134,774,8134,8134,8134,8134,8134,8134,8134,8134,8134,8134,8134,8134,8134,8134,8134,790,791,8134,8234,8234,8234,8234,8234,8234,8226,8226,8226,8226,8226,8234,8234,8234,8234,8234,8234,8234,8234,8234,8234,8226,8226,8226,8226,8226,8226,8226,8226,8226,8226,8226,8226,8226,8226,8226,8226,8226,8226,8226,8226,8226,8226,8226,8226,8226,8226,8226,8226,8226,8226,8226,8226,8226,
8234,8234,8234,8234,8234,8234,8234,8234,8234,8234,8234,8234,8234,8234,8234,8234,8302,8302,8302,8302,8302,8302,8302,8302,8302,8234,8234,8234,8234,8234,8234,8234,8234,8234,8234,8234,8234,8234,8234,8234,8234,8234,8234,8234,8234,8234,8234,8234,8234,8234,8234,8234,8234,8234,8234,8234,8234,8134,8134,8134,8134,8134,8134,8134,8134,8134,8134,8134,8134,8134,8134,8134,853,8134,8110,8110,8110,858,8110,8110,8110,862,863,8134,8134,8134,8134,8134,8134,8134,8134,8134,8134,8134,8134,8134,8134,8134,8134,880,881,8134,8234,8234,8234,8234,8234,8234,8226,8226,8226,8226,8226,8234,8234,8234,8234,8234,8234,8234,8234,8234,8234,8226,8226,8226,8226,8226,8226,8226,8226,8226,8226,8226,8226,8226,8226,8226,8226,8226,8226,8226,8226,8226,8226,8226,8226,8226,8226,8226,8226,8226,8226,8226,8226,8226,
8234,8234,8234,8234,8234,8234,8234,8234,8234,8234,8234,8234,8234,8234,8234,8234,8234,8234,8234,8234,8234,8234,8234,8234,8234,8234,8234,8234,8234,8234,8234,8234,8234,8234,8234,8234,8234,8234,8234,8234,8234,8234,8234,8234,8234,8234,8234,8234,8234,8234,8234,8234,8234,8234,8234,8234,8234,8134,8134,8134,8134,8134,8134,8134,8134,8134,8134,8134,8134,8134,8134,8134,943,8134,8110,8110,8110,948,8110,8110,8110,952,953,8134,955,956,8134,8134,8134,8134,8134,8134,8134,8134,8134,8134,8134,8134,8134,970,971,8234,8234,8234,8234,8234,8234,8234,8226,8226,8226,8226,8226,8234,8234,8234,8234,8234,8234,8234,8234,8234,8234,8226,8226,8226,8226,8226,8226,8226,8226,8226,8226,8226,8226,8226,8226,8226,8226,8226,8226,8226,8226,8226,8226,8226,8226,8226,8226,8226,8226,8226,8226,8226,8226,8226,
8234,8234,8234,8234,8234,8234,8234,8234,8234,8234,8234,8234,8234,8234,8234,8234,8234,8234,8234,8234,8234,8234,8234,8234,8234,8234,8234,8234,8234,8234,8234,8234,8234,8234,8234,8234,8234,8234,8234,8234,8234,8234,8234,8234,8234,8234,8234,8234,8234,8234,8234,8234,8234,8234,8234,8234,8234,8234,8134,8134,8134,8134,8134,8134,8134,8134,8134,8134,8134,8134,8134,8134,8134,8134,8134,8134,8134,8134,8110,8110,8110,1042,1043,8134,1045,1046,8134,8134,8134,8134,8134,8134,8134,8134,8134,8134,8134,8134,1059,8134,8134,8234,8234,8234,8234,8234,8234,8234,8234,8226,8226,8226,8226,8234,8234,8234,8234,8234,8234,8234,8234,8234,8234,8226,8226,8226,8226,8226,8226,8226,8226,8226,8226,8226,8226,8226,8226,8226,8226,8226,8226,8226,8226,8226,8226,8226,8226,8226,8226,8226,8226,8226,8226,8226,8226,8226,
8234,8234,8234,8234,8234,8234,8234,8234,8234,8234,8234,8234,8234,8234,8234,8234,8234,8234,8234,8234,8234,8234,8234,8234,8234,8234,8234,8234,8234,8234,8234,8234,8234,8234,8234,8234,8234,8234,8234,8234,8234,8234,8234,8234,8234,8234,8246,8246,8246,8246,8234,8234,8234,8234,8234,8234,8234,8234,8234,8134,8134,8134,8134,8134,8134,8134,8134,8134,8134,8134,8134,8134,1123,8134,8134,8134,8134,8134,8110,8134,8110,8134,8134,8134,1135,1136,8134,8134,8134,8134,8134,8134,8134,8134,8134,8134,8134,8134,1149,1150,8234,8234,8234,8234,8234,8234,8234,8234,8234,8226,8226,8226,8226,8234,8234,8234,8234,8234,8234,8234,8234,8234,8234,8226,8226,8226,8226,8226,8226,8226,8226,8226,8226,8226,8226,8226,8226,8226,8226,8226,8226,8226,8226,8226,8226,8226,8226,8226,8226,8226,8226,8226,8226,8226,8226,8226,
8234,8234,8234,8234,8234,8234,8234,8234,8234,8234,8234,8234,8234,8234,8234,8234,8234,8234,8234,8234,8234,8234,8234,8234,8234,8234,8234,8234,8234,8234,8234,8234,8234,8234,8234,8234,8234,8234,8234,8234,8234,8234,8234,8234,8234,8235,8226,8226,8226,8226,8234,8234,8234,8234,8234,8234,8234,8234,8234,8134,8134,8134,8134,8134,8134,8134,8134,8134,8134,8134,8134,8134,1213,8134,8134,1216,8134,8134,8110,1220,8134,8134,8134,8134,1225,8134,8134,8134,8134,8134,8134,8134,8134,8134,8134,8134,8134,8134,8134,8134,8134,8234,8234,8234,8234,8234,8234,8234,8234,8226,8226,8226,8226,8226,8234,8234,8234,8234,8234,8234,8234,8234,8234,8226,8226,8226,8226,8226,8226,8226,8226,8226,8226,8226,8226,8226,8226,8226,8226,8226,8226,8226,8226,8226,8226,8226,8226,8226,8226,8226,8226,8226,8226,8226,8226,8226,
8234,8234,8234,8234,8234,8234,8234,8234,8234,8234,8234,8234,8234,8234,8234,8234,8234,8234,8234,8234,8234,8234,8234,8234,8234,8234,8234,8234,8234,8234,8234,8234,8234,8234,8270,8270,8270,8270,8270,8270,8270,8234,8234,8234,8234,8226,8226,8226,8226,8226,8234,8234,8234,8234,8234,8234,8234,8234,8234,8234,8234,8134,8134,8134,8134,8134,8134,8134,8134,8134,8134,8134,1303,8134,8134,1306,1307,8134,8110,8134,8134,8134,8134,1314,1315,8134,8134,8134,8134,8134,8134,8134,8134,8134,8134,8134,1327,1328,1329,8134,8134,8234,8234,8234,8234,8234,8234,8234,8226,8226,8226,8226,8226,8226,8226,8226,8234,8234,8234,8234,8234,8234,8234,8226,8226,8226,8226,8226,8226,8226,8226,8226,8226,8226,8226,8226,8226,8226,8226,8226,8226,8226,8226,8226,8226,8226,8226,8226,8226,8226,8226,8226,8226,8226,8226,8226,
8234,8234,8234,8234,8234,8234,8234,8234,8234,8234,8234,8234,8234,8234,8234,8234,8234,8234,8234,8234,8234,8234,8234,8234,8234,8234,8234,8234,8234,8234,8234,8234,8234,8234,8270,8270,8270,8270,8270,8270,8270,8270,8270,8270,8234,8234,8226,8226,8226,8226,8226,8234,8234,8234,8234,8234,8234,8234,8234,8234,8234,8234,8234,8134,8134,8134,8134,8134,8134,8134,8134,8134,1393,1394,8134,8134,8134,8134,8110,8134,8134,8134,1403,1404,1405,8134,8134,8134,8134,8134,8134,8134,8134,8134,8134,8134,1417,8134,8134,8134,8234,8234,8234,8234,8234,8234,8234,8226,8226,8226,8226,8226,8226,8226,8226,8226,8234,8234,8234,8234,8234,8234,8234,8234,8226,8226,8226,8226,8226,8226,8226,8226,8226,8226,8226,8226,8226,8226,8226,8226,8226,8226,8226,8226,8226,8226,8226,8226,8226,8226,8226,8226,8226,8226,8226,8226,
8234,8234,8234,8234,8234,8234,8234,8234,8234,8234,8234,8234,8234,8234,8234,8234,8234,8234,8234,8234,8234,8234,8234,8234,8234,8234,8234,8234,8234,8234,8234,8234,8234,8234,8270,8270,8270,8270,8270,8270,8270,8270,8270,8270,8234,8234,8234,8234,8226,8226,8226,8226,8226,8226,8226,8234,8234,8234,8234,8234,8234,8234,8234,8134,8134,8134,8134,8134,8134,8134,8134,8134,1483,1484,8134,8110,8134,8110,8110,8134,8134,1492,1493,8134,1495,8134,8134,8134,8134,8134,8134,8134,8134,8134,8134,1506,8134,8134,8134,8134,8234,8234,8234,8234,8234,8234,8234,8226,8226,8226,8226,8226,8226,8226,8226,8234,8234,8234,8234,8234,8234,8234,8234,8234,8226,8226,8226,8226,8226,8226,8226,8226,8226,8226,8226,8226,8226,8226,8226,8226,8226,8226,8226,8226,8226,8226,8226,8226,8226,8226,8226,8226,8226,8226,8226,8226,
8234,8234,8234,8234,8234,8234,8234,8234,8234,8234,8234,8234,8234,8234,8234,8234,8234,8234,8234,8234,8234,8234,8234,8234,8234,8234,8234,8234,8234,8234,8234,8234,8234,8234,8270,8270,8270,8270,8270,8270,8270,8270,8270,8270,8234,8234,8234,8234,8226,8226,8226,8226,8226,8226,8226,8234,8234,8234,8234,8234,8234,8234,8234,8234,8134,8134,8134,8134,8134,8134,8134,8134,1573,8134,8134,8110,8110,8110,8134,8134,8134,1582,1583,8134,8134,8134,8134,8134,8134,8134,8134,8134,8134,8134,8134,8134,1597,8134,1599,8234,8234,8234,8234,8234,8234,8234,8234,8226,8226,8226,8226,8226,8226,8226,8226,8234,8234,8234,8234,8234,8234,8234,8234,8234,8226,8226,8226,8226,8226,8226,8226,8226,8226,8226,8226,8226,8226,8226,8226,8226,8226,8226,8226,8226,8226,8226,8226,8226,8226,8226,8226,8226,8226,8226,8226,8226,
8234,8234,8234,8234,8234,8234,8234,8234,8234,8234,8234,8234,8234,8234,8234,8234,8234,8234,8234,8234,8234,8234,8234,8234,8234,8234,8234,8234,8234,8234,8234,8234,8234,8234,8270,8270,8270,8270,8270,8270,8270,8270,8270,8270,8270,8234,8234,8236,8234,8226,8226,8226,8226,8226,8226,8226,8234,8234,8234,8234,8234,8234,8234,8234,8234,8134,8134,8134,8134,8134,8134,8134,1663,8134,1665,8110,8110,1668,8110,8134,8134,1672,1673,1674,1675,8134,8134,8134,8134,8134,8134,8134,8134,8134,8134,8134,8134,8134,8234,8234,8234,8234,8234,8234,8234,8234,8234,8234,8226,8226,8226,8226,8226,8234,8234,8234,8234,8234,8234,8234,8234,8234,8234,8234,8234,8226,8226,8226,8226,8226,8226,8226,8226,8226,8226,8226,8226,8226,8226,8226,8226,8226,8226,8226,8226,8226,8226,8226,8226,8226,8226,8226,8226,8226,8226,8226,
8234,8234,8234,8234,8234,8234,8234,8234,8234,8234,8234,8234,8234,8234,8234,8234,8234,8234,8234,8234,8234,8234,8234,8234,8234,8234,8234,8234,8234,8234,8234,8234,8234,8234,8270,8270,8270,8270,8270,8270,8270,8270,8270,8270,8270,8234,8234,8234,8236,8234,8226,8226,8226,8226,8226,8226,8234,8234,8234,8234,8234,8234,8234,8234,8234,8134,8134,8134,8134,8134,8134,8134,1753,8134,1755,8110,8110,1758,8110,8134,8134,8134,8134,8134,8134,1766,1767,1768,1769,8134,8134,8134,8134,8134,8134,8134,8134,8134,8234,8234,8234,8234,8234,8234,8234,8234,8234,8234,8234,8234,8226,8226,8234,8234,8234,8234,8234,8234,8234,8234,8234,8234,8234,8234,8234,8234,8234,8226,8226,8226,8226,8226,8226,8226,8226,8226,8226,8226,8226,8226,8226,8226,8226,8226,8226,8226,8226,8226,8226,8226,8226,8226,8226,8226,8226,8226,
8234,8234,8234,8234,8234,8234,8234,8234,8234,8234,8234,8234,8234,8234,8234,8234,8234,8234,8234,8234,8234,8234,8234,8234,8234,8234,8234,8234,8234,8234,8234,8234,8234,8234,8270,8270,8270,8270,8270,8270,8270,8270,8270,8270,8270,8234,8234,8234,8234,8234,8226,8226,8226,8226,8226,8226,8226,8226,8226,8226,8234,8234,8234,8234,8234,8234,8234,8134,8134,8134,8134,8134,1843,8134,8134,8110,8110,1848,1849,8134,8110,8134,8134,8134,8134,8134,1857,1858,1859,1860,8134,8134,8134,8134,8134,8134,8134,8134,8234,8234,8234,8234,8234,8234,8234,8234,8234,8234,8234,8234,8234,8234,8234,8234,8234,8234,8234,8234,8234,8234,8234,8234,8234,8234,8234,8234,8234,8234,8226,8226,8226,8226,8226,8226,8226,8226,8226,8226,8226,8226,8226,8226,8226,8226,8226,8226,8226,8226,8226,8226,8226,8226,8226,8226,8226,8226,
8234,8234,8234,8234,8234,8234,8234,8234,8234,8234,8234,8234,8234,8234,8234,8234,8234,8234,8234,8234,8234,8234,8234,8234,8234,8234,8234,8234,8234,8234,8234,8234,8234,8234,8270,8270,8270,8270,8270,8270,8270,8270,8270,8270,8270,8234,8234,8234,8234,8236,8234,8234,8226,8226,8226,8226,8226,8226,8226,8226,8226,8234,8234,8234,8234,8234,8234,8134,8134,8134,8134,8134,1933,1934,8134,8134,8134,8134,8134,8134,8134,8134,8110,8110,1945,8134,8134,8134,1949,1950,8134,8134,8134,8134,8134,8134,8134,8134,8234,8234,8234,8234,8234,8234,8234,8234,8234,8234,8234,8234,8234,8234,8234,8234,8234,8234,8234,8234,8234,8234,8234,8234,8234,8234,8234,8234,8234,8234,8234,8226,8226,8226,8226,8226,8226,8226,8226,8226,8226,8226,8226,8226,8226,8226,8226,8226,8226,8226,8226,8226,8226,8226,8226,8226,8226,8226,
8234,8234,8234,8234,8234,8234,8234,8234,8234,8234,8234,8234,8234,8234,8234,8234,8234,8234,8234,8234,8234,8234,8234,8234,8234,8234,8234,8234,8234,8234,8234,8234,8234,8234,8234,8270,8270,8270,8270,8270,8270,8270,8270,8270,8270,8234,8234,8234,8234,8234,8234,8234,8226,8226,8226,8226,8226,8226,8226,8226,8226,8234,8234,8234,8234,8234,8234,8234,8234,8234,8234,8234,2023,2024,2025,2026,2027,2028,2029,8134,8134,8134,8134,8110,2035,2036,2037,8134,8134,2040,8134,8134,8134,8134,8134,8134,8134,8134,8234,8234,8234,8234,8234,8234,8234,8234,8234,8224,8246,8246,8246,8246,8225,8234,8234,8234,8234,8234,8234,8234,8234,8234,8234,8234,8234,8234,8234,8234,8234,8234,8226,8226,8226,8226,8226,8226,8226,8226,8226,8226,8226,8226,8226,8226,8226,8226,8226,8226,8226,8226,8226,8226,8226,8226,8226,8234,
8234,8234,8234,8234,8234,8234,8234,8234,8234,8234,8234,8234,8234,8234,8234,8234,8234,8234,8234,8234,8234,8234,8234,8234,8234,8234,8234,8234,8234,8234,8234,8234,8234,8234,8234,8234,8234,8270,8270,8270,8270,8270,8270,8270,8270,8234,8234,8234,2089,2090,2091,8236,8234,8234,8234,8234,8234,8234,8234,8234,8234,8234,8234,8234,8234,8234,8234,8234,8234,8234,8234,8234,8134,2114,2115,2116,2117,2118,2119,2120,8134,8134,8134,8134,2125,2126,2127,8134,8134,2130,2131,8134,8134,8134,8134,8134,8134,8134,8134,8234,8234,8234,8234,8234,8234,8224,8246,8247,8226,8226,8226,8226,8245,8246,8225,8234,8234,8234,8234,8234,8234,8234,8234,8234,8234,8234,8234,8234,8234,8234,8226,8226,8226,8226,8226,8226,8226,8226,8226,8226,8226,8226,8226,8226,8226,8226,8226,8226,8226,8226,8226,8226,8226,8226,8234,8234,
8234,8234,8234,8234,8234,8234,8234,8234,8234,8234,8234,8234,8234,8234,8234,8234,8234,8234,8234,8234,8234,8234,8234,8234,8234,8234,8234,8234,8234,8234,8234,8234,8234,8234,8234,8234,8234,8234,8270,8270,8270,8270,8270,8270,8270,8234,8234,8234,8234,2180,2181,2182,2183,2184,2185,2186,2187,2188,2189,8234,8234,8234,8234,8234,8234,8234,8234,8234,8234,8234,8234,8234,8234,2204,2205,2206,8134,8134,2209,2210,8134,8134,2213,8134,8134,8134,8134,8134,2219,2220,8134,2222,8134,8134,8134,8134,8134,8134,8134,8134,8234,8234,8234,8234,8234,8235,8226,8226,8226,8226,8226,8226,8226,8226,8245,8225,8234,8234,8234,8234,8234,8234,8234,8234,8234,8234,8234,8234,8234,8234,8234,8226,8226,8226,8226,8226,8226,8226,8226,8226,8226,8226,8226,8226,8226,8226,8226,8226,8226,8226,8226,8226,8226,8234,8234,8234,
8234,8234,8234,8234,8234,8234,8234,8234,8234,8234,8234,8234,8234,8234,8234,8234,8234,8234,8234,8234,8234,8234,8234,8234,8234,8234,8234,8234,8234,8234,8234,8234,8234,8234,8234,8234,8234,8234,8234,8270,8270,8262,8234,8270,8270,8270,8234,8234,8234,2270,8250,2272,2273,2274,2275,2276,2277,2278,2279,8224,8246,8225,8234,8234,8234,8234,8234,8234,8234,8234,8234,8234,8234,8234,8234,8234,8134,8134,8134,8134,8234,8234,8234,8234,2305,8134,8134,2308,8134,8134,8134,8134,8134,8134,8134,8134,8134,8134,8134,8134,8234,8234,8234,8234,8234,8235,8226,8226,8226,8226,8226,8226,8226,8226,8226,8245,8225,8234,8234,8234,8234,8234,8234,8234,8234,8234,8234,8234,8234,8234,8234,8226,8226,8226,8226,8226,8226,8226,8226,8226,8226,8226,8226,8226,8226,8226,8226,8226,8226,8226,8226,8226,8234,8234,8234,8234,
8234,8234,8234,8234,8234,8234,8234,8234,8234,8234,8234,8234,8234,8234,8234,8234,8234,8234,8234,8234,8234,8234,8234,8234,8234,8234,8234,8234,8234,8234,8234,8234,8234,8234,8234,8234,8234,8234,8234,8270,8270,8234,8250,8234,8270,8270,8234,8234,2359,2360,2361,2362,2363,2364,8234,8234,8234,8234,8234,8235,1073750053,8233,8234,8234,8234,8234,8234,8234,8234,8234,8234,8234,8134,8134,8234,8234,8234,8234,8234,8234,8234,8234,8234,8234,8134,2396,8134,8134,8134,8134,8134,8134,8134,8134,8134,8134,8134,8134,8134,8134,8134,8234,8234,8234,8234,8235,8226,8226,8226,8226,8226,8226,8226,8226,8226,8226,8233,8234,8234,8234,8234,8234,8234,8234,8234,8234,8234,8234,8234,8234,8234,8234,8226,8226,8226,8226,8226,8226,8226,8226,8226,8226,8226,8226,8226,8226,8226,8226,8226,8226,8226,8234,8234,8234,8234,8234,
8234,8234,8234,8234,8234,8234,8234,8234,8234,8234,8234,8234,8234,8234,8234,8234,8234,8234,8234,8234,8234,8234,8234,8234,8234,8234,8234,8234,8234,8234,8234,8234,8234,8234,8234,8234,8234,8234,8234,8270,8270,8263,8234,8262,8234,8270,8234,8234,2449,2450,2451,2452,2453,2454,8234,8224,8246,8246,8225,8235,1073750053,8233,8234,8234,8234,8234,8234,8234,8234,8234,8234,8234,8234,8234,8234,8234,8234,8234,8234,8234,8234,8234,8234,8234,8134,8134,8134,8134,8134,8134,8134,8134,8134,8134,8134,8134,8134,8134,8134,8134,8134,8134,8234,8234,8234,8235,8226,8226,8226,8226,8226,8226,8229,8226,8226,8226,8233,8234,8234,8234,8234,8234,8234,8234,8234,8234,8234,8234,8234,8234,8234,8234,8226,8226,8226,8226,8226,8226,8226,8226,8226,8226,8226,8226,8226,8226,8226,8226,8226,8226,8234,8234,8234,8234,8234,8234,
8234,8234,8234,8234,8234,8234,8234,8234,8234,8234,8234,8234,8234,8234,8234,8234,8234,8234,8234,8234,8234,8234,8234,8234,8234,8234,8234,8234,8234,8234,8234,8234,8234,8234,8234,8234,8234,8234,8234,8270,8270,8251,8234,8234,8250,8270,8234,8234,2539,2540,2541,2542,2543,8234,8234,8235,8226,8226,8233,8235,1073750053,8245,8246,8246,8246,8225,8234,8234,8234,8234,8234,8234,8234,8234,8234,8234,8234,8234,8234,8234,8234,8234,8234,8234,2575,8134,8134,8134,8134,8134,8134,8134,8134,8134,8134,8134,8134,8134,8134,8134,8134,8134,8234,8234,8234,8235,8226,8226,8226,8226,8226,8229,8229,8226,8226,8226,8233,8234,8234,8234,8234,8234,8234,8234,8234,8234,8234,8234,8234,8234,8234,8234,8234,8226,8226,8226,8226,8226,8226,8226,8226,8226,8226,8226,8226,8226,8226,8226,8226,8234,8234,8234,8234,8234,8234,8234,
8234,8234,8234,8234,8234,8234,8234,8234,8234,8234,8234,8234,8234,8234,8234,8234,8234,8234,8234,8234,8234,8234,8234,8234,8234,8234,8234,8234,8234,8234,8234,8234,8234,8234,8234,8234,8234,8234,8234,8270,8270,8250,8234,8263,8234,8270,8234,8234,2629,2630,8234,8234,8234,8234,8224,8247,8226,8226,8245,8247,1073750053,8226,8226,8226,8226,8233,8234,8234,8234,8234,8234,8234,8234,8234,8234,8234,8234,8234,8234,8234,8234,8234,8234,8234,2665,8134,8134,8134,8134,8134,8134,8134,8134,8134,8134,8134,8134,8134,8134,8134,8134,8134,8234,8234,8234,8236,8223,8226,8226,8226,8226,8229,8226,8226,8226,8221,8237,8234,8234,8234,8234,8234,8234,8234,8234,8234,8234,8234,8234,8234,8234,8234,8234,8226,8226,8226,8226,8226,8226,8226,8226,8226,8226,8226,8226,8226,8226,8226,8226,8234,8234,8234,8234,8234,8234,8234,
8234,8234,8234,8234,8234,8234,8234,8234,8234,8234,8234,8234,8234,8234,8234,8234,8234,8234,8234,8234,8234,8234,8234,8234,8234,8234,8234,8234,8234,8234,8234,8234,8234,8234,8234,8234,8234,8234,8234,8270,8270,8270,8234,8270,8270,8270,8234,8234,2719,2720,8224,8246,8246,8246,8247,8226,8226,8226,8226,8237,1073750053,8226,8226,8226,8226,8233,8234,8234,8234,8234,8234,8234,8234,8234,8234,8234,8234,8234,8234,8234,8234,8234,8234,8234,2755,8134,8134,8134,8134,8134,8134,8134,8134,8134,8134,8134,8134,8134,8134,8134,8134,8134,8234,8234,8234,8234,8235,8226,8226,8226,8229,8229,8226,8226,8226,8233,8234,8234,8234,8234,8234,8234,8234,8234,8234,8234,8234,8234,8234,8234,8234,8234,8234,8234,8234,8226,8226,8226,8226,8226,8226,8226,8226,8226,8226,8226,8226,8226,8234,8234,8234,8234,8234,8234,8234,8234,
8234,8234,8234,8234,8234,8234,8234,8234,8234,8234,8234,8234,8234,8234,8234,8234,8234,8234,8234,8234,8234,8234,8234,8234,8234,8234,8234,8234,8234,8234,8234,8234,8234,8234,8234,8234,8234,8234,8234,8270,8270,8270,8270,8270,8234,8234,8234,8234,8234,8224,8247,8226,8226,8226,8226,8226,8226,8226,2819,8229,8229,8226,8226,8226,8221,8237,8234,8234,8234,8234,8234,8234,8234,8234,8234,8234,8234,8234,8234,8234,8234,8234,8234,8234,8234,2846,8134,8134,8134,8134,8134,8134,8134,8134,8134,8134,8134,8134,8134,8134,8134,8134,8234,8234,8234,8234,8236,8223,8226,8226,8229,8226,8226,8226,8221,8237,8234,8234,8234,8234,8234,8234,8234,8234,8234,8234,8234,8234,8234,8234,8234,8234,8234,8234,8234,8234,8234,8234,8226,8226,8226,8226,8226,8226,8226,8226,8226,8234,8234,8234,8234,8234,8234,8234,8234,8234,
8234,8234,8234,8234,8234,8234,8234,8234,8234,8234,8234,8234,8234,8234,8234,8234,8234,8234,8234,8234,8234,8234,8234,8234,8234,8234,8234,8234,8234,8234,8234,8234,8234,8234,8234,8234,8234,8234,8234,8234,8234,8234,8234,8234,8234,8234,8234,8234,8224,8247,8226,8226,8226,8226,8226,8226,8226,2908,8229,8229,2911,2912,8226,8221,8237,8234,8234,8234,8234,8234,8234,8234,8234,8287,8288,8288,8289,8234,8234,8234,8234,8234,8234,8234,8234,2936,2937,8134,8134,8134,8134,8134,8134,8134,8134,8134,8134,8134,8134,8134,8134,8134,8234,8234,8234,8234,8234,8235,8226,8226,8229,8226,8226,8221,8237,8234,8234,8234,8234,8234,8234,8234,8234,8234,8234,8234,8234,8234,8234,8234,8234,8234,8234,8234,8234,8234,8234,8234,8234,8234,8234,8234,8234,8234,8234,8234,8234,8234,8234,8234,8234,8234,8234,8234,8234,8234,
8234,8234,8234,8234,8234,8234,8234,8234,8234,8234,8234,8234,8234,8234,8234,8234,8234,8234,8234,8234,8234,8234,8234,8234,8234,8234,8234,8234,8234,8234,8234,8234,8234,8234,8234,8234,8234,8234,8224,8246,8225,8234,8234,8234,8234,8234,8234,8234,8236,8223,8226,8226,8226,8226,8226,2996,2997,8229,8229,8226,3001,3002,8221,8237,8234,8234,8234,8234,8234,8234,8234,8234,8234,8299,8302,8302,8309,8288,8288,8288,8288,8289,8234,8234,8234,8234,3027,3028,8134,8134,8134,8134,8134,8134,8134,8134,8134,8134,8134,8134,8134,8134,8234,8234,8234,8234,8234,8236,8223,8226,8229,8226,8226,8233,8234,8234,8234,8234,8234,8234,8234,8234,8234,8234,8234,8234,8234,8234,8234,8234,8234,8234,8234,8234,8234,8234,8234,8234,8234,8234,8234,8234,8234,8234,8234,8234,8234,8234,8234,8234,8234,8234,8234,8234,8234,8234,
8234,8234,8234,8234,8234,8234,8234,8234,8234,8234,8234,8234,8234,8234,8234,8234,8270,8270,8270,8270,8270,8270,8234,8234,8234,8234,8234,8234,8234,8234,8234,8234,8234,8234,8234,8224,8246,8246,8247,8240,8233,8234,8234,8234,8234,8234,8234,8234,8234,8236,8223,8226,8226,8226,3085,3086,8229,8229,8226,8226,8226,8226,8233,8234,8234,8234,8234,8234,8234,8234,8234,8234,8234,8299,8302,8300,8302,8302,8302,8285,8302,8301,8234,8234,8234,8234,8234,3118,3119,8134,8134,8134,8134,8134,8134,8134,8134,8134,8134,8134,8134,8234,8234,8234,8234,8234,8234,8234,8235,8226,1073750053,1073750053,8226,8233,8234,8234,8234,8234,8234,8234,8234,8234,8234,8234,8234,8234,8234,8234,8234,8234,8234,8234,8234,8234,8234,8234,8234,8234,8234,8234,8234,8234,8234,8234,8234,8234,8234,8234,8234,8234,8234,8234,8234,8234,8234,8234,
8234,8234,8234,8234,8234,8234,8234,8234,8234,8234,8234,8234,8234,8234,8234,8270,8270,8270,8270,8270,8270,8270,8270,8270,8234,8234,8234,8234,8234,8234,8234,8234,8234,8234,8234,8235,8226,8226,8226,8226,8233,8234,8234,8234,8234,8234,8234,8234,8234,8234,8235,8226,8226,3174,3175,8229,8229,8229,8226,8226,8226,8226,8233,8234,8234,8234,8234,8234,8234,8287,8288,8288,8288,8310,8302,8286,8302,8300,8286,8300,8302,8301,8234,8234,8234,8234,8234,8234,3209,3210,8134,8134,8134,8134,8134,8134,8134,8134,8134,8134,8134,8234,8234,8234,8234,8234,8234,8234,8235,8226,1073750053,1073750053,8226,8245,8234,8234,8234,8234,8234,8234,8234,8234,8234,8234,8234,8234,8234,8234,8234,8234,8234,8234,8234,8234,8234,8234,8234,8234,8234,8234,8234,8234,8234,8234,8234,8234,8234,8234,8234,8234,8234,8234,8234,8234,8234,8234,
8234,8234,8234,8234,8234,8234,8234,8234,8234,8234,8234,8234,8234,8234,8234,8270,8270,8270,8270,8270,8270,8270,8270,8270,8270,8270,8270,8270,8270,8270,8270,8270,8270,8270,8234,8235,8226,8238,8239,8226,8233,8234,8234,8234,8234,8234,8234,8234,8234,8234,8235,8226,8226,3264,8229,8229,8226,8226,8226,8226,8226,8226,8233,8234,8234,8234,8234,8234,8287,8310,8302,8300,8302,8285,8302,8286,8302,8300,8302,8300,8302,8309,8289,8234,8234,8234,8234,8234,8234,8234,3301,8134,8134,8134,8134,8134,8134,8134,8134,3310,8234,8234,8234,8234,8234,8234,8234,8234,8247,8226,1073750053,1073750053,8226,8226,8245,8246,8225,8234,8234,8234,8234,8234,8234,8234,8234,8234,8234,8234,8234,8234,8234,8234,8234,8234,8234,8234,8234,8234,8234,8234,8234,8234,8234,8234,8234,8234,8234,8234,8234,8234,8234,8234,8234,8234,8234,8234,
8234,8234,8234,8234,8234,8234,8234,8234,8234,8234,8234,8234,8234,8234,8234,8234,8270,8270,8270,8270,8270,8270,8270,8270,8270,8270,8270,8270,8270,8270,8270,8270,8270,8270,8234,8236,8223,8226,8226,8226,8233,8234,8234,8234,8234,8234,8234,8234,8234,8234,8235,8226,8226,8229,8229,8229,8226,8226,8226,8226,3361,8226,8245,8225,8234,8234,8234,8287,8310,8302,8300,8302,8300,8300,8302,8302,8297,8298,8302,8302,8302,8302,8309,8288,8288,8289,8234,8234,8234,8234,8234,8134,8134,8134,8134,8134,8134,8134,8234,8234,8234,8234,8234,8234,8224,8246,8246,8247,8226,8226,1073750053,1073750053,8226,8226,8226,8226,8245,8225,8234,8234,8234,8234,8234,8234,8234,8234,8234,8234,8234,8234,8234,8234,8234,8234,8234,8234,8234,8234,8234,8234,8234,8234,8234,8234,8234,8234,8234,8234,8234,8234,8234,8234,8234,8234,8234,8234,
8234,8234,8234,8234,8234,8234,8234,8234,8234,8234,8234,8234,8234,8234,8234,8234,8234,8270,8270,8270,8270,8270,8270,8270,8234,8234,8234,8234,8270,8270,8270,8270,8270,8270,8270,8234,8235,8226,8248,8226,8233,8234,8234,8234,8234,8234,8234,8234,8234,8224,8247,8226,8226,8229,8229,8221,8223,8226,8226,3450,3451,8226,8226,8233,8234,8234,8234,8299,8286,8297,8312,8312,8314,8298,8302,8302,8301,8299,8302,8302,8300,8300,8302,8302,8286,8301,8234,8234,8234,8234,8234,8234,8134,8134,8134,8134,8134,8234,8234,8234,8234,8234,8234,8234,8235,8226,8226,8226,8226,8226,8229,8229,8226,8226,8226,8226,8226,8245,8225,8234,8234,8234,8234,8234,8234,8234,8234,8234,8234,8234,8234,8234,8234,8234,8234,8234,8234,8234,8234,8234,8234,8234,8234,8234,8234,8234,8234,8234,8234,8234,8234,8234,8234,8234,8234,8234,
8234,8234,8234,8234,8234,8234,8234,8234,8234,8234,8234,8234,8234,8234,8234,8234,8234,8234,8270,8270,8270,8270,8270,8234,8234,8234,8234,8234,8234,8234,8270,8270,8270,8270,8270,8234,8235,8226,8226,8221,8237,8234,8234,8234,8234,8234,8234,8234,8224,8247,8226,8226,8229,8229,8221,8237,8236,8223,8226,3540,8226,8226,8226,8233,8234,8234,8287,8310,8302,8301,8262,8234,8263,8311,8298,8302,8301,8299,8285,8286,8302,8302,8302,8286,8302,8301,8234,8234,8234,8234,8234,8234,8234,8234,8234,8234,8234,8234,8234,8234,8234,8224,8246,8246,8247,8226,8226,8226,8226,8229,8229,8226,8226,8226,8226,8226,8226,8226,8245,8246,8246,8225,8234,8234,8234,8234,8234,8234,8234,8234,8234,8234,8234,8234,8234,8234,8234,8234,8234,8234,8234,8234,8234,8234,8234,8234,8234,8234,8234,8234,8234,8234,8234,8234,8234,8234,
8234,8234,8234,8234,8234,8234,8234,8234,8234,8234,8234,8234,8234,8234,8234,8234,8234,8234,8234,8270,8270,8270,8270,8234,8234,8234,8234,8234,8234,8234,8270,8270,8270,8270,8270,8234,8236,8222,8222,8237,8234,8234,8234,8234,8234,8234,8234,8224,8247,8226,8226,8229,8229,8221,8237,8234,8234,8236,8223,8226,8226,8226,8221,8237,8234,8234,8311,8298,8286,8309,8289,8234,8234,8263,8299,8285,8301,8311,8312,8312,8312,8298,8300,8300,8302,8301,8234,8234,8234,8234,8234,8234,8234,8234,8234,8234,8234,8234,8234,8234,8234,8247,8226,8226,8226,8226,8226,8226,8229,8229,8226,8226,8226,8226,8226,8226,8226,8226,8226,8226,8226,8245,8225,8234,8234,8234,8234,8234,8234,8234,8234,8234,8234,8234,8234,8234,8234,8234,8234,8234,8234,8234,8234,8234,8234,8234,8234,8234,8234,8234,8234,8234,8234,8234,8234,8234,
8234,8234,8234,8234,8234,8234,8234,8234,8234,8234,8234,8234,8234,8234,8234,8234,8234,8234,8234,8270,8270,8270,8234,8234,8234,8234,8234,8234,8234,8234,8270,8270,8270,8270,8270,8234,8234,8234,8234,8234,8234,8234,8234,8234,8234,8234,8224,8247,8226,8226,8229,8229,8221,8237,8234,8234,8234,8234,8236,8222,8222,8222,8237,8234,8234,8234,8234,8311,8298,8285,8309,8288,8288,8288,8310,8302,8309,8289,8234,8234,8234,8311,8312,8314,8312,8313,8234,8234,8234,8234,8234,8234,8234,8234,8234,8234,8224,8246,8246,8246,8247,8226,8226,8226,8226,8226,8226,8229,8229,8226,8226,8226,8226,8226,8226,8226,8226,8226,8226,8226,8226,8226,8245,8225,8234,8234,8234,8234,8234,8234,8234,8234,8234,8234,8234,8234,8234,8234,8234,8234,8234,8234,8234,8234,8234,8234,8234,8234,8234,8234,8234,8234,8234,8234,8234,8234,
8234,8234,8234,8234,8234,8234,8234,8234,8234,8234,8234,8234,8234,8234,8234,8234,8234,8234,8234,8234,8270,8270,8234,8234,8234,8234,8234,8234,8234,8234,8270,8270,8270,8270,8234,8234,8234,8234,8234,8234,8234,8234,8234,8234,8234,8234,8235,8226,8226,8226,8229,8221,8237,8234,8234,8234,8234,8234,8234,8234,8234,8234,8234,8234,8234,8234,8234,8234,8299,8286,8302,8302,8302,8302,8302,8300,8302,8301,8234,8234,8234,8234,8234,8234,8234,8234,8234,8234,8234,8234,8234,8234,8234,8234,8234,8224,8247,8226,8226,8226,8226,8226,8226,8226,8226,8226,8226,8229,8226,8226,8226,8226,8226,8226,8226,8226,8226,8226,8226,8226,8226,8226,8226,8245,8225,8234,8234,8234,8234,8234,8234,8234,8234,8234,8234,8234,8234,8234,8234,8234,8234,8234,8234,8234,8234,8234,8234,8234,8234,8234,8234,8234,8234,8234,8234,8234,
8234,8234,8234,8234,8234,8234,8234,8234,8234,8234,8234,8234,8234,8234,8234,8234,8234,8234,8234,8234,8270,8270,8234,8234,8234,8234,8234,8234,8234,8234,8270,8270,8270,8270,8234,8234,8234,8234,8234,8234,8234,8234,8234,8234,8234,8234,8236,8222,8222,8223,1073750053,8233,8234,8234,8234,8234,8234,8234,8234,8234,8234,8234,8287,8288,8288,8289,8234,8234,8299,8302,8286,8300,8300,8285,8302,8286,8302,8301,8234,8234,8234,8234,8234,8234,8234,8234,8234,8234,8234,8234,8234,8234,8234,8234,8234,8235,8226,8226,8226,8226,8226,8226,8226,8226,8226,8226,8226,1073750053,8226,8226,8226,8226,8226,8226,8226,8226,8226,8226,8226,8226,8226,8226,8226,8226,8245,8225,8234,8234,8234,8234,8234,8234,8234,8234,8234,8234,8234,8234,8234,8234,8234,8234,8234,8234,8234,8234,8234,8234,8234,8234,8234,8234,8234,8234,8234,8234,
8234,8234,8234,8234,8234,8234,8234,8234,8234,8234,8234,8234,8234,8234,8234,8234,8234,8234,8234,8270,8270,8270,8234,8234,8234,8234,8234,8234,8234,8234,8234,8270,8270,8270,8234,8234,8234,8234,8234,8234,8234,8234,8234,8234,8234,8234,8234,8234,8234,8235,1073750053,8233,8234,8234,8234,8234,8234,8234,8234,8234,8234,8234,8299,8300,8302,8301,8234,8234,8311,8312,8298,8302,8300,8302,8302,8302,8297,8313,8234,8234,8234,8234,8234,8234,8234,8234,8234,8234,8234,8234,8234,8234,8234,8234,8234,8247,8226,8226,8226,8226,8226,8226,8226,8226,8226,8226,8226,1073750053,8226,8226,8226,8226,8226,8226,8226,8226,8226,8226,8226,8226,8226,8226,8226,8226,8226,8245,8246,8225,8234,8234,8234,8234,8234,8234,8234,8234,8234,8234,8234,8234,8234,8234,8234,8234,8234,8234,8234,8234,8234,8234,8234,8234,8234,8234,8234,8234,
8234,8234,8234,8234,8234,8234,8234,8234,8234,8234,8234,8234,8234,8234,8234,8270,8270,8270,8270,8270,8270,8234,8234,8234,8234,8234,8234,8234,8234,8234,8234,8270,8270,8270,8234,8234,8234,8234,8234,8234,8234,8234,8234,8234,8234,8234,8234,8234,8234,8235,1073750053,8233,8234,8234,8234,8234,8234,8234,8234,8234,8234,8234,8299,8302,8286,8301,8234,8234,8234,8234,8299,8302,8286,8302,8302,8297,8313,8234,8234,8234,8234,8234,8234,8234,8234,8234,8234,8234,8234,8234,8234,8234,8234,8224,8247,8226,8226,8226,1073750053,1073750053,8226,8226,8226,8226,8226,8226,8226,1073750053,8226,8226,8226,8226,8226,8226,8226,8226,8226,8226,8226,8226,8226,8226,8226,8226,8226,8226,8226,8245,8225,8234,8234,8234,8234,8234,8234,8234,8234,8234,8234,8234,8234,8234,8234,8234,8234,8234,8234,8234,8234,8234,8234,8234,8234,8234,8234,8234,
8234,8234,8234,8234,8234,8234,8234,8234,8234,8234,8234,8234,8234,8234,8270,8270,8270,8270,8270,8270,8234,8234,8234,8234,8234,8234,8234,8234,8234,8234,8234,8234,8270,8270,8270,8270,8270,8234,8234,8234,8234,8234,8234,8234,8234,8234,8234,8234,8234,8235,1073750053,8245,8225,8234,8234,8234,8234,8234,8234,8234,8234,8234,8299,8302,8302,8301,8234,8234,8234,8234,8299,8300,8302,8300,8302,8301,8234,8234,8234,8234,8234,8234,8234,8234,8234,8234,8234,8234,8234,8234,8234,8234,8234,8235,8226,8226,8226,8226,8226,1073750053,1073750053,8226,8226,8226,8226,8226,8226,1073750053,8226,8226,8226,8226,8226,8226,8226,8226,8226,8226,8226,8226,8226,8226,8226,8226,8226,8226,8226,8226,8245,8225,8234,8234,8234,8234,8234,8234,8234,8234,8234,8234,8234,8234,8234,8234,8234,8234,8234,8234,8234,8234,8234,8234,8234,8234,8234,8234,
8234,8234,8234,8234,8234,8234,8234,8234,8234,8234,8234,8234,8270,8270,8270,8270,8270,8270,8270,8270,8234,8234,8234,8234,8234,8234,8234,8234,8234,8234,8234,8234,8270,8270,8270,8270,8270,8270,8270,8270,8270,8234,8234,8234,8234,8234,8234,8234,8234,8235,1073750053,1073750053,8233,8234,8234,8234,8234,8234,8234,8234,8234,8234,8311,8312,8314,8313,8234,8234,8234,8234,8311,8312,8314,8312,8312,8313,8234,8234,8234,8234,8234,8234,8234,8234,8234,8234,8234,8234,8234,8234,8234,8234,8224,8247,8226,8226,8226,8226,8226,8226,1073750053,1073750053,8226,8226,8226,8226,8226,1073750053,8226,8226,8226,8226,8226,8226,8226,8226,8226,8226,8226,8226,8226,8226,8226,8226,8226,8226,8226,8226,8226,8245,8246,8225,8234,8234,8234,8234,8234,8234,8234,8234,8234,8234,8234,8234,8234,8234,8234,8234,8234,8234,8234,8234,8234,8234,8234,8234,
8234,8234,8234,8234,8234,8234,8234,8234,8234,8234,8234,8234,8270,8270,8270,8270,8270,8270,8270,8270,8270,8234,8234,8234,8234,8234,8234,8234,8234,8234,8234,8234,8270,8270,8270,8270,8270,8270,8270,8270,8270,8234,8234,8234,8234,8234,8234,8234,8234,8235,8226,1073750053,8245,8225,8234,8234,8234,8234,8234,8234,8234,8234,8234,8234,8234,8234,8234,8234,8234,8234,8234,8234,8234,8234,8234,8234,8234,8234,8234,8234,8234,8234,8234,8234,8234,8234,8234,8234,8234,8234,8234,8234,8235,8226,8226,8226,8226,8226,8226,8226,8226,1073750053,1073750053,1073750053,1073750053,1073750053,1073750053,1073750053,8226,8226,8226,8226,8226,8226,8226,8226,8226,8226,8226,8226,8226,8226,8226,8226,8226,8226,8226,8226,8226,8226,8226,8245,8246,8225,8234,8234,8234,8234,8234,8234,8234,8234,8234,8234,8234,8234,8234,8234,8234,8234,8234,8234,8234,8234,8234,8234,
8234,8234,8234,8234,8234,8234,8234,8234,8234,8234,8234,8234,8234,8270,8270,8270,8270,8270,8270,8270,8270,8270,8234,8234,8234,8234,8234,8234,8234,8234,8234,8234,8270,8270,8270,8270,8270,8270,8270,8270,8270,8234,8234,8234,8234,8234,8234,8234,8234,8235,8226,1073750053,8226,8245,8225,8234,8224,8246,8246,8246,8246,8246,8246,8246,8246,8246,8246,8246,8225,8234,8234,8234,8234,8234,8234,8234,8234,8234,8234,8234,8234,8234,8234,8234,8234,8234,8234,8234,8234,8234,8234,8234,8235,8226,8226,8226,8226,8226,8226,8226,8226,8226,8226,8226,8226,8226,8226,1073750053,1073750053,1073750053,1073750053,1073750053,1073750053,1073750053,1073750053,1073750053,1073750053,8226,8226,8226,8226,8226,8226,8226,8226,8226,8226,8226,8226,8226,8226,8226,8226,8233,8234,8234,8234,8234,8234,8234,8234,8234,8234,8234,8234,8234,8234,8234,8234,8234,8234,8234,8234,8234,8234,8234,
8234,8234,8234,8234,8234,8234,8234,8234,8234,8234,8234,8234,8234,8234,8270,8270,8270,8270,8270,8270,8270,8270,8270,8270,8270,8234,8234,8234,8234,8234,8234,8234,8234,8270,8270,8270,8270,8270,8270,8270,8234,8234,8234,8234,8234,8234,8234,8234,8224,8247,8226,1073750053,8226,8226,8245,8246,8247,8226,8226,8226,8226,8226,8226,8226,8226,8226,8226,8226,8245,8225,8234,8234,8234,8234,8234,8234,8234,8234,8234,8234,8234,8234,8234,8234,8234,8234,8234,8234,8234,8234,8234,8234,8235,8226,8226,8226,8226,8226,8226,8226,8226,8226,8226,8226,8226,8226,8226,8226,8226,8226,8226,8226,8226,8226,8226,8226,1073750053,1073750053,8226,8226,8226,8226,8226,8226,8226,8226,8226,8226,8226,8226,8226,8226,8226,8245,8225,8234,8234,8234,8234,8234,8234,8234,8234,8234,8234,8234,8234,8234,8234,8234,8234,8234,8234,8234,8234,8234,
8234,8234,8234,8234,8234,8234,8234,8234,8234,8234,8234,8234,8234,8234,8270,8270,8270,8270,8270,8270,8270,8270,8270,8270,8270,8270,8270,8270,8270,8234,8234,8234,8234,8270,8270,8270,8270,8234,8234,8234,8234,8234,8234,8234,8224,8246,8246,8246,8247,8226,8226,1073750053,8226,8226,8226,8226,8226,8226,8226,8226,8226,8226,8226,8226,8226,8226,8226,8226,8226,8245,8225,8234,8234,8234,8234,8234,8234,8234,8234,8234,8234,8234,8234,8234,8234,8234,8234,8234,8234,8234,8234,8234,8235,8226,8226,8226,8226,8226,8226,8226,8226,8226,8226,8226,8226,8226,8226,8226,8226,8226,8226,8226,8226,8226,8226,8226,8226,1073750053,1073750053,8226,8226,8226,8226,8226,8226,8229,8226,8226,8226,8226,8226,8226,8226,8226,8233,8234,8234,8234,8234,8234,8234,8234,8234,8234,8234,8234,8234,8234,8234,8234,8234,8234,8234,8234,8234,8234,
8234,8234,8234,8234,8234,8234,8234,8234,8234,8234,8234,8234,8234,8234,8234,8234,8270,8270,8270,8270,8270,8270,8270,8270,8270,8270,8270,8270,8270,8270,8270,8234,8270,8270,8270,8270,8270,8234,8234,8234,8234,8234,8234,8234,8235,8226,8226,8226,8226,8226,8229,8229,8229,8229,8229,8229,8229,8229,1073750053,8226,8226,8226,8226,8226,8226,8226,8226,8226,8226,8226,8245,8246,8246,8246,8225,8234,8234,8234,8234,8234,8234,8234,8234,8234,8234,8234,8234,8234,8234,8234,8234,8234,8235,8226,8226,8226,8226,8226,8226,8226,8226,8226,8226,8226,8226,8226,8226,8226,8226,8226,8226,8226,8226,8226,8226,8226,8226,8226,1073750053,1073750053,8226,8226,8226,8226,8229,8229,8226,8226,8226,8226,8226,8226,8226,8226,8233,8234,8234,8234,8234,8234,8234,8234,8234,8234,8234,8234,8234,8234,8234,8234,8234,8234,8234,8234,8234,8234,
8234,8234,8234,8234,8234,8234,8234,8234,8234,8234,8234,8234,8234,8234,8234,8234,8234,8234,8234,8270,8270,8270,8270,8270,8270,8270,8270,8270,8270,8270,8270,8270,8270,8270,8270,8270,8234,8234,8234,8234,8234,8234,8234,8234,8235,8226,8226,8226,8226,8226,8229,8229,8226,8226,8226,8226,8226,1073750053,1073750053,1073750053,8226,8226,8226,8226,8226,8226,8226,8226,8226,8226,8226,8226,8226,8226,8245,8225,8234,8234,8234,8234,8234,8234,8234,8234,8234,8234,8234,8234,8234,8234,8234,8234,8235,8226,8226,8226,8226,8226,8226,8226,8226,8226,8226,8226,8226,8226,8226,8226,8226,8226,8226,8226,8226,8226,8226,8226,8226,8226,8226,1073750053,1073750053,8226,8226,8229,8229,8226,8226,8226,8226,8226,8226,8226,8226,8226,8245,8225,8234,8234,8234,8234,8234,8234,8234,8234,8234,8234,8234,8234,8234,8234,8234,8234,8234,8234,8234,8234,
8234,8234,8234,8234,8234,8234,8234,8234,8234,8234,8234,8234,8234,8234,8234,8234,8234,8234,8234,8234,8270,8270,8270,8270,8270,8270,8270,8270,8270,8270,8270,8270,8270,8270,8270,8234,8234,8234,8234,8234,8234,8234,8234,8234,8236,8223,8226,8226,8226,8226,8229,8226,8226,8226,8226,8226,8226,8226,8226,1073750053,1073750053,8226,8226,8226,8226,8226,8226,8226,8226,8226,8226,8226,8226,8226,8226,8245,8225,8234,8234,8234,8234,8234,8234,8234,8234,8234,8234,8234,8234,8234,8234,8234,8235,8226,8226,8226,8226,8226,8226,8226,8226,8226,8226,8226,8226,8226,8226,8226,8226,8226,8226,8226,8226,8226,8226,8226,8226,8226,8226,8226,1073750053,1073750053,1073750053,8229,8226,8226,8226,8226,8226,8226,8226,8226,8226,8226,8226,8233,8234,8234,8234,8234,8234,8234,8234,8234,8234,8234,8234,8234,8234,8234,8234,8234,8234,8234,8234,8234,
8234,8234,8234,8234,8234,8234,8234,8234,8234,8234,8234,8234,8234,8234,8234,8234,8234,8234,8234,8234,8234,8234,8270,8270,8270,8270,8270,8270,8270,8270,8270,8270,8270,8270,8234,8234,8234,8234,8234,8234,8234,8234,8234,8234,8234,8236,8223,8226,8226,8226,8229,8226,8226,8226,8226,8226,8226,8226,8226,8226,1073750053,1073750053,8226,8226,8226,8226,8226,8226,8226,8226,8226,8226,1073750053,1073750053,8226,8226,8245,8225,8234,8234,8234,8234,8234,8234,8224,8246,8246,8225,8234,8224,8246,8246,8247,8226,8226,8226,8226,8226,8226,8226,8226,8226,8226,8226,8226,8226,8226,8226,8226,8226,8226,8226,8226,8226,8226,8226,8226,8226,8226,8226,8226,8229,8229,8226,8226,8226,8226,8226,8226,8226,8226,8226,8226,8226,8226,8233,8234,8234,8234,8234,8234,8234,8234,8234,8234,8234,8234,8234,8234,8234,8234,8234,8234,8234,8234,8234,
8234,8234,8234,8234,8234,8234,8234,8234,8234,8234,8234,8234,8234,8234,8234,8234,8234,8234,8234,8234,8234,8234,8234,8234,8270,8270,8270,8270,8270,8270,8270,8270,8270,8270,8234,8234,8234,8234,8234,8234,8234,8234,8234,8234,8234,8234,8235,8226,8226,8226,8229,8226,8226,8226,8226,8226,8226,8226,8226,8226,8226,1073750053,1073750053,8226,8226,8226,8226,8226,8229,8229,8229,8229,8229,1073750053,1073750053,8226,8226,8245,8225,8234,8234,8234,8234,8234,8235,8226,8226,8245,8246,8247,8226,8226,8226,8226,8226,8226,8226,8226,8226,8226,8226,8226,8226,8226,8226,8226,8226,8226,8226,8226,8226,8226,8226,8226,8226,8226,8226,8226,8226,8226,8229,8229,8226,8226,8226,8226,8226,8226,8226,8226,8226,8226,8226,8226,8226,8233,8234,8234,8234,8234,8234,8234,8234,8234,8234,8234,8234,8234,8234,8234,8234,8234,8234,8234,8234,8234,
8234,8234,8234,8234,8234,8234,8234,8234,8234,8234,8234,8234,8234,8234,8234,8234,8234,8234,8234,8234,8234,8234,8234,8234,8234,8234,8234,8234,8234,8234,8234,8270,8270,8234,8234,8234,8234,8234,8234,8234,8234,8234,8234,8234,8234,8234,8235,8226,8226,8226,8229,8226,8226,8226,8226,8226,8226,8226,8226,8226,8226,1073750053,1073750053,8229,8229,8229,8229,8229,8229,8229,8229,8226,8226,8226,1073750053,1073750053,8226,8226,8245,8225,8234,8234,8234,8234,8235,8226,8226,8226,8226,8226,8226,8226,8226,8226,8226,8226,8226,8226,8226,8226,8226,8226,8226,8226,8226,8226,8226,8226,8226,8226,8226,8226,8226,8226,8226,8226,8226,8226,8226,8229,8229,8226,8226,8226,8226,8226,8226,8226,8226,8226,8226,8226,8226,8226,8226,8233,8234,8234,8234,8234,8234,8234,8234,8234,8234,8234,8234,8234,8234,8234,8234,8234,8234,8234,8234,8234,
8234,8234,8234,8234,8234,8234,8234,8234,8234,8234,8234,8234,8234,8234,8234,8234,8234,8234,8234,8234,8234,8234,8234,8234,8234,8234,8234,8234,8234,8234,8234,8234,8234,8234,8234,8234,8234,8234,8234,8234,8234,8234,8234,8234,8234,8234,8235,8226,8229,8229,1073750053,8226,8226,8226,8226,8226,8226,8226,8226,8226,8226,8226,1073750053,1073750053,8229,8229,8229,8229,8229,8229,8226,8226,8226,8226,8226,1073750053,1073750053,8226,8226,8245,8246,8246,8246,8246,8247,8226,8226,8226,8226,8226,8226,8226,8226,8226,8226,8226,8226,8226,8226,8226,8226,8226,8226,8226,8226,8226,8226,8226,8226,8226,8226,8226,8226,8226,8226,8226,8226,8226,8229,8229,8226,8226,8226,8226,8226,8226,8226,8226,8226,8226,8226,8226,8226,8226,8226,8233,8234,8234,8234,8234,8234,8234,8234,8234,8234,8234,8234,8234,8234,8234,8234,8234,8234,8234,8234,8234,
8234,8234,8234,8234,8234,8234,8234,8234,8234,8234,8234,8234,8234,8234,8234,8234,8234,8234,8234,8234,8234,8234,8234,8234,8234,8234,8234,8234,8234,8234,8234,8234,8234,8234,8234,8234,8234,8234,8234,8234,8234,8234,8234,8234,8224,8246,8247,8229,8229,8229,8226,8226,8226,8226,8226,8226,8226,8226,8226,8226,1073750053,1073750053,1073750053,1073750053,8226,8226,8226,8226,8226,8226,8226,8226,8226,8226,8226,1073750053,1073750053,1073750053,8226,8226,8226,8226,8226,8226,8226,8226,8226,8226,8226,8226,8226,8226,8226,8226,8226,8226,8226,8226,8226,8226,8226,8226,8226,8226,8226,8226,8226,8226,8226,8226,8226,8226,8226,8226,8226,8226,8226,8229,8229,8226,8226,8226,8226,8226,8226,8226,8226,8226,8226,8226,8226,8226,8226,8226,8226,8233,8234,8234,8234,8234,8234,8234,8234,8234,8234,8234,8234,8234,8234,8234,8234,8234,8234,8234,8234,8234,
8234,8234,8234,8234,8234,8234,8234,8234,8234,8234,8234,8234,8234,8234,8234,8234,8234,8234,8234,8234,8234,8234,8234,8234,8234,8234,8234,8234,8234,8234,8234,8234,8234,8234,8234,8234,8234,8234,8234,8234,8234,8234,8224,8246,8247,8226,8229,8229,8226,8226,8226,8226,8226,8226,8226,8226,8226,8226,8226,8226,8229,8221,8222,8222,8222,8222,8222,8222,8222,8223,8226,8226,8226,8226,8226,8226,1073750053,1073750053,1073750053,1073750053,1073750053,1073750053,1073750053,1073750053,1073750053,8226,8226,8226,8226,8226,8226,8226,8226,8226,8226,8226,8226,8226,8226,8226,8226,8226,8226,8226,8226,8226,8226,8226,8226,8226,8226,8226,8226,8226,8226,8226,8229,8229,8226,8226,8226,8226,8226,8226,8226,8226,8226,8226,8226,8226,8226,8226,8226,8226,8226,8245,8225,8234,8234,8234,8234,8234,8234,8234,8234,8234,8234,8234,8234,8234,8234,8234,8234,8234,8234,8234,
8234,8234,8234,8234,8234,8234,8234,8234,8234,8234,8234,8234,8234,8234,8234,8234,8234,8234,8234,8234,8234,8234,8234,8234,8234,8234,8234,8234,8234,8234,8234,8234,8234,8234,8234,8234,8234,8234,8234,8234,8234,8224,8247,8226,8226,8229,8229,8226,8226,8226,8226,8226,8226,8226,8226,8226,8226,8226,8229,8229,8229,8233,8287,8288,8288,8288,8288,8288,8289,8235,8226,8226,8226,8226,8226,8226,8226,1073750053,1073750053,1073750053,1073750053,1073750053,1073750053,1073750053,1073750053,1073750053,8226,8226,8226,8226,8226,8226,8226,8226,8226,8226,8226,8226,8226,8226,8226,8226,8226,8226,8226,8226,8226,8226,8226,8226,8226,8226,8226,8226,8226,8226,8229,8226,8226,8226,8226,8226,8226,8226,8226,8226,8226,8226,8226,8226,8226,8226,8226,8226,8226,8226,8245,8234,8234,8234,8234,8234,8234,8234,8234,8234,8234,8234,8234,8234,8234,8234,8234,8234,8234,8234,
8234,8234,8234,8234,8234,8234,8234,8234,8234,8234,8234,8234,8234,8234,8234,8234,8234,8234,8234,8234,8234,8234,8234,8234,8234,8234,8234,8234,8234,8234,8234,8234,8234,8234,8234,8234,8234,8234,8234,8234,8224,8247,8226,1073750053,8229,8229,8226,8226,8226,8226,8226,8226,8226,8226,8226,8226,8226,8226,8229,8226,8226,8233,8299,8302,8297,8298,8300,8302,8301,8235,8226,8226,8226,8226,8226,8226,8226,8226,8226,8221,8222,8222,8222,8222,8223,1073750053,8229,8229,8229,8229,8229,8226,8226,8226,8226,8226,8226,8226,8226,8226,8226,8226,8226,8226,8226,8226,8226,8226,8226,8226,8226,8226,8226,8226,8226,8229,8229,8226,8226,8226,8226,8226,8226,8226,8226,8226,8226,8226,8226,8226,8226,8226,8226,8226,8226,8226,8233,8234,8234,8234,8234,8234,8234,8234,8234,8234,8234,8234,8234,8234,8234,8234,8234,8234,8234,8234,
8234,8234,8234,8234,8234,8234,8234,8234,8234,8234,8234,8234,8234,8234,8234,8234,8234,8234,8234,8234,8234,8234,8234,8234,8234,8234,8234,8234,8234,8234,8234,8234,8234,8234,8234,8234,8234,8234,8234,8234,8235,8226,8226,8229,8229,8226,8226,8226,8226,8226,8226,8226,8221,8222,8222,8222,8222,8223,8226,8226,8226,8233,8311,8298,8309,8310,8300,8285,8301,8235,8226,8226,8226,8226,8226,8226,8226,8226,8226,8233,8287,8288,8288,8289,8236,8223,8226,8226,8226,8226,8229,8229,8229,8229,8226,8226,8226,8226,8226,8226,8226,8226,8226,8226,8226,8226,8226,8226,8226,8226,8226,8226,8226,8226,8229,8226,8226,8226,8226,8226,8226,8226,8226,8226,8226,8226,8226,8226,8226,8226,8226,8226,8226,8226,8226,8226,8245,8225,8234,8234,8234,8234,8234,8234,8234,8234,8234,8234,8234,8234,8234,8234,8234,8234,8234,8234,
8234,8234,8234,8234,8234,8234,8234,8234,8234,8234,8234,8234,8234,8234,8234,8234,8234,8234,8234,8234,8234,8234,8234,8234,8234,8234,8234,8234,8234,8234,8234,8234,8234,8234,8234,8234,8234,8234,8234,8234,8235,8226,8226,8229,8226,8226,8226,8226,8226,8226,8221,8222,8237,8234,8234,8234,8234,8236,8223,8226,8226,8245,8225,8311,8298,8286,8302,8302,8301,8235,8226,8226,8226,8226,8226,8226,8226,8226,8226,8233,8299,8302,8302,8309,8289,8236,8223,8226,8226,8226,8226,8226,8226,8229,1073750053,8226,8226,8226,8226,8226,8226,8226,8226,8226,8226,8226,8226,8226,8226,8226,8226,8226,8226,8229,8226,8226,8226,8226,8226,8226,8226,8226,8226,8226,8226,8226,8226,8226,8226,8226,8226,8226,8226,8226,8226,8226,8226,8233,8234,8234,8234,8234,8234,8234,8234,8234,8234,8234,8234,8234,8234,8234,8234,8234,8234,8234,
8234,8234,8234,8234,8234,8234,8234,8234,8234,8234,8234,8234,8234,8234,8234,8234,8234,8234,8234,8234,8234,8234,8234,8234,8234,8234,8234,8234,8234,8234,8234,8234,8234,8234,8234,8234,8234,8234,8234,8234,8235,8226,8226,8226,8226,8226,8221,8222,8222,8222,8237,8234,8234,8234,8234,8234,8234,8234,8236,8223,8226,8226,8245,8225,8311,8314,8312,8312,8313,8235,8226,8226,8226,8226,8226,8226,8226,8226,8226,8233,8311,8298,8302,8302,8301,8234,8235,8226,8226,8226,8226,8226,8226,8226,1073750053,1073750053,8226,8226,8226,8226,8226,8226,8226,8226,8226,8226,8226,8226,8226,8226,8226,8226,8226,1073750053,8226,8226,8226,8226,8226,8226,8226,8226,8226,8226,8226,8226,8226,8226,8226,8226,8226,8226,8226,8226,8226,8226,8226,8233,8234,8234,8234,8234,8234,8234,8234,8234,8234,8234,8234,8234,8234,8234,8234,8234,8234,8234,
8234,8234,8234,8234,8234,8234,8234,8234,8234,8234,8234,8234,8234,8234,8234,8234,8234,8234,8234,8234,8234,8234,8234,8234,8234,8234,8234,8234,8234,8234,8234,8234,8234,8234,8234,8234,8234,8234,8234,8224,8247,8226,8226,8226,8221,8222,8237,8234,8234,8234,8234,8234,8234,8234,8234,8234,8234,8234,8234,8236,8223,8226,8226,8245,8246,8246,8246,8246,8246,8247,8226,8226,8226,8226,8226,8226,8226,8226,8226,8245,8225,8311,8298,8302,8301,8234,8235,8226,8226,8226,8226,8226,8226,8226,8226,1073750053,1073750053,1073750053,8226,8226,8226,8226,8226,8226,8226,8226,8226,8226,8226,8226,8226,8226,8226,1073750053,8226,8226,8226,8226,8226,8226,8226,8226,8226,8226,8226,8226,8226,8226,8226,8226,8226,8226,8226,8226,8226,8226,8226,8245,8225,8234,8234,8234,8234,8234,8234,8234,8234,8234,8234,8234,8234,8234,8234,8234,8234,8234,
8234,8234,8234,8234,8234,8234,8234,8234,8234,8234,8234,8234,8234,8234,8234,8234,8234,8234,8234,8234,8234,8234,8234,8234,8234,8234,8234,8234,8234,8234,8234,8234,8234,8234,8234,8234,8234,8234,8224,8247,8226,8226,8226,8221,8237,8234,8234,8234,8234,8234,8234,8234,8234,8234,8234,8234,8234,8234,8234,8234,8235,8226,8226,8226,8221,8222,8222,8222,8222,8222,8222,8223,8226,8226,8226,8226,8226,8226,8226,8226,8233,8234,8311,8312,8313,8234,8235,8226,8226,8226,8226,8226,8226,8226,8226,8226,8226,1073750053,1073750053,8226,8226,8226,8226,8226,8226,8226,8226,8226,8226,8226,8226,8226,8226,1073750053,1073750053,1073750053,8226,8226,8226,8226,8226,8226,8226,8226,8226,8226,8226,8226,8226,8226,8226,8226,8226,8226,8226,8226,8226,8226,8233,8234,8234,8234,8234,8234,8234,8234,8234,8234,8234,8234,8234,8234,8234,8234,8234,8234,
8234,8234,8234,8234,8234,8234,8234,8234,8234,8234,8234,8234,8234,8234,8234,8234,8234,8234,8234,8234,8234,8234,8234,8234,8234,8234,8234,8234,8234,8234,8234,8234,8234,8234,8234,8234,8234,8234,8235,8226,8226,8226,8221,8237,8234,8234,8234,8234,8234,8234,8234,8234,8234,8234,8234,8234,8234,8234,8234,8234,8235,8226,8226,8226,8233,8234,8234,8234,8234,8234,8234,8236,8222,8222,8222,8222,8222,8222,8222,8222,8237,8224,8246,8246,8246,8246,8247,8226,8226,8226,8226,8226,8226,8226,8226,8226,8226,8226,1073750053,1073750053,1073750053,8226,8226,8226,8226,8226,8226,8226,8226,8226,8226,8226,8226,1073750053,8226,1073750053,1073750053,1073750053,8226,8226,8226,8226,8226,8226,8226,8226,8226,8226,8226,8226,8226,8226,8226,8226,8226,8226,8226,8226,8233,8234,8234,8234,8234,8234,8234,8234,8234,8234,8234,8234,8234,8234,8234,8234,8234,8234,
8234,8234,8234,8234,8234,8234,8234,8234,8234,8234,8234,8234,8234,8234,8234,8234,8234,8234,8234,8234,8234,8234,8234,8234,8234,8234,8234,8234,8234,8234,8234,8234,8234,8234,8234,8234,8234,8234,8235,8226,8226,8221,8237,8234,8234,8234,8234,8234,8234,8234,8234,8234,8234,8234,8234,8234,8234,8234,8234,8234,8236,8223,8226,8226,8233,8234,8287,8288,8288,8289,8234,8234,8234,8234,8234,8234,8234,8234,8234,8234,8234,8235,8226,8226,8226,8226,8226,8226,8226,8226,8226,8226,8226,8226,8226,8226,8226,8226,8226,8226,1073750053,1073750053,8226,8226,8226,8226,8226,8226,8226,8226,8226,8226,8226,1073750053,8226,8226,8226,1073750053,1073750053,8226,8226,8226,8226,8226,8226,8226,8226,8226,8226,8226,8226,8226,8226,8226,8226,8226,8226,8226,8245,8225,8234,8234,8234,8234,8234,8234,8234,8234,8234,8234,8234,8234,8234,8234,8234,8234,
8234,8234,8234,8234,8234,8234,8234,8234,8234,8234,8234,8234,8234,8234,8234,8234,8234,8234,8234,8234,8234,8234,8234,8234,8234,8234,8234,8234,8234,8234,8234,8234,8234,8234,8234,8234,8234,8234,8236,8222,8222,8237,8234,8234,8234,8234,8234,8234,8234,8234,8234,8234,8234,8234,8234,8234,8234,8234,8234,8234,8234,8236,8223,8226,8233,8234,8299,8302,8302,8309,8288,8288,8288,8288,8289,8234,8234,8234,8287,8288,8289,8235,8226,8226,8226,8226,8226,8226,8226,8226,8226,8226,8226,8226,8226,8226,8226,8226,8226,8226,8226,1073750053,1073750053,8226,8226,8226,8226,8226,8226,8226,8226,8226,8226,1073750053,8226,8226,8226,8226,1073750053,1073750053,8226,8226,8226,8226,8226,8226,8226,8226,8226,8226,8226,8226,8226,8226,8226,8226,8226,8226,8226,8233,8234,8234,8234,8234,8234,8234,8234,8234,8234,8234,8234,8234,8234,8234,8234,8234,
8234,8234,8234,8234,8234,8234,8234,8234,8234,8234,8234,8234,8234,8234,8234,8234,8234,8234,8234,8234,8234,8234,8234,8234,8234,8234,8234,8234,8234,8234,8234,8234,8234,8234,8234,8234,8234,8234,8234,8234,8234,8234,8234,8234,8234,8234,8234,8234,8234,8234,8234,8234,8234,8234,8234,8234,8234,8234,8234,8234,8234,8234,8236,8222,8237,8234,8299,8302,8302,8302,8302,8302,8302,8302,8309,8288,8288,8288,8310,8302,8301,8236,8223,8226,8226,8226,8226,8226,8226,8226,8226,8226,8226,8226,8226,8226,8226,8226,8226,8226,8226,8226,1073750053,1073750053,8226,8226,8226,8226,8226,8226,8226,8226,8226,8229,8226,8226,8226,8226,8226,1073750053,1073750053,1073750053,8226,8226,8226,8226,8226,8226,8226,8226,8226,8226,8226,8226,8226,8226,8226,8226,8226,8245,8225,8234,8234,8234,8234,8234,8234,8234,8234,8234,8234,8234,8234,8234,8234,8234,
8234,8234,8234,8234,8234,8234,8234,8234,8234,8234,8234,8234,8234,8234,8234,8234,8234,8234,8234,8234,8234,8234,8234,8234,8234,8234,8234,8234,8234,8234,8234,8234,8234,8234,8234,8234,8234,8234,8234,8234,8234,8234,8234,8234,8234,8234,8234,8234,8234,8234,8234,8234,8234,8234,8234,8234,8234,8234,8234,8234,8234,8234,8234,8234,8234,8234,8311,8312,8312,8312,8298,8302,8302,8302,8302,8302,8302,8302,8302,8302,8309,8289,8236,8222,8222,8222,8222,8223,8226,8226,8226,8226,8226,8226,8226,8226,8226,8226,8226,8226,8226,8226,1073750053,1073750053,8226,8226,8226,8226,8226,8226,8226,8226,8229,8229,8226,8226,8226,8226,8226,8226,8226,1073750053,1073750053,1073750053,1073750053,1073750053,1073750053,1073750053,1073750053,8226,8226,8226,8226,8226,8226,8226,8226,8226,8226,8226,8233,8234,8234,8234,8234,8234,8234,8234,8234,8234,8234,8234,8234,8234,8234,8234,
8234,8234,8234,8234,8234,8234,8234,8234,8234,8234,8234,8234,8234,8234,8234,8234,8234,8234,8234,8234,8234,8234,8234,8234,8234,8234,8234,8234,8234,8234,8234,8234,8234,8234,8234,8234,8234,8234,8234,8234,8234,8234,8234,8234,8234,8234,8234,8234,8234,8234,8234,8234,8234,8234,8234,8234,8234,8234,8234,8234,8234,8234,8234,8234,8234,8234,8234,8234,8234,8234,8299,8302,8302,8302,8302,8302,8302,8302,8302,8302,8302,8309,8288,8288,8288,8288,8289,8236,8223,8226,8226,8226,8226,8226,8226,8226,8226,8226,8226,8226,8226,8226,1073750053,1073750053,8226,8226,8226,8226,8226,8226,8226,8229,8229,8226,8226,8226,8226,8226,8226,8226,8226,8226,8226,8226,8226,8226,8226,8226,1073750053,1073750053,8226,8226,8226,8226,8226,8226,8226,8226,8226,8226,8245,8225,8234,8234,8234,8234,8234,8234,8234,8234,8234,8234,8234,8234,8234,8234,
8234,8234,8234,8234,8234,8234,8234,8234,8234,8234,8234,8234,8234,8234,8234,8234,8234,8234,8234,8234,8234,8234,8234,8234,8234,8234,8234,8234,8234,8234,8234,8234,8234,8234,8234,8234,8234,8234,8234,8234,8234,8234,8234,8234,8234,8234,8234,8234,8234,8234,8234,8234,8234,8234,8234,8234,8234,8234,8234,8234,8234,8234,8234,8234,8234,8234,8234,8234,8234,8234,8299,8302,8302,8302,8302,8302,8302,8302,8302,8302,8302,8302,8302,8302,8302,8302,8309,8289,8236,8223,8226,8226,8226,8226,8226,8226,8226,8226,8226,8226,8226,8226,1073750053,1073750053,8226,8226,8226,8226,8226,8229,8229,8229,8226,8226,8226,8226,8226,8226,8226,8226,8226,8226,8226,8226,8226,8226,8226,8226,8226,1073750053,1073750053,8226,8226,8226,8226,8226,8226,8226,8226,8226,8226,8245,8225,8234,8234,8234,8234,8234,8234,8234,8234,8234,8234,8234,8234,8234,
8234,8234,8234,8234,8234,8234,8234,8234,8234,8234,8234,8234,8234,8234,8234,8234,8234,8234,8234,8234,8234,8234,8234,8234,8234,8234,8234,8234,8234,8234,8234,8234,8234,8234,8234,8234,8234,8234,8234,8234,8234,8234,8234,8234,8234,8234,8234,8234,8234,8234,8234,8234,8234,8234,8234,8234,8234,8234,8234,8234,8234,8234,8234,8234,8234,8234,8234,8234,8234,8234,8299,8302,8302,8302,8302,8302,8302,8302,8302,8302,8302,8302,8302,8302,8302,8302,8302,8309,8289,8236,8222,8223,8226,8226,8226,8226,8226,8226,8226,8226,8229,8229,1073750053,1073750053,8226,8226,8226,8226,8226,8229,8226,8226,8226,8226,8226,8226,8226,8226,8226,8226,8226,8226,8226,8226,8226,8226,8226,8226,8226,8226,1073750053,8226,8226,8226,8226,8226,8226,8226,8226,8226,8226,8226,8245,8225,8234,8234,8234,8234,8234,8234,8234,8234,8234,8234,8234,8234,
8234,8234,8234,8234,8234,8234,8234,8234,8234,8234,8234,8234,8234,8234,8234,8234,8234,8234,8234,8234,8134,8134,8134,8134,8134,8134,8134,8134,8134,8134,8134,8134,8234,8234,8234,8234,8234,8234,8234,8234,8234,8234,8234,8234,8234,8234,8234,8234,8234,8234,8234,8234,8234,8234,8234,8234,8234,8234,8296,8294,8234,8234,8234,8234,8234,8234,8234,8234,8234,8234,8299,8302,8302,8302,8302,8302,8302,8302,8302,8302,8302,8302,8302,8302,8302,8302,8302,8302,8309,8288,8289,8236,8223,8226,8226,8226,8226,8226,8226,8229,8229,8226,1073750053,1073750053,1073750053,1073750053,1073750053,1073750053,8229,8226,8226,8226,8226,8226,8226,8226,8226,8226,8226,8226,8226,8226,8226,8226,8226,8226,8226,8226,8226,8226,1073750053,1073750053,8226,8226,8226,8226,8226,8226,8226,8226,8226,8226,8226,8233,8234,8234,8234,8234,8234,8234,8234,8234,8234,8234,8234,8234,
8234,8234,8234,8234,8234,8234,8234,8234,8234,8234,8234,8234,8234,8234,8234,8234,8234,8234,8234,8134,8134,8134,8134,8134,8134,8134,8134,8134,8134,8134,8134,8134,8234,8234,8234,8234,8234,8234,8234,8234,8234,8234,8234,8234,8234,8234,8234,8234,8234,8234,8234,8234,8234,8234,8234,8234,8234,8234,8234,8234,8234,8234,8234,8234,8234,8234,8234,8234,8234,8234,8299,8302,8302,8302,8302,8302,8302,8302,8302,8302,8297,8312,8312,8312,8298,8302,8302,8302,8302,8302,8309,8289,8235,8226,8226,8226,8226,8226,8229,8229,8226,8226,1073750053,1073750053,8226,8226,8226,8226,8226,8226,8226,8226,8226,8226,8226,8226,8226,8226,8226,8226,8226,8226,8226,8226,8226,8226,8226,8226,1073750053,1073750053,1073750053,1073750053,8226,8226,8226,8226,8226,8226,8226,8226,8226,8226,8226,8233,8234,8234,8234,8234,8234,8234,8234,8234,8234,8234,8234,8234,
8234,8234,8234,8234,8234,8234,8234,8234,8234,8234,8234,8234,8234,8234,8234,8234,8234,8234,8134,8134,8134,8134,8134,8134,8134,8134,8134,8134,8134,8134,8134,8134,8234,8234,8234,8234,8234,8234,8234,8234,8234,8234,8234,8234,8234,8234,8234,8234,8234,8234,8234,8234,8234,8234,8234,8234,8234,8234,8234,8234,8234,8234,8234,8234,8234,8234,8234,8234,8234,8234,8311,8312,8312,8298,8302,8302,8302,8302,8302,8302,8301,8296,8294,8234,8299,8302,8302,8302,8302,8302,8302,8301,8235,8226,8226,8226,8226,8229,8229,8226,8226,8226,1073750053,1073750053,8226,8226,8226,8226,8226,8226,8226,8226,8226,8226,8226,8226,8226,8226,8226,8226,8226,8226,8226,8226,8226,8226,8226,1073750053,1073750053,8226,8226,1073750053,1073750053,8226,8226,8226,8226,8226,8226,8226,8226,8226,8226,8233,8234,8234,8234,8234,8234,8234,8234,8234,8234,8234,8234,8234,
8234,8234,8234,8234,8234,8234,8234,8234,8234,8234,8234,8234,8234,8234,8234,8234,8234,8134,8134,8134,8134,8134,8134,8134,8134,8134,8134,8134,8134,8134,8134,8134,8234,8234,8234,8234,8234,8234,8234,8234,8234,8234,8234,8234,8234,8234,8234,8234,8234,8234,8234,8234,8234,8234,8234,8234,8234,8234,8234,8234,8234,8234,8234,8234,8234,8234,8234,8234,8234,8234,8234,8234,8234,8299,8302,8302,8302,8302,8302,8302,8309,8289,8234,8287,8310,8302,8302,8302,8302,8302,8297,8313,8235,8226,8226,8226,8229,8229,8226,8226,8226,8226,1073750053,1073750053,8226,8226,8226,8226,8226,8226,8226,8226,8226,8226,8226,8226,8226,8226,8226,8226,8226,8226,8226,8226,8226,8226,1073750053,1073750053,8226,8226,8226,8229,8226,8226,8226,8226,8226,8226,8226,8226,8226,8226,8226,8233,8234,8234,8234,8234,8234,8234,8234,8234,8234,8234,8234,8234,
8234,8234,8234,8234,8234,8234,8234,8234,8234,8234,8234,8234,8234,8234,8234,8134,8134,8134,8134,8134,8134,8134,8134,8134,8134,8134,8134,8134,8134,8134,8134,8134,8234,8234,8234,8234,8234,8234,8234,8234,8234,8234,8234,8234,8234,8234,8234,8234,8234,8234,8234,8234,8234,8234,8234,8234,8234,8234,8234,8234,8234,8234,8234,8234,8234,8234,8234,8234,8234,8234,8234,8234,8234,8299,8302,8302,8302,8302,8302,8302,8302,8309,8288,8310,8302,8302,8302,8302,8302,8302,8301,8224,8247,8226,8226,8229,8229,8226,8226,8226,8226,8226,1073750053,1073750053,8226,8226,8226,8226,8226,8226,8226,8226,8226,8226,8226,8226,8226,8226,8226,8226,8226,8226,8226,8226,8226,1073750053,1073750053,8226,8226,8226,8226,8229,8226,8226,8226,8226,8226,8226,8226,8226,8226,8226,8226,8233,8234,8234,8234,8234,8234,8234,8234,8234,8234,8234,8234,8234,
8234,8234,8234,8234,8234,8234,8234,8234,8234,8234,8234,8234,8234,8234,8134,8134,8134,8134,8134,8134,8134,8134,8134,8134,8134,8134,8134,8134,8134,8134,8134,8134,8234,8234,8234,8234,8234,8234,8234,8234,8234,8234,8234,8234,8234,8234,8234,8234,8234,8234,8234,8234,8234,8234,8234,8234,8234,8234,8234,8234,8234,8234,8234,8234,8234,8234,8234,8234,8234,8234,8234,8234,8234,8299,8302,8302,8302,8302,8302,8302,8302,8302,8302,8302,8302,8302,8302,8302,8302,8302,8301,8235,8226,8226,8226,8229,8226,8226,8226,8226,8226,8226,8226,8226,8226,8226,8226,8226,8226,8226,8226,8226,8226,8226,8226,8226,8226,8226,8226,8226,8226,8226,8226,8226,1073750053,1073750053,8226,8226,8226,8226,8226,8229,8226,8226,8226,8226,8226,8226,8226,8226,8226,8226,8234,8237,8234,8234,8234,8234,8234,8234,8234,8234,8234,8234,8234,8234,
8234,8234,8234,8234,8234,8234,8234,8234,8234,8234,8234,8234,8234,8234,8134,8134,8134,8134,8134,8134,8134,8134,8134,8134,8134,8134,8134,8134,8134,8134,8134,8134,8234,8234,8234,8234,8234,8234,8234,8234,8234,8234,8234,8234,8234,8234,8234,8234,8234,8234,8234,8234,8234,8234,8234,8234,8234,8234,8234,8234,8234,8234,8234,8234,8234,8234,8234,8234,8234,8234,8234,8234,8234,8311,8298,8302,8302,8302,8302,8302,8302,8302,8302,8302,8302,8302,8302,8302,8302,8302,8301,8235,8226,8226,8226,8226,8226,8226,8226,8221,8222,8222,8222,8222,8222,8222,8222,8222,8223,8226,8226,8226,8226,8226,8226,8226,8226,8226,8226,8226,8226,8226,8226,1073750053,1073750053,8226,8226,8226,8226,8226,8226,8229,8226,8226,8226,8226,8226,8226,8226,8226,8226,8226,8233,8234,8234,8234,8234,8234,8234,8234,8234,8234,8234,8234,8234,8234,
8234,8234,8234,8234,8234,8234,8234,8234,8234,8234,8234,8234,8234,8234,8134,8134,8134,8134,8134,8134,8134,8134,8134,8134,8134,8134,8134,8134,8134,8134,8134,8134,8134,8234,8234,8234,8234,8234,8234,8234,8234,8234,8234,8234,8234,8234,8234,8234,8234,8234,8234,8234,8234,8234,8234,8234,8234,8234,8234,8234,8234,8234,8234,8234,8234,8234,8234,8234,8234,8234,8234,8234,8234,8234,8311,8312,8312,8298,8302,8302,8302,8302,8302,8302,8302,8302,8302,8302,8302,8302,8301,8235,8226,8226,8226,8226,8226,8226,8226,8233,8287,8288,8288,8288,8288,8288,8288,8288,8236,8223,8226,8226,8226,8226,8226,8226,8226,8226,8226,8226,8226,8226,1073750053,1073750053,8226,8226,8226,8226,8226,8226,8226,8229,8226,8226,8226,8226,8226,8226,8226,8226,8226,8226,8233,8234,8234,8234,8234,8234,8234,8234,8234,8234,8234,8234,8234,8234,
8234,8234,8234,8234,8234,8234,8234,8234,8234,8234,8234,8234,8234,8234,8134,8134,8134,8134,8134,8134,8134,8134,8134,8134,8134,8134,8134,8134,8134,8134,8134,8134,8134,8234,8234,8234,8234,8234,8234,8234,8234,8234,8234,8234,8234,8234,8234,8234,8234,8234,8234,8234,8234,8234,8234,8234,8234,8234,8234,8234,8234,8234,8234,8234,8234,8234,8234,8234,8234,8234,8234,8234,8234,8234,8234,8234,8234,8299,8302,8302,8302,8302,8302,8302,8302,8302,8302,8302,8302,8302,8301,8236,8222,8222,8222,8222,8222,8222,8222,8237,8299,8302,8302,8302,8302,8302,8302,8302,8289,8235,8226,8226,8226,8226,8226,8226,8226,8226,8226,8226,8226,1073750053,1073750053,8226,8226,8226,8226,8226,8226,8226,8226,8229,8226,8226,8226,8226,8226,8226,8226,8226,8226,8226,8233,8234,8234,8234,8234,8234,8234,8234,8234,8234,8234,8234,8234,8234,
8234,8234,8234,8234,8234,8234,8234,8234,8234,8234,8234,8234,8234,8234,8134,8134,8134,8134,8134,8134,8134,8134,8134,8134,8134,8134,8134,8134,8134,8134,8134,8134,8134,8134,8234,8234,8234,8234,8234,8234,8234,8234,8234,8234,8234,8234,8234,8234,8234,8234,8234,8234,8234,8234,8234,8234,8234,8234,8234,8234,8234,8234,8234,8234,8234,8234,8234,8234,8234,8234,8234,8234,8234,8234,8234,8234,8234,8299,8302,8302,8302,8302,8302,8302,8302,8302,8302,8302,8302,8302,8309,8288,8288,8288,8288,8288,8288,8288,8288,8288,8310,8302,8302,8302,8302,8302,8302,8302,8301,8235,8226,8226,8226,8226,8226,8226,8226,8226,8226,8226,8226,1073750053,8226,8226,8226,8226,8226,8226,8226,8226,8226,8229,8226,8226,8226,8226,8226,8226,8226,8226,8226,8234,8237,8234,8234,8234,8234,8234,8234,8234,8234,8234,8234,8234,8234,8234,
8234,8234,8234,8234,8234,8234,8234,8234,8234,8234,8234,8234,8234,8134,8134,8134,8134,8134,8134,8134,8134,8134,8134,8134,8134,8134,8134,8134,8134,8134,8134,8134,8134,8134,8134,8134,8234,8234,8234,8234,8234,8234,8234,8234,8234,8234,8234,8234,8234,8234,8234,8234,8234,8234,8234,8234,8234,8234,8234,8234,8234,8234,8234,8234,8234,8234,8234,8234,8234,8234,8234,8234,8234,8234,8234,8234,8234,8311,8312,8298,8302,8302,8302,8302,8302,8302,8302,8302,8302,8302,8302,8302,8302,8297,8312,8312,8298,8302,8302,8302,8302,8302,8302,8302,8302,8302,8302,8297,8313,8235,8226,8226,8226,8226,8226,8226,8226,8226,8226,8226,1073750053,1073750053,8226,8226,8226,8226,8226,8226,8226,8226,8226,8226,8226,8226,8226,8226,8226,8226,8226,8226,8226,8233,8234,8234,8234,8234,8234,8234,8234,8234,8234,8234,8234,8234,8234,8234,
8234,8234,8234,8234,8234,8234,8234,8234,8234,8234,8234,8234,8234,8134,8134,8134,8134,8134,8134,8134,8134,8134,8134,8134,8134,8134,8134,8134,8134,8134,8134,8134,8134,8134,8134,8134,8134,8234,8234,8234,8234,8234,8234,8234,8234,8234,8234,8234,8234,8234,8234,8234,8234,8234,8234,8234,8234,8234,8234,8234,8234,8234,8234,8234,8234,8234,8234,8234,8234,8234,8234,8234,8234,8234,8234,8234,8234,8234,8234,8311,8298,8302,8302,8302,8302,8302,8302,8302,8302,8297,8312,8312,8312,8313,8234,8234,8311,8312,8298,8302,8302,8302,8302,8302,8302,8302,8297,8313,8234,8235,8226,8226,8226,8226,8226,8226,8226,8226,8226,8226,1073750053,1073750053,8226,8226,8226,8226,8226,8226,8226,8226,8226,8226,8226,8226,8226,8226,8226,8226,8226,8226,8226,8233,8234,8234,8234,8234,8234,8234,8234,8234,8234,8234,8234,8234,8234,8234,
8234,8234,8234,8234,8234,8234,8234,8234,8234,8134,8134,8134,8134,8134,8134,8134,8134,8134,8134,8134,8134,8134,8134,8134,8134,8134,8134,8134,8134,8134,8134,8134,8134,8134,8134,8134,8134,8134,8134,8234,8234,8234,8234,8234,8234,8234,8234,8234,8234,8234,8234,8234,8234,8234,8234,8234,8234,8234,8234,8234,8234,8234,8234,8234,8234,8234,8234,8234,8234,8234,8234,8234,8234,8234,8234,8234,8234,8234,8234,8234,8311,8298,8302,8302,8302,8302,8302,8302,8297,8313,8234,8234,8234,8234,8234,8234,8234,8234,8299,8302,8302,8302,8302,8302,8297,8312,8313,8234,8234,8236,8223,8226,8226,8226,8226,8226,8226,8226,8226,8226,1073750053,1073750053,8226,8226,8226,8226,8226,8226,8226,8226,8226,8226,8226,8226,8226,8226,8226,8226,8226,8226,8221,8237,8234,8234,8234,8234,8234,8234,8234,8234,8234,8234,8234,8234,8234,8234,
8234,8234,8234,8234,8234,8234,8234,8234,8134,8134,8134,8134,8134,8134,8134,8134,8134,8134,8134,8134,8134,8134,8134,8134,8134,8134,8134,8134,8134,8134,8134,8134,8134,8134,8134,8134,8134,8134,8134,8134,8134,8234,8234,8234,8234,8234,8234,8234,8234,8234,8234,8234,8234,8234,8234,8234,8234,8234,8234,8234,8234,8234,8234,8234,8234,8234,8234,8234,8234,8234,8234,8234,8234,8234,8234,8234,8234,8234,8234,8234,8234,8299,8302,8302,8302,8302,8302,8302,8301,8234,8234,8234,8234,8234,8234,8234,8234,8234,8299,8302,8302,8302,8302,8302,8301,8234,8234,8234,8234,8234,8235,8226,8226,8226,8226,8226,8226,8226,8226,8226,1073750053,1073750053,8226,8226,8226,8226,8226,8226,8226,8226,8226,8226,8226,8226,8226,8226,8226,8226,8226,8221,8237,8234,8234,8234,8234,8234,8234,8234,8234,8234,8234,8234,8234,8234,8234,8234,
8234,8234,8234,8234,8234,8234,8134,8134,8134,8134,8134,8134,8134,8134,8134,8134,8134,8134,8134,8134,8134,8134,8134,8134,8134,8134,8134,8134,8134,8134,8134,8134,8134,8134,8134,8134,8134,8134,8134,8134,8134,8134,8234,8234,8234,8234,8234,8234,8234,8234,8234,8234,8234,8234,8234,8234,8234,8234,8234,8234,8234,8234,8234,8234,8234,8234,8234,8234,8234,8234,8234,8234,8234,8234,8234,8234,8234,8234,8234,8234,8234,8299,8302,8302,8302,8302,8302,8302,8309,8289,8234,8234,8234,8234,8234,8234,8234,8234,8299,8302,8302,8302,8302,8302,8301,8234,8234,8234,8234,8234,8236,8223,8226,8226,8226,8226,8226,8226,8226,8226,1073750053,1073750053,8226,8226,8226,8226,8226,8226,8226,8226,8226,8226,8226,8226,8226,8226,8226,8226,8221,8237,8234,8234,8234,8234,8234,8234,8234,8234,8234,8234,8234,8234,8234,8234,8234,8234,
8234,8234,8234,8234,8134,8134,8134,8134,8134,8134,8134,8134,8134,8134,8134,8134,8134,8134,8134,8134,8134,8134,8134,8134,8134,8134,8134,8134,8134,8134,8134,8134,8134,8134,8134,8134,8134,8134,8134,8134,8134,8134,8134,8134,8234,8234,8234,8234,8234,8234,8234,8234,8234,8234,8234,8234,8234,8234,8234,8234,8234,8234,8234,8234,8234,8234,8234,8234,8234,8234,8234,8234,8234,8234,8234,8234,8234,8234,8234,8234,8234,8311,8298,8302,8302,8302,8302,8302,8302,8309,8289,8234,8234,8234,8234,8234,8234,8234,8299,8302,8302,8302,8302,8302,8309,8289,8234,8234,8234,8234,8234,8235,8226,8226,8226,8226,8226,8226,8226,8226,1073750053,1073750053,8226,8226,8226,8226,8226,8226,8226,8226,8226,8226,8226,8226,8226,8226,8226,8226,8233,8234,8234,8234,8234,8234,8234,8234,8234,8234,8234,8234,8234,8234,8234,8234,8234,8234,
8234,8234,8134,8134,8134,8134,8134,8134,8134,8134,8134,8134,8134,8134,8134,8134,8134,8134,8134,8134,8134,8134,8134,8134,8134,8134,8134,8134,8134,8134,8134,8134,8134,8134,8134,8134,8134,8134,8134,8134,8134,8134,8134,8134,8134,8134,8234,8234,8234,8234,8234,8234,8234,8234,8234,8234,8234,8234,8234,8234,8234,8234,8234,8234,8234,8234,8234,8234,8234,8234,8234,8234,8234,8234,8234,8234,8234,8234,8234,8234,8234,8234,8299,8302,8302,8302,8302,8302,8302,8302,8309,8290,8288,8288,8288,8290,8288,8288,8310,8302,8302,8302,8302,8302,8302,8301,8234,8234,8234,8234,8234,8236,8223,8226,8226,8226,8226,8226,8226,8226,8226,1073750053,8226,8226,8226,8226,8226,8226,8226,8226,8226,8226,8226,8226,8226,8226,8226,8221,8237,8234,8234,8234,8234,8234,8234,8234,8234,8234,8234,8234,8234,8234,8234,8234,8234,8234,
8234,8234,8134,8134,8134,8134,8134,8134,8134,8134,8134,8134,8134,8134,8134,8134,8134,8134,8134,8134,8134,8134,8134,8134,8134,8134,8134,8134,8134,8134,8134,8134,8134,8134,8134,8134,8134,8134,8134,8134,8134,8134,8134,8134,8134,8134,8134,8234,8234,8234,8234,8234,8234,8234,8234,8234,8234,8234,8234,8234,8234,8234,8234,8234,8234,8234,8234,8234,8234,8234,8234,8234,8234,8234,8234,8234,8234,8234,8234,8234,8234,8234,8311,8298,8302,8302,8302,8302,8302,8302,8302,8302,8302,8302,8302,8302,8302,8302,8302,8302,8302,8302,8302,8302,8302,8301,8234,8234,8234,8234,8234,8234,8236,8223,8226,8226,8226,8226,8226,8226,8226,8226,8226,8226,8226,8226,8226,8226,8226,8226,8226,8226,8226,8226,8226,8226,8221,8237,8234,8234,8234,8234,8234,8234,8234,8234,8234,8234,8234,8234,8234,8234,8234,8234,8234,8234,
8234,8134,8134,8134,8134,8134,8134,8134,8134,8134,8134,8134,8134,8134,8134,8134,8134,8134,8134,8134,8134,8134,8134,8134,8134,8134,8134,8134,8134,8134,8134,8134,8134,8134,8134,8134,8134,8134,8134,8134,8134,8134,8134,8134,8134,8134,8134,8134,8234,8234,8234,8234,8234,8234,8234,8234,8234,8234,8234,8234,8234,8234,8234,8234,8234,8234,8234,8234,8234,8234,8234,8234,8234,8234,8234,8234,8234,8234,8234,8234,8234,8234,8234,8311,8298,8302,8302,8302,8302,8302,8302,8302,8302,8302,8302,8302,8302,8302,8302,8302,8302,8302,8302,8302,8302,8301,8234,8234,8234,8234,8234,8234,8234,8236,8223,8226,8226,8226,8226,8226,8226,8226,8226,8226,8226,8226,8226,8226,8226,8226,8226,8226,8226,8226,8226,8221,8237,8234,8234,8234,8234,8234,8234,8234,8234,8234,8234,8234,8234,8234,8234,8234,8234,8234,8234,8234,
8134,8134,8134,8134,8134,8134,8134,8134,8134,8134,8134,8134,8134,8134,8134,8134,8134,8134,8134,8134,8134,8134,8134,8134,8134,8134,8134,8134,8134,8134,8134,8134,8134,8134,8134,8134,8134,8134,8134,8134,8134,8134,8134,8134,8134,8134,8134,8134,8134,8234,8234,8234,8234,8234,8234,8234,8234,8234,8234,8234,8234,8234,8234,8234,8234,8234,8234,8234,8234,8234,8234,8234,8234,8234,8234,8234,8234,8234,8234,8234,8234,8234,8234,8234,8311,8298,8302,8302,8302,8302,8302,8302,8302,8302,8297,8312,8312,8312,8312,8298,8302,8302,8302,8302,8297,8313,8234,8234,8234,8234,8234,8234,8234,8234,8236,8223,8226,8226,8226,8226,8226,8226,8226,8226,8226,8226,8226,8226,8226,8226,8226,8226,8226,8226,8226,8233,8234,8234,8234,8234,8234,8234,8234,8234,8234,8234,8234,8234,8234,8234,8234,8234,8234,8234,8234,8234,
8134,8134,8134,8134,8134,8134,8134,8134,8134,8134,8134,8134,8134,8134,8134,8134,8134,8134,8134,8134,8134,8134,8134,8134,8134,8134,8134,8134,8134,8134,8134,8134,8134,8134,8134,8134,8134,8134,8134,8134,8134,8134,8134,8134,8134,8134,8134,8134,8134,8134,8234,8234,8234,8234,8234,8234,8234,8234,8234,8234,8234,8234,8234,8234,8234,8234,8234,8234,8234,8234,8234,8234,8234,8234,8234,8234,8234,8234,8234,8234,8234,8234,8234,8234,8234,8311,8312,8312,8312,8298,8302,8302,8302,8302,8301,8234,8234,8234,8234,8311,8312,8298,8302,8302,8301,8234,8234,8234,8234,8234,8234,8234,8234,8234,8234,8236,8223,8226,8226,8226,8226,8226,8226,8226,8226,8226,8226,8226,8226,8226,8226,8226,8226,8226,8221,8237,8234,8234,8234,8234,8234,8234,8234,8234,8234,8234,8234,8234,8234,8234,8234,8234,8234,8234,8234,8234,
8134,8134,8134,8134,8134,8134,8134,8134,8134,8134,8134,8134,8134,8134,8134,8134,8134,8134,8134,8134,8134,8134,8134,8134,8134,8134,8134,8134,8134,8134,8134,8134,8134,8134,8134,8134,8134,8134,8134,8134,8134,8134,8134,8134,8134,8134,8134,8134,8134,8134,8234,8234,8234,8234,8234,8234,8234,8234,8234,8234,8234,8234,8234,8234,8234,8234,8234,8234,8234,8234,8234,8234,8234,8234,8234,8234,8234,8234,8234,8234,8234,8234,8234,8234,8234,8234,8234,8234,8234,8311,8312,8298,8302,8297,8313,8234,8234,8234,8234,8234,8234,8311,8312,8312,8313,8234,8234,8234,8234,8234,8234,8234,8234,8234,8234,8234,8236,8223,8226,8226,8226,8226,8226,8226,8226,8226,8226,8226,8226,8226,8226,8226,8221,8222,8237,8234,8234,8234,8234,8234,8234,8234,8234,8234,8234,8234,8234,8234,8234,8234,8234,8234,8234,8234,8234,8234,
8134,8134,8134,8134,8134,8134,8134,8134,8134,8134,8134,8134,8134,8134,8134,8134,8134,8134,8134,8134,8134,8134,8134,8134,8134,8134,8134,8134,8134,8134,8134,8134,8134,8134,8134,8134,8134,8134,8134,8134,8134,8134,8134,8134,8134,8134,8134,8134,8134,8134,8134,8234,8234,8234,8234,8234,8234,8234,8234,8234,8234,8234,8234,8234,8234,8234,8234,8234,8234,8234,8234,8234,8234,8234,8234,8234,8234,8234,8234,8234,8234,8234,8234,8234,8234,8234,8234,8234,8234,8234,8234,8311,8312,8313,8234,8234,8234,8234,8234,8234,8234,8234,8234,8234,8234,8234,8234,8234,8234,8234,8234,8234,8234,8234,8234,8234,8234,8236,8222,8223,8226,8226,8226,8226,8226,8226,8226,8226,8226,8226,8221,8222,8237,8234,8234,8234,8234,8234,8234,8234,8234,8234,8234,8234,8234,8234,8234,8234,8234,8234,8234,8234,8234,8234,8234,8234,
8134,8134,8134,8134,8134,8134,8134,8134,8134,8134,8134,8134,8134,8134,8134,8134,8134,8134,8134,8134,8134,8134,8134,8134,8134,8134,8134,8134,8134,8134,8134,8134,8134,8134,8134,8134,8134,8134,8134,8134,8134,8134,8134,8134,8134,8134,8134,8134,8134,8134,8134,8134,8234,8234,8234,8234,8234,8234,8234,8234,8234,8234,8234,8234,8234,8234,8234,8234,8234,8234,8234,8234,8234,8234,8234,8234,8234,8234,8234,8234,8234,8234,8234,8234,8234,8234,8234,8234,8234,8234,8234,8234,8234,8234,8234,8234,8234,8234,8234,8234,8234,8234,8234,8234,8234,8234,8234,8234,8234,8234,8234,8234,8234,8234,8234,8234,8234,8234,8234,8236,8222,8222,8222,8222,8222,8222,8222,8222,8222,8222,8237,8234,8234,8234,8234,8234,8234,8234,8234,8234,8234,8234,8234,8234,8234,8234,8234,8234,8234,8234,8234,8234,8234,8234,8234,8234,
8134,8134,8134,8134,8134,8134,8134,8134,8134,8134,8134,8134,8134,8134,8134,8134,8134,8134,8134,8134,8134,8134,8134,8134,8134,8134,8134,8134,8134,8134,8134,8134,8134,8134,8134,8134,8134,8134,8134,8134,8134,8134,8134,8134,8134,8134,8134,8134,8134,8134,8134,8134,8234,8234,8234,8234,8234,8234,8234,8234,8234,8234,8234,8234,8234,8234,8234,8234,8234,8234,8234,8234,8234,8234,8234,8234,8234,8234,8234,8234,8234,8234,8234,8234,8234,8234,8234,8234,8234,8234,8234,8234,8234,8234,8234,8234,8234,8234,8234,8234,8234,8234,8234,8234,8234,8234,8234,8234,8234,8234,8234,8234,8234,8234,8234,8234,8234,8234,8234,8234,8234,8234,8234,8234,8234,8234,8234,8234,8234,8234,8234,8234,8234,8234,8234,8234,8234,8234,8234,8234,8234,8234,8234,8234,8234,8234,8234,8234,8234,8234,8234,8234,8234,8234,8234,8234,
8134,8134,8134,8134,8134,8134,8134,8134,8134,8134,8134,8134,8134,8134,8134,8134,8134,8134,8134,8134,8134,8134,8134,8134,8134,8134,8134,8134,8134,8134,8134,8134,8134,8134,8134,8134,8134,8134,8134,8134,8134,8134,8134,8134,8134,8134,8134,8134,8134,8134,8134,8134,8134,8234,8234,8234,8234,8234,8234,8234,8234,8234,8234,8234,8234,8234,8234,8234,8234,8234,8234,8234,8234,8234,8234,8234,8234,8234,8234,8234,8234,8234,8234,8234,8234,8234,8234,8234,8234,8234,8234,8234,8234,8234,8234,8234,8234,8234,8234,8234,8234,8234,8234,8234,8234,8234,8234,8234,8234,8234,8234,8234,8234,8234,8234,8234,8234,8234,8234,8234,8234,8234,8234,8234,8234,8234,8234,8234,8234,8234,8234,8234,8234,8234,8234,8234,8234,8234,8234,8234,8234,8234,8234,8234,8234,8234,8234,8234,8234,8234,8234,8234,8234,8234,8234,8234,
8134,8134,8134,8134,8134,8134,8134,8134,8134,8134,8134,8134,8134,8134,8134,8134,8134,8134,8134,8134,8134,8134,8134,8134,8134,8134,8134,8134,8134,8134,8134,8134,8134,8134,8134,8134,8134,8134,8134,8134,8134,8134,8134,8134,8134,8134,8134,8134,8134,8134,8134,8134,8134,8134,8234,8234,8234,8234,8234,8234,8234,8234,8234,8234,8234,8234,8234,8234,8234,8234,8234,8234,8234,8234,8234,8234,8234,8234,8234,8234,8234,8234,8234,8234,8234,8234,8234,8234,8234,8234,8234,8234,8234,8234,8234,8234,8234,8234,8234,8234,8234,8234,8234,8234,8234,8234,8234,8234,8234,8234,8234,8234,8234,8234,8234,8234,8234,8234,8234,8234,8234,8234,8234,8234,8234,8234,8234,8234,8234,8234,8234,8234,8234,8234,8234,8234,8234,8234,8234,8234,8234,8234,8234,8234,8234,8234,8234,8234,8234,8234,8234,8234,8234,8234,8234,8234,
8134,8134,8134,8134,8134,8134,8134,8134,8134,8134,8134,8134,8134,8134,8134,8134,8134,8134,8134,8134,8134,8134,8134,8134,8134,8134,8134,8134,8134,8134,8134,8134,8134,8134,8134,8134,8134,8134,8134,8134,8134,8134,8134,8134,8134,8134,8134,8134,8134,8134,8134,8134,8134,8134,8134,8234,8234,8234,8234,8234,8234,8234,8234,8234,8234,8234,8234,8234,8234,8234,8234,8234,8234,8234,8234,8234,8234,8234,8234,8234,8234,8234,8234,8234,8234,8234,8234,8234,8234,8234,8234,8234,8234,8234,8234,8234,8234,8234,8234,8234,8234,8234,8234,8234,8234,8234,8234,8234,8234,8234,8234,8234,8234,8234,8234,8234,8234,8234,8234,8234,8234,8234,8234,8234,8234,8234,8234,8234,8234,8234,8234,8234,8234,8234,8234,8234,8234,8234,8234,8234,8234,8234,8234,8234,8234,8234,8234,8234,8234,8234,8234,8234,8234,8234,8234,8234,
8134,8134,8134,8134,8134,8134,8134,8134,8134,8134,8134,8134,8134,8134,8134,8134,8134,8134,8134,8134,8134,8134,8134,8134,8134,8134,8134,8134,8134,8134,8134,8134,8134,8134,8134,8134,8134,8134,8134,8134,8134,8134,8134,8134,8134,8134,8134,8134,8134,8134,8134,8134,8134,8134,8134,8134,8234,8234,8234,8234,8234,8234,8234,8234,8234,8234,8234,8234,8234,8234,8234,8234,8234,8234,8234,8234,8234,8234,8234,8234,8234,8234,8234,8234,8234,8234,8234,8234,8234,8234,8234,8234,8234,8234,8234,8234,8234,8234,8234,8234,8234,8234,8234,8234,8234,8234,8234,8234,8234,8234,8234,8234,8234,8234,8234,8234,8234,8234,8234,8234,8234,8234,8234,8234,8234,8234,8234,8234,8234,8234,8234,8234,8234,8234,8234,8234,8234,8234,8234,8234,8234,8234,8234,8234,8234,8234,8234,8234,8234,8234,8234,8234,8234,8234,8234,8234,
8134,8134,8134,8134,8134,8134,8134,8134,8134,8134,8134,8134,8134,8134,8134,8134,8134,8134,8134,8134,8134,8134,8134,8134,8134,8134,8134,8134,8134,8134,8134,8134,8134,8134,8134,8134,8134,8134,8134,8134,8134,8134,8134,8134,8134,8134,8134,8134,8134,8134,8134,8134,8134,8134,8134,8134,8234,8234,8234,8234,8234,8234,8234,8234,8234,8234,8234,8234,8234,8234,8234,8234,8234,8234,8234,8234,8234,8234,8234,8234,8234,8234,8234,8234,8234,8234,8234,8234,8234,8234,8234,8234,8234,8234,8234,8234,8234,8234,8234,8234,8234,8234,8234,8234,8234,8234,8234,8234,8234,8234,8234,8234,8234,8234,8234,8234,8234,8234,8234,8234,8234,8234,8234,8234,8234,8234,8234,8234,8234,8234,8234,8234,8234,8234,8234,8234,8234,8234,8234,8234,8234,8234,8234,8234,8234,8234,8234,8234,8234,8234,8234,8234,8234,8234,8234,8234,
8134,8134,8134,8134,8134,8134,8134,8134,8134,8134,8134,8134,8134,8134,8134,8134,8134,8134,8134,8134,8134,8134,8134,8134,8134,8134,8134,8134,8134,8134,8134,8134,8134,8134,8134,8134,8134,8134,8134,8134,8134,8134,8134,8134,8134,8134,8134,8134,8134,8134,8134,8134,8134,8134,8134,8134,8134,8234,8234,8234,8234,8234,8234,8234,8234,8234,8234,8234,8234,8234,8234,8234,8234,8234,8234,8234,8234,8234,8234,8234,8234,8234,8234,8234,8234,8234,8234,8234,8234,8234,8234,8234,8234,8234,8234,8234,8234,8234,8234,8234,8234,8234,8234,8234,8234,8234,8234,8234,8234,8234,8234,8234,8234,8234,8234,8234,8234,8234,8234,8234,8234,8234,8234,8234,8234,8234,8234,8234,8234,8234,8234,8234,8234,8234,8234,8234,8234,8234,8234,8234,8234,8234,8234,8234,8234,8234,8234,8234,8234,8234,8234,8234,8234,8234,8234,8234,
8134,8134,8134,8134,8134,8134,8134,8134,8134,8134,8134,8134,8134,8134,8134,8134,8134,8134,8134,8134,8134,8134,8134,8134,8134,8134,8134,8134,8134,8134,8134,8134,8134,8134,8134,8134,8134,8134,8134,8134,8134,8134,8134,8134,8134,8134,8134,8134,8134,8134,8134,8134,8134,8134,8134,8134,8134,8234,8234,8234,8234,8234,8234,8234,8234,8234,8234,8234,8234,8234,8234,8234,8234,8234,8234,8234,8234,8234,8234,8234,8234,8234,8234,8234,8234,8234,8234,8234,8234,8234,8234,8234,8234,8234,8234,8234,8234,8234,8234,8234,8234,8234,8234,8234,8234,8234,8234,8234,8234,8234,8234,8234,8234,8234,8234,8234,8234,8234,8234,8234,8234,8234,8234,8234,8234,8234,8234,8234,8234,8234,8234,8234,8234,8234,8234,8234,8234,8234,8234,8234,8234,8234,8234,8234,8234,8234,8234,8234,8234,8234,8234,8234,8234,8234,8234,8234,
8134,8134,8134,8134,8134,8134,8134,8134,8134,8134,8134,8134,8134,8134,8134,8134,8134,8134,8134,8134,8134,8134,8134,8134,8134,8134,8134,8134,8134,8134,8134,8134,8134,8134,8134,8134,8134,8134,8134,8134,8134,8134,8134,8134,8134,8134,8134,8134,8134,8134,8134,8134,8134,8134,8134,8134,8134,8134,8234,8234,8234,8234,8234,8234,8234,8234,8234,8234,8234,8234,8234,8234,8234,8234,8234,8234,8234,8234,8234,8234,8234,8234,8234,8234,8234,8234,8234,8234,8234,8234,8234,8234,8234,8234,8234,8234,8234,8234,8234,8234,8234,8234,8234,8234,8234,8234,8234,8234,8234,8234,8234,8234,8234,8234,8234,8234,8234,8234,8234,8234,8234,8234,8234,8234,8234,8234,8234,8234,8234,8234,8234,8234,8234,8234,8234,8234,8234,8234,8234,8234,8234,8234,8234,8234,8234,8234,8234,8234,8234,8234,8234,8234,8234,8234,8234,8234,
8134,8134,8134,8134,8134,8134,8134,8134,8134,8134,8134,8134,8134,8134,8134,8134,8134,8134,8134,8134,8134,8134,8134,8134,8134,8134,8134,8134,8134,8134,8134,8134,8134,8134,8134,8134,8134,8134,8134,8134,8134,8134,8134,8134,8134,8134,8134,8134,8134,8134,8134,8134,8134,8134,8134,8134,8134,8134,8234,8234,8234,8234,8234,8234,8234,8234,8234,8234,8234,8234,8234,8234,8234,8234,8234,8234,8234,8234,8234,8234,8234,8234,8234,8234,8234,8234,8234,8234,8234,8234,8234,8234,8234,8234,8234,8234,8234,8234,8234,8234,8234,8234,8234,8234,8234,8234,8234,8234,8234,8234,8234,8234,8234,8234,8234,8234,8234,8234,8234,8234,8234,8234,8234,8234,8234,8234,8234,8234,8234,8234,8234,8234,8234,8234,8234,8234,8234,8234,8234,8234,8234,8234,8234,8234,8234,8234,8234,8234,8234,8234,8234,8234,8234,8234,8234,8234,
8134,8134,8134,8134,8134,8134,8134,8134,8134,8134,8134,8134,8134,8134,8134,8134,8134,8134,8134,8134,8134,8134,8134,8134,8134,8134,8134,8134,8134,8134,8134,8134,8134,8134,8134,8134,8134,8134,8134,8134,8134,8134,8134,8134,8134,8134,8134,8134,8134,8134,8134,8134,8134,8134,8134,8134,8134,8134,8134,8234,8234,8234,8234,8234,8234,8234,8234,8234,8234,8234,8234,8234,8234,8234,8234,8234,8234,8234,8234,8234,8234,8234,8234,8234,8234,8234,8234,8234,8234,8234,8234,8234,8234,8234,8234,8234,8234,8234,8234,8234,8234,8234,8234,8234,8234,8234,8234,8234,8234,8234,8234,8234,8234,8234,8234,8234,8234,8234,8234,8234,8234,8234,8234,8234,8234,8234,8234,8234,8234,8234,8234,8234,8234,8234,8234,8234,8234,8234,8234,8234,8234,8234,8234,8234,8234,8234,8234,8234,8234,8234,8234,8234,8234,8234,8234,8234,
8134,8134,8134,8134,8134,8134,8134,8134,8134,8134,8134,8134,8134,8134,8134,8134,8134,8134,8134,8134,8134,8134,8134,8134,8134,8134,8134,8134,8134,8134,8134,8134,8134,8134,8134,8134,8134,8134,8134,8134,8134,8134,8134,8134,8134,8134,8134,8134,8134,8134,8134,8134,8134,8134,8134,8134,8134,8134,8134,8234,8234,8234,8234,8234,8234,8234,8234,8234,8234,8234,8234,8234,8234,8234,8234,8234,8234,8234,8234,8234,8234,8234,8234,8234,8234,8234,8234,8234,8234,8234,8234,8234,8234,8234,8234,8234,8234,8234,8234,8234,8234,8234,8234,8234,8234,8234,8234,8234,8234,8234,8234,8234,8234,8234,8234,8234,8234,8234,8234,8234,8234,8234,8234,8234,8234,8234,8234,8234,8234,8234,8234,8234,8234,8234,8234,8234,8234,8234,8234,8234,8234,8234,8234,8234,8234,8234,8234,8234,8234,8234,8234,8234,8234,8234,8234,8234,
8134,8134,8134,8134,8134,8134,8134,8134,8134,8134,8134,8134,8134,8134,8134,8134,8134,8134,8134,8134,8134,8134,8134,8134,8134,8134,8134,8134,8134,8134,8134,8134,8134,8134,8134,8134,8134,8134,8134,8134,8134,8134,8134,8134,8134,8134,8134,8134,8134,8134,8134,8134,8134,8134,8134,8134,8134,8134,8134,8134,8234,8234,8234,8234,8234,8234,8234,8234,8234,8234,8234,8234,8234,8234,8234,8234,8234,8234,8234,8234,8234,8234,8234,8234,8234,8234,8234,8234,8234,8234,8234,8234,8234,8234,8234,8234,8234,8234,8234,8234,8234,8234,8234,8234,8234,8234,8234,8234,8234,8234,8234,8234,8234,8234,8234,8234,8234,8234,8234,8234,8234,8234,8234,8234,8234,8234,8234,8234,8234,8234,8234,8234,8234,8234,8234,8234,8234,8234,8234,8234,8234,8234,8234,8234,8234,8234,8234,8234,8234,8234,8234,8234,8234,8234,8234,8234,
8134,8134,8134,8134,8134,8134,8134,8134,8134,8134,8134,8134,8134,8134,8134,8134,8134,8134,8134,8134,8134,8134,8134,8134,8134,8134,8134,8134,8134,8134,8134,8134,8134,8134,8134,8134,8134,8134,8134,8134,8134,8134,8134,8134,8134,8134,8134,8134,8134,8134,8134,8134,8134,8134,8134,8134,8134,8134,8134,8134,8234,8234,8234,8234,8234,8234,8234,8234,8234,8234,8234,8234,8234,8234,8234,8234,8234,8234,8234,8234,8234,8234,8234,8234,8234,8234,8234,8234,8234,8234,8234,8234,8234,8234,8234,8234,8234,8234,8234,8234,8234,8234,8234,8234,8234,8234,8234,8234,8234,8234,8234,8234,8234,8234,8234,8234,8234,8234,8234,8234,8234,8234,8234,8234,8234,8234,8234,8234,8234,8234,8234,8234,8234,8234,8234,8234,8234,8234,8234,8234,8234,8234,8234,8234,8234,8234,8234,8234,8234,8234,8234,8234,8234,8234,8234,8234,
8134,8134,8134,8134,8134,8134,8134,8134,8134,8134,8134,8134,8134,8134,8134,8134,8134,8134,8134,8134,8134,8134,8134,8134,8134,8134,8134,8134,8134,8134,8134,8134,8134,8134,8134,8134,8134,8134,8134,8134,8134,8134,8134,8134,8134,8134,8134,8134,8134,8134,8134,8134,8134,8134,8134,8134,8134,8134,8134,8134,8134,8234,8234,8234,8234,8234,8234,8234,8234,8234,8234,8234,8234,8234,8234,8234,8234,8234,8234,8234,8234,8234,8234,8234,8234,8234,8234,8234,8234,8234,8234,8234,8234,8234,8234,8234,8234,8234,8234,8234,8234,8234,8234,8234,8234,8234,8234,8234,8234,8234,8234,8234,8234,8234,8234,8234,8234,8234,8234,8234,8234,8234,8234,8234,8234,8234,8234,8234,8234,8234,8234,8234,8234,8234,8234,8234,8234,8234,8234,8234,8234,8234,8234,8234,8234,8234,8234,8234,8234,8234,8234,8234,8234,8234,8234,8234,
8134,8134,8134,8134,8134,8134,8134,8134,8134,8134,8134,8134,8134,8134,8134,8134,8134,8134,8134,8134,8134,8134,8134,8134,8134,8134,8134,8134,8134,8134,8134,8134,8134,8134,8134,8134,8134,8134,8134,8134,8134,8134,8134,8134,8134,8134,8134,8134,8134,8134,8134,8134,8134,8134,8134,8134,8134,8134,8134,8134,8134,8234,8234,8234,8234,8234,8234,8234,8234,8234,8234,8234,8234,8234,8234,8234,8234,8234,8234,8234,8234,8234,8234,8234,8234,8234,8234,8234,8234,8234,8234,8234,8234,8234,8234,8234,8234,8234,8234,8234,8234,8234,8234,8234,8234,8234,8234,8234,8234,8234,8234,8234,8234,8234,8234,8234,8234,8234,8234,8234,8234,8234,8234,8234,8234,8234,8234,8234,8234,8234,8234,8234,8234,8234,8234,8234,8234,8234,8234,8234,8234,8234,8234,8234,8234,8234,8234,8234,8234,8234,8234,8234,8234,8234,8234,8234,
8134,8134,8134,8134,8134,8134,8134,8134,8134,8134,8134,8134,8134,8134,8134,8134,8134,8134,8134,8134,8134,8134,8134,8134,8134,8134,8134,8134,8134,8134,8134,8134,8134,8134,8134,8134,8134,8134,8134,8134,8134,8134,8134,8134,8134,8134,8134,8134,8134,8134,8134,8134,8134,8134,8134,8134,8134,8134,8134,8134,8134,8234,8234,8234,8234,8234,8234,8234,8234,8234,8234,8234,8234,8234,8234,8234,8234,8234,8234,8234,8234,8234,8234,8234,8234,8234,8234,8234,8234,8234,8234,8234,8234,8234,8234,8234,8234,8234,8234,8234,8234,8234,8234,8234,8234,8234,8234,8234,8234,8234,8234,8234,8234,8234,8234,8234,8234,8234,8234,8234,8234,8234,8234,8234,8234,8234,8234,8234,8234,8234,8234,8234,8234,8234,8234,8234,8234,8234,8234,8234,8234,8234,8234,8234,8234,8234,8234,8234,8234,8234,8234,8234,8234,8234,8234,8234,
8134,8134,8134,8134,8134,8134,8134,8134,8134,8134,8134,8134,8134,8134,8134,8134,8134,8134,8134,8134,8134,8134,8134,8134,8134,8134,8134,8134,8134,8134,8134,8134,8134,8134,8134,8134,8134,8134,8134,8134,8134,8134,8134,8134,8134,8134,8134,8134,8134,8134,8134,8134,8134,8134,8134,8134,8134,8134,8134,8134,8134,8234,8234,8234,8234,8234,8234,8234,8234,8234,8234,8234,8234,8234,8234,8234,8234,8234,8234,8234,8234,8234,8234,8234,8234,8234,8234,8234,8234,8234,8234,8234,8234,8234,8234,8234,8234,8234,8234,8234,8234,8234,8234,8234,8234,8234,8234,8234,8234,8234,8234,8234,8234,8234,8234,8234,8234,8234,8234,8234,8234,8234,8234,8234,8234,8234,8234,8234,8234,8234,8234,8234,8234,8234,8234,8234,8234,8234,8234,8234,8234,8234,8234,8234,8234,8234,8234,8234,8234,8234,8234,8234,8234,8234,8234,8234,
8134,8134,8134,8134,8134,8134,8134,8134,8134,8134,8134,8134,8134,8134,8134,8134,8134,8134,8134,8134,8134,8134,8134,8134,8134,8134,8134,8134,8134,8134,8134,8134,8134,8134,8134,8134,8134,8134,8134,8134,8134,8134,8134,8134,8134,8134,8134,8134,8134,8134,8134,8134,8134,8134,8134,8134,8134,8134,8134,8134,8134,8234,8234,8234,8234,8234,8234,8234,8234,8234,8234,8234,8234,8234,8234,8234,8234,8234,8234,8234,8234,8234,8234,8234,8234,8234,8234,8234,8234,8234,8234,8234,8234,8234,8234,8234,8234,8234,8234,8234,8234,8234,8234,8234,8234,8234,8234,8234,8234,8234,8234,8234,8234,8234,8234,8234,8234,8234,8234,8234,8234,8234,8234,8234,8234,8234,8234,8234,8234,8234,8234,8234,8234,8234,8234,8234,8234,8234,8234,8234,8234,8234,8234,8234,8234,8234,8234,8234,8234,8234,8234,8234,8234,8234,8234,8234,
8134,8134,8134,8134,8134,8134,8134,8134,8134,8134,8134,8134,8134,8134,8134,8134,8134,8134,8134,8134,8134,8134,8134,8134,8134,8134,8134,8134,8134,8134,8134,8134,8134,8134,8134,8134,8134,8134,8134,8134,8134,8134,8134,8134,8134,8134,8134,8134,8134,8134,8134,8134,8134,8134,8134,8134,8134,8134,8134,8134,8234,8234,8234,8234,8234,8234,8234,8234,8234,8234,8234,8234,8234,8234,8234,8234,8234,8234,8234,8234,8234,8234,8234,8234,8234,8234,8234,8234,8234,8234,8234,8234,8234,8234,8234,8234,8234,8234,8234,8234,8234,8234,8234,8234,8234,8234,8234,8234,8234,8234,8234,8234,8234,8234,8234,8234,8234,8234,8234,8234,8234,8234,8234,8234,8234,8234,8234,8234,8234,8234,8234,8234,8234,8234,8234,8234,8234,8234,8234,8234,8234,8234,8234,8234,8234,8234,8234,8234,8234,8234,8234,8234,8234,8234,8234,8234,
8134,8134,8134,8134,8134,8134,8134,8134,8134,8134,8134,8134,8134,8134,8134,8134,8134,8134,8134,8134,8134,8134,8134,8134,8134,8134,8134,8134,8134,8134,8134,8134,8134,8134,8134,8134,8134,8134,8134,8134,8134,8134,8134,8134,8134,8134,8134,8134,8134,8134,8134,8134,8134,8134,8134,8134,8134,8134,8134,8134,8234,8234,8234,8234,8234,8234,8234,8234,8234,8234,8234,8234,8234,8234,8234,8234,8234,8234,8234,8234,8234,8234,8234,8234,8234,8234,8234,8234,8234,8234,8234,8234,8234,8234,8234,8234,8234,8234,8234,8234,8234,8234,8234,8234,8234,8234,8234,8234,8234,8234,8234,8234,8234,8234,8234,8234,8234,8234,8234,8234,8234,8234,8234,8234,8234,8234,8234,8234,8234,8234,8234,8234,8234,8234,8234,8234,8234,8234,8234,8234,8234,8234,8234,8234,8234,8234,8234,8234,8234,8234,8234,8234,8234,8234,8234,8234
</data>
 </layer>
 <layer id="2" name="upper" width="156" height="156">
  <data encoding="csv">
0,0,0,0,0,0,0,0,0,0,0,0,0,0,0,0,0,0,0,0,0,0,0,0,0,0,0,0,8234,8234,8234,8234,8234,8234,8234,8234,8234,8234,8234,8234,8234,8234,8234,8234,8234,8234,8234,0,0,0,0,0,0,0,0,0,0,0,0,0,0,0,0,0,0,0,8234,8234,8234,8234,8234,8234,8234,8234,8234,0,0,0,0,0,0,0,8234,8234,8234,8234,8234,8234,8234,0,0,8234,8234,8234,8234,8234,8234,8234,8234,0,0,0,0,0,0,0,0,0,0,0,8234,8234,8234,8234,8234,8234,8234,8234,8234,8234,8234,0,0,0,0,0,0,0,0,0,0,0,0,0,0,0,0,0,0,0,0,0,0,0,0,0,0,0,0,0,0,0,0,0,0,0,
8234,8234,8234,8234,8234,8234,8234,8234,8234,8234,8234,8234,8234,8234,8234,8234,8234,8234,8234,8234,8234,8234,8234,8234,8234,8234,8234,8234,8234,8234,8234,8234,8234,8234,8234,8234,8234,8234,8234,8234,8234,8234,8234,8234,8234,8234,8234,8234,8234,8234,8234,8234,8234,8234,8234,8234,8234,8234,8234,8234,8234,8234,8234,8234,8234,8234,8234,8234,8234,8234,8234,8234,8234,8234,8234,8234,8234,8234,8234,8234,8234,8234,8234,8234,8234,8234,8234,8234,8234,8234,8234,8234,8234,8234,8234,8234,8234,0,0,8234,8234,0,0,8234,8234,8234,8234,8234,8234,8234,8234,8234,8234,8234,8234,8234,8234,8234,8234,8234,8234,0,0,8295,8234,8234,8234,8234,8234,8234,8284,8234,8234,0,0,0,8234,8234,8234,8234,8234,8234,8234,8234,8234,8234,8234,8234,8234,8234,8234,8234,8234,0,0,0,
8234,8234,8234,8234,8234,8234,8234,8234,8234,8234,8234,8234,8234,8234,8234,8234,8234,8234,8234,8234,8234,8234,8234,8234,8234,8234,8234,8234,8234,8234,8234,8234,8234,8234,8234,8234,8234,8234,8234,8234,8234,8234,8234,8234,8234,8234,8234,8234,8234,8234,8234,8234,8234,8234,8234,8234,8234,8234,8234,8234,8234,8234,8234,8234,8234,8234,8234,8234,8234,8234,8234,8234,8234,8234,8234,8234,8234,8234,8234,8234,8234,8234,8234,8234,8234,8234,8234,8234,8234,0,0,0,0,0,0,0,0,0,0,0,0,8234,8234,8234,8234,8234,8234,8234,8234,8234,8234,8234,8234,8234,8234,8234,8234,8234,8234,8234,8234,8234,8234,8234,8234,8234,8234,8234,8234,8234,8234,8234,8234,8234,8234,8263,8234,8234,8234,8234,8234,8262,8234,8234,8234,8234,8234,2147491910,8234,8234,8234,8234,8234,8234,8234,0,
8234,8234,8234,8234,8234,8234,8234,8234,8234,8234,8234,8234,8234,8234,8234,8234,8234,8234,8234,8234,8234,8234,8234,8234,8234,8234,8234,8234,8234,8234,8234,8234,8234,8234,8234,8234,8234,8234,8234,8234,8234,8234,8234,8234,8234,8234,8234,8234,8234,8234,8234,8234,8234,8234,8234,8234,8234,8234,8234,8234,8234,8234,8234,8234,8234,8234,8234,8234,8234,8234,8234,8234,8234,8234,8234,8234,8234,8234,8234,8234,8234,8234,8234,8234,8234,8234,8234,0,0,0,0,8125,8126,8126,8126,8126,8126,8126,8127,0,0,0,0,8234,8234,8234,8234,8234,8234,8234,8234,8234,8234,8234,8234,8234,8234,8234,8234,8234,8234,8234,8234,8234,8234,8234,8234,8234,8234,8234,8234,8234,8234,8234,8234,8234,8234,8234,8234,8234,8234,8234,8234,8234,8234,8234,8234,8234,8234,8234,8234,8234,8234,8234,8234,0,
8234,8234,8234,8234,8234,8234,8234,8234,8234,8234,8234,8234,8234,8234,8234,8234,8234,8234,8234,8234,8234,8234,8234,8234,8234,8234,8234,8234,8234,8234,8234,8234,8234,8234,8234,8234,8234,8234,8234,8234,8234,8234,8234,8234,8234,8234,8234,8234,8234,8234,8234,8234,8234,8234,8234,8234,8234,8234,8234,8234,8234,8234,8234,8234,8234,8234,8234,8234,8234,8234,8234,8234,8234,8234,8234,8234,8234,8234,8234,8234,8234,8234,8234,8234,8234,8234,0,8125,8126,8126,8126,0,0,8134,8134,8134,8134,8134,0,8126,8127,0,0,8234,8234,8234,8234,8234,8234,8234,8234,8234,8234,8234,8234,8234,8234,8234,8234,8234,2147491932,8234,8234,8234,8234,8234,8234,8234,8234,8234,8295,8234,8234,8234,8234,8234,8234,8234,8234,8234,8234,8234,8234,8234,8234,8234,8234,8234,8234,8234,8234,8234,8234,8234,8234,0,
8234,8234,8234,8234,8234,8234,8234,8234,8234,8234,8234,8234,8234,8234,8234,8234,8234,8234,8234,8234,2147491882,8234,8234,8234,8234,0,0,8234,8234,8234,8234,8234,8234,8234,8234,8234,8234,8234,8234,8234,8234,8234,8234,8234,8234,8234,8234,8234,8234,8234,8234,8234,8234,8234,8234,8234,8234,8234,8234,8234,8234,8234,8234,8234,8234,8234,8234,8234,8234,8234,8234,8234,8234,8234,8234,8234,8234,8234,2147491882,8234,8234,8234,8234,8234,8234,0,8125,0,8134,8134,8134,8134,8134,8134,8134,8134,8134,8134,0,0,0,8127,0,0,8234,8234,8234,8234,8234,8234,8234,8234,8234,8234,8234,8234,8234,8234,8234,8234,8234,8234,8234,2147491943,8234,8234,8234,8284,8234,8234,8234,8234,8234,8234,8234,8234,8234,8234,8234,8234,8234,2147491910,8234,8234,8262,8234,8224,8246,8225,8234,8234,8234,8234,8234,8234,0,
8234,8234,8234,8234,8234,8234,8234,8234,8234,8234,8234,8234,8234,8234,8234,8234,8234,8234,8234,8234,8234,8234,8234,8234,8234,8234,8234,8234,8234,8234,8234,8234,8234,8234,8234,8234,8234,8234,8234,8234,8234,8234,8234,8234,8234,8234,8234,8234,8234,8234,8234,8234,8234,8234,8234,8234,8234,8234,8234,8234,8234,8234,8234,8234,8234,8234,8234,8234,8234,8234,8234,8234,8234,0,8234,8234,8234,8234,0,8234,8234,8234,8234,8234,8234,8137,8133,0,8134,8134,8134,8134,8134,8134,8134,8134,8134,8134,8134,8134,0,0,8127,0,8234,8234,8234,8234,8234,8234,8234,8234,8234,8234,8234,8234,8234,2147491943,8234,8224,8246,8246,8225,8234,8234,8234,8224,8246,8246,8246,8225,8234,8234,8234,2147491943,8234,8234,8263,8234,8234,8234,8234,8234,8234,8234,8234,8235,8248,8245,8225,8234,8234,8234,8234,8234,0,
8234,8234,8234,8234,8234,8234,8234,8234,8234,8234,8234,8234,8234,8234,8234,8234,8234,8234,8234,8234,8234,8234,8234,8234,8234,8234,8234,8234,8234,8234,8234,8234,8234,8234,8234,8234,8234,8234,8234,8234,8234,8234,8234,8234,8234,8234,8234,8234,8234,8234,8234,8234,8234,8234,8234,8234,8234,8234,8234,8234,8234,8234,8234,8234,8234,8234,0,0,0,0,0,0,0,0,0,0,0,0,0,0,0,0,0,0,0,0,8133,0,8134,8134,8134,8134,8134,8134,8134,8134,8134,8134,8134,8134,8134,8134,8135,0,8234,8234,8234,8234,8234,8234,8234,8234,8234,8234,8234,8234,8234,8234,8224,8247,8226,8226,8245,8225,8234,8234,8235,8226,8226,8248,8245,8246,8225,8234,8234,8234,8224,8246,8246,8246,8246,8246,8246,8246,8246,8246,8247,8226,8226,8233,8234,8234,8234,8234,8234,0,
8234,8234,8234,8234,8234,8234,8234,8234,8234,8234,8234,8234,8234,8234,8234,8234,8234,8234,8234,8234,8234,8234,8234,8234,8234,8234,8234,8234,8234,8234,8234,8234,8234,8234,8234,8234,8234,8234,8234,8234,8234,8234,8234,8234,8234,8234,8234,8234,8234,8234,8234,8234,8234,8234,8234,2147491882,8234,8234,8234,8234,8234,8234,8234,8234,0,0,0,0,0,8101,8102,8102,8102,8102,8102,8102,8102,8102,8102,8102,8103,0,0,0,0,8125,0,0,8134,8134,8134,8134,8134,8134,8134,8134,8134,8134,8134,8134,8134,8134,0,8127,0,8234,8234,8234,8234,8234,8234,8234,8234,8234,8234,8234,8224,8246,8247,8226,8248,8226,8226,8233,8234,8234,8235,8241,8226,8226,8226,8226,8245,8246,8246,8246,8247,8226,8226,8226,8226,8226,8226,8226,8226,8226,8248,8226,8226,8245,8225,8234,8234,8234,8234,0,
8234,8234,8234,8234,8234,8234,8234,8234,8234,8234,8234,8234,8234,8234,8234,8234,8234,8234,8234,8234,8234,8234,8234,8234,8234,8234,8234,8234,8234,8234,8234,8234,8234,2147491882,2147491882,2147491882,2147491882,2147491882,2147491882,8234,8234,8234,8234,8234,8234,8234,8234,8234,8234,8234,8234,0,0,0,0,0,2147491882,2147491882,2147491882,0,0,0,0,0,0,0,0,8101,8102,8110,8110,8110,0,0,8110,8110,8110,8110,8110,0,8110,8102,8102,8102,8102,8103,0,0,8134,8134,8134,8134,8134,8134,8134,8134,8134,8134,8134,8134,8134,8134,8134,0,8127,0,0,8234,8234,8234,8234,8234,8234,8234,8224,8246,8247,8226,8226,8226,8226,8238,8239,8233,8234,8234,8235,8226,8226,8226,8229,8226,8226,8226,8226,8226,8226,8226,8226,8226,8229,8226,8226,8227,8228,8226,8226,8226,8226,8226,8233,8234,8234,8234,8234,8234,
8234,8234,8234,8234,8234,8234,8234,8234,8234,8234,8234,8234,8234,8234,8234,8234,8234,8234,8234,8234,8234,8234,8234,8234,8234,8234,8234,8234,8234,8234,8234,8234,8234,0,0,0,0,0,0,0,8234,8234,8234,8234,8234,8234,8234,8234,8234,8234,0,0,0,0,8101,8102,8102,8102,8102,8102,8102,8102,8102,8102,8102,8102,8102,8110,0,0,8110,8110,0,8110,8110,8110,8110,8110,8110,8110,8110,8110,0,0,0,8110,8102,8103,0,0,8134,8134,8134,8134,8134,8134,8134,8134,8134,8134,8134,8134,8134,8134,0,8127,0,0,0,8234,8234,8234,8234,8234,8235,8226,8229,8226,8226,8226,8226,8226,8226,8233,8234,8234,8235,8226,8229,8226,8226,8226,8226,8240,8226,8226,8226,8248,8226,8226,8226,8226,8226,8226,8226,8226,8226,8240,8226,8226,8245,8225,8234,8234,8234,8234,
8234,8234,8234,8234,8234,8234,8234,8234,8234,8234,8234,8234,8234,8234,8234,8234,8234,8234,8234,8234,8234,8234,8234,8234,8234,8234,8234,8234,8234,8234,8234,8234,0,8125,8126,8126,8126,8126,8126,8127,0,0,8234,8234,8234,8234,8234,8234,8234,8234,0,0,8101,8102,8110,0,0,8110,8110,8110,8110,8110,8110,8110,8110,8110,8110,8110,8110,8110,8110,8110,8110,8110,8110,8110,8110,8110,8110,8110,8110,8110,8110,8110,0,0,0,8110,8103,0,8134,8134,8134,8134,8134,8134,8134,8134,8134,8134,8134,8134,8134,8134,0,0,8127,0,0,8234,8234,8234,8234,8234,8235,8226,8226,8226,2147491887,2147491886,8226,2147491877,8226,8233,8234,8234,8235,8226,8226,8226,8238,8239,8226,8226,8226,2147491877,8226,8226,8226,8226,8226,8226,8221,8222,8222,8222,8223,8226,8226,8229,8226,8233,8234,8234,8234,8234,
8234,8234,8234,8234,8234,8234,8234,8234,8234,8234,8234,8234,8234,8234,8234,8234,8234,8234,8234,8234,8234,8234,8234,8234,8234,8234,8234,8234,8234,8234,8234,0,8125,0,8134,8134,8134,8134,8134,0,8127,0,0,8234,8234,8234,8234,8234,8234,0,8101,8102,8110,0,0,0,8110,8110,8110,8110,8110,8110,8110,8110,8110,8110,8110,8110,8110,8110,8110,8110,8110,8110,8110,8110,8110,8110,8110,8110,8110,8110,8110,8110,0,0,0,0,8111,0,8134,8134,8134,8134,8134,8134,8134,8134,8134,8134,8134,8134,8134,8134,0,0,0,8127,0,8234,8234,8234,8234,8234,8236,8222,8223,8226,8226,8226,8226,8226,8226,8233,0,8234,8235,8241,8226,8226,8226,8226,8226,8226,8226,8226,8226,8241,8226,8221,8222,8222,8237,8234,8234,8234,8236,8222,8222,8222,8222,8237,8234,8234,8234,8234,
8234,8234,8234,8234,8234,8234,8234,8234,8234,8234,8234,8234,8234,8234,8234,8234,8234,8234,8234,8234,8234,8234,8234,8234,8234,8234,8234,8234,8234,0,0,8125,0,0,8134,8134,8134,8134,8134,0,0,8127,0,0,0,0,0,0,8101,8102,8110,0,0,0,0,8110,8110,8110,8110,8110,8110,8110,8110,8110,8110,8110,8110,8110,8110,8110,8110,8110,8110,8110,8110,8110,8110,8110,8110,8110,8110,8110,8110,8110,8110,8110,8110,8110,8110,8103,0,8134,8134,8134,8134,8134,8134,8134,8134,8134,8134,8134,8134,8134,8134,8134,0,0,8127,8234,8234,8234,8234,8234,8234,8234,8236,8222,8222,8222,8222,8222,8222,8234,8234,8234,8235,8226,8226,8226,8221,8222,8222,8223,8226,8226,8226,8226,8221,8237,8234,8234,8234,8234,8234,8234,8234,8234,8234,0,0,0,8234,8234,8234,8234,
0,0,8234,8234,8234,8234,8234,8234,8234,8234,8234,8234,8234,8234,8234,8234,8234,8234,8234,8234,8234,8234,8234,8234,8234,8234,8234,8234,0,0,8125,0,8134,8134,8134,8134,8134,8134,8134,0,0,0,8127,0,0,0,8101,8102,8110,8110,8110,8110,8110,8110,0,8110,8110,8110,8110,8110,8110,8110,8110,8110,8110,8110,8110,8110,8110,8110,8110,8110,8110,8110,8110,8110,8110,8110,8110,8110,8110,8110,8110,8110,8110,8110,8110,8110,0,8111,0,8134,8134,8134,8134,8134,8134,0,8134,8134,8134,8134,8134,8134,8134,8134,8134,8134,8135,8234,8234,8234,8234,8234,8234,8234,8234,8234,8234,8234,8295,0,8234,8234,8234,8234,8235,8226,8229,8221,8237,8234,8234,8236,8222,8223,8226,8221,8237,8234,8234,8234,8234,8234,8234,8234,8234,8234,8234,0,0,0,8234,8234,8234,8234,
0,0,8234,8234,8234,8234,8234,8234,8234,8234,8234,8234,8234,8234,8234,8234,8234,8234,8234,8234,8234,8234,8234,8234,8234,8234,8234,8234,0,8125,0,0,8134,8134,8134,8134,8134,8134,8134,8134,8134,8134,8135,0,0,8101,8110,0,0,8110,8110,8110,8110,0,8110,8110,8110,8110,8110,8110,8110,8110,8110,8110,8110,8110,8110,8110,8110,8110,8110,8110,8110,8110,8110,8110,8110,8110,8110,8110,8110,8110,8110,8110,8110,8110,8110,8110,0,8111,0,8134,8134,8134,8134,8134,0,8134,8134,8134,8134,8134,8134,8134,8134,8134,8134,8134,8135,8234,8234,8234,8234,8234,8234,8234,8234,8234,8234,8234,8234,8234,8234,8234,8234,8234,8236,8222,8222,8237,8234,8234,8234,8234,8234,8236,8222,8237,8234,8234,8234,8234,8234,8234,8234,8295,8234,0,0,0,8224,8246,8246,8246,8246,8246,
0,0,8234,8234,8234,8234,8234,8234,8234,8234,8234,8234,8234,8234,8234,8234,8234,8234,8234,8234,8234,8234,8234,8234,8234,8234,8234,0,0,8133,0,8134,8134,8134,8134,8134,8134,8134,8134,8134,8134,8134,0,8127,8101,8110,0,0,0,8110,8110,8110,8110,0,8110,8110,8110,8110,8110,8110,8110,8110,8110,8110,8110,8110,8110,8110,8110,8110,8110,8110,8110,8110,8110,8110,8110,8110,8110,8110,8110,8110,8110,8110,8110,8110,8110,8110,0,8111,0,8134,8134,8134,8134,0,8134,8134,8134,8134,8134,8134,8134,8134,8134,8134,8134,8134,8135,0,0,0,8234,8234,8234,8234,8234,2147491911,8234,8234,8234,8234,8234,8234,8263,8234,8234,8234,8234,8263,8234,8234,8234,8234,8234,8295,8234,8234,8234,8234,8234,8234,8234,0,0,0,0,8224,8246,8246,8247,0,0,0,0,0,
0,0,8234,8234,8234,8234,8234,8234,8234,8234,8234,8234,8234,8234,8234,8234,8234,8234,8234,8234,8234,8234,8234,8234,8234,8234,2147491882,2147491882,0,8133,8134,8134,8134,8134,8134,8134,8134,8134,8134,8134,8134,8134,0,8101,8110,0,0,8110,8110,8110,8110,0,0,0,8110,8110,8110,8110,8110,8110,8110,8110,8110,8110,8110,8110,8110,8110,8110,8110,8110,8110,8110,8110,8110,8110,8110,8110,8110,8110,8110,8110,8110,8110,8110,8110,8110,0,0,8111,0,8134,8134,8134,8134,8134,8134,8134,8134,8134,8134,8134,8134,8134,8134,8134,8134,8134,0,8127,0,0,8234,8234,8234,8234,8234,8234,8234,8234,8234,8234,8234,8234,8234,8234,8234,8234,8234,8234,8234,8234,8234,8234,8234,8234,8234,8234,8234,2147491910,0,0,0,0,8224,8246,8246,8247,0,0,0,0,0,8248,0,0,
0,0,8234,8234,8234,8234,8234,8234,8234,8234,8234,8234,8234,8234,8234,8234,8234,8234,8234,8234,8234,8234,8234,8234,8234,8234,8234,8234,0,8133,8134,8134,8134,8134,8134,8134,8134,8134,8134,8134,8134,8134,0,8109,8110,0,0,8110,8110,8110,8110,0,0,8110,8110,8110,8110,8110,8110,8110,8110,8110,8110,8110,8110,8110,8110,8110,8110,8110,8110,8110,8110,8110,8110,8110,8110,8110,8110,8110,8110,8110,8110,8110,8110,8110,8110,0,0,8111,0,8134,8134,8134,8134,8134,8134,8134,8134,8134,8134,8134,0,8134,8134,8134,8134,8134,8134,8135,0,0,0,8234,8234,8234,8234,8234,8234,8234,8234,8234,8234,8234,8234,8234,8234,8234,8234,8234,8234,8234,8234,8234,8234,8234,0,0,0,0,8224,8246,8246,8246,8247,0,0,0,0,8248,8248,0,0,0,0,0,
0,8234,8234,8234,8234,8234,8234,8234,8234,8234,8234,8234,8234,8234,8234,8234,8234,8234,8234,8234,8234,8234,8234,8234,8234,8234,8234,8234,0,8133,8134,8134,8134,8134,8134,8134,8134,8134,8134,8134,8134,8134,0,8109,8110,0,8110,8110,0,8110,8110,0,8110,8110,8110,8110,8110,8110,8110,8110,8110,8110,8110,8110,8110,8110,8110,8110,8110,8110,8110,8110,8110,8110,8110,8110,8110,8110,8110,8110,8110,8110,8110,8110,8110,8110,8110,0,0,8111,0,8134,8134,8134,8134,8134,8134,8134,8134,8134,8134,0,8134,8134,8134,8134,8134,8134,8134,8134,8127,0,0,8234,8234,8234,8234,8234,8234,8234,8234,8234,8234,8234,8234,8234,8234,8234,8234,8234,8234,8234,8234,8234,8234,8234,8234,0,8224,8246,8247,0,0,0,0,0,8248,8248,0,0,0,0,0,0,0,0,
8234,8234,8234,8234,8234,8234,8234,8234,8234,8234,8234,8234,8234,8234,8234,8234,8234,8234,8234,8234,8234,8234,8234,8234,8234,8234,8234,8234,0,8133,8134,8134,8134,8134,8134,8134,8134,8134,8134,8134,8134,8134,0,8109,8110,0,8110,8110,8110,8110,0,8110,0,8110,0,8110,8110,8110,8110,8110,8110,8110,8110,8110,8110,8110,8110,8110,8110,8110,8110,8110,8110,8110,8110,8110,8110,8110,8110,8110,8110,8110,8110,8110,8110,8110,0,0,0,8111,0,8134,8134,8134,8134,8134,8134,8134,8134,8134,8134,0,8134,8134,8134,8134,8134,8134,8134,0,8135,0,8234,8234,8234,8234,8234,8234,8234,8234,8234,8234,8234,8234,8234,8234,8234,8234,8234,8234,8234,8234,8234,8234,8234,8234,8234,8224,8247,0,0,0,0,0,0,0,0,0,0,0,0,0,0,0,0,0,
8234,8234,8234,8234,8234,8234,8234,8234,8234,8234,8234,8234,8234,8234,8234,8234,8234,8234,8234,8234,0,8234,8234,8234,8234,8234,8234,8234,0,8133,8134,8134,8134,8134,8134,8134,8134,8134,8134,8134,8134,8134,0,8117,8110,0,0,8110,8110,8110,0,8110,0,8110,0,8110,8110,8110,8110,8110,8110,8110,8110,8110,8110,8110,8110,8110,8110,8110,8110,8110,8110,8110,8110,8110,8110,8110,8110,8110,8110,8110,8110,8110,8110,8110,0,0,8110,8119,0,8134,8134,8134,8134,8134,8134,8134,8134,8134,8134,8134,8134,8134,8134,8134,8134,8134,8134,0,8135,0,8234,8234,8234,8234,8234,8234,8234,8234,8234,8234,8234,8234,8234,8234,8234,8234,8234,8234,8234,8234,8234,8234,8234,8234,8234,8235,0,0,0,8248,0,0,0,0,0,0,0,0,0,0,0,0,0,0,
8234,8234,8234,8234,8234,8234,8234,8234,8234,8234,8234,8234,8234,8234,8234,8234,8234,8234,8234,2147491882,2147491882,8234,8234,8234,8234,8234,8234,8234,0,8141,0,8134,0,8134,8134,8134,8134,8134,8134,8134,8134,8134,0,0,8117,8110,0,8110,0,8110,0,8110,8110,8110,0,8110,8110,8110,8110,8110,8110,8110,8110,8110,8110,8110,8110,8110,8110,8110,8110,0,8110,8110,8110,8110,8110,8110,8110,8110,8110,8110,8110,8110,8110,0,0,8110,8119,0,0,8134,8134,8134,8134,8134,8134,8134,8134,0,8134,8134,8134,8134,8134,8134,8134,8134,8134,0,8135,0,8234,8234,8234,8234,8234,8234,8234,8234,8234,8234,8234,8234,8234,8234,8234,8234,8234,8234,8234,8234,8234,8234,8234,8234,8234,8235,0,0,8248,8248,0,0,0,0,0,0,0,0,0,0,0,0,0,0,
8234,8234,8234,8234,8234,8234,8234,8234,8234,8234,8234,8234,8234,8234,8234,0,8234,0,0,8234,8234,8234,8234,8234,8234,8234,8234,0,0,0,8133,0,8134,8134,8134,8134,8134,8134,8134,8134,8134,8134,8134,8134,0,8109,0,0,0,0,0,8110,8110,8110,0,8110,8110,8110,8110,8110,0,8110,8110,8110,8110,8110,8110,8110,8110,8110,8110,0,8110,8110,8110,8110,8110,8110,8110,8110,8110,8110,8110,8110,0,0,8110,8119,0,0,8134,8134,8134,8134,8134,8134,8134,8134,8134,8134,8134,8134,8134,8134,8134,8134,8134,8134,8134,0,8135,0,8234,8234,8234,8234,8234,8234,8234,8234,8234,8234,8234,8234,8234,8234,8234,8234,8234,8234,8234,8234,8234,8234,8234,0,8224,8247,0,0,8248,0,2147491876,0,0,0,0,0,0,0,0,0,0,0,0,0,
8234,8234,8234,8234,8234,8234,8234,8234,8234,8234,8234,8234,8234,0,8234,8234,8234,8234,8234,8234,8234,8234,8234,8234,8234,8234,0,0,0,0,8133,0,0,8134,8134,8134,0,8134,8134,8134,8134,8134,8134,8134,0,8117,8118,8110,0,0,0,8110,0,0,0,8110,8110,8110,8110,8110,0,8110,8110,8110,8110,8110,8110,8110,8110,8110,8110,0,8110,8110,8110,8110,8110,8110,8110,8110,8110,8110,8110,0,8110,8118,8119,0,0,8134,8134,8134,8134,8134,8134,8134,8134,8134,8134,8134,8134,8134,8134,8134,8134,8134,8134,8134,8134,0,8135,0,8234,8234,8234,8234,8234,8234,8234,8234,8234,8234,8234,8234,8234,8234,8234,8234,8234,8234,8234,8234,0,2147491882,0,0,8235,0,0,0,0,0,0,0,0,0,0,0,0,0,0,0,0,0,0,0,
8234,8234,8234,8234,8234,8234,8234,8234,8234,8234,0,8234,8234,8234,8234,8234,8234,8234,8234,8234,8234,8234,8234,8234,8234,8234,0,0,0,0,8141,0,0,0,8134,8134,8134,8134,8134,8134,8134,8134,8134,8134,8134,0,0,8109,0,0,0,0,0,8110,8110,0,8110,8110,8110,8110,8110,8110,8110,8110,8110,8110,8110,8110,8110,8110,8110,8110,8110,8110,8110,8110,8110,8110,8110,8110,8110,8110,8110,8110,8119,0,0,0,8134,8134,8134,8134,8134,8134,8134,8134,8134,8134,8134,8134,8134,8134,8134,8134,8134,8134,8134,8134,8134,0,8135,0,0,0,2147491882,8234,8234,8234,8234,8234,8234,8234,8234,8234,8234,8234,8234,8234,8234,8234,8234,8234,8234,8234,0,8224,8247,0,0,0,0,0,0,0,0,0,0,0,2147491888,0,0,0,0,0,0,0,
0,2147491882,0,8234,8234,8234,8234,8234,8234,8234,8234,8234,8234,8234,8234,8234,8234,8234,8234,8234,8234,8234,8234,8234,8234,8234,0,0,0,0,0,8133,0,0,8134,8134,8134,8134,8134,8134,8134,8134,8134,8134,8134,8134,0,8117,8110,8110,0,0,0,8110,8110,8110,8110,8110,8110,8110,8110,8110,8110,8110,8110,8110,8110,8110,8110,8110,8110,8110,8110,8110,8110,8110,0,0,0,0,0,0,8110,8119,0,0,0,8134,8134,8134,8134,8134,8134,8134,8134,8134,8134,8134,8134,8134,8134,8134,8134,8134,8134,8134,8134,8134,8134,8134,8143,0,0,0,2147491882,8234,8234,8234,8234,8234,8234,8234,8234,8234,8234,8234,8234,8234,8234,8234,8234,8234,8234,8234,0,8235,0,0,0,0,0,0,0,0,0,0,0,0,0,0,0,0,0,0,0,0,
0,2147491882,8234,8234,8234,8234,8234,8234,8234,8234,8234,8234,8234,8234,8234,8234,8234,8234,8234,8234,8234,8234,8234,8234,8234,8234,8234,0,0,0,0,8133,0,0,8134,8134,8134,8134,8134,8134,8134,8134,8134,8134,8134,8134,8134,0,8117,8110,8110,0,0,0,8110,8110,8110,8110,8110,8110,8110,8110,8110,8110,8110,8110,8110,8110,8110,8110,8110,8110,8110,8110,8110,8110,0,0,0,0,0,8110,8119,0,8134,8134,8134,8134,8134,8134,8134,8134,8134,8134,0,8134,8134,8134,8134,0,8134,8134,8134,8134,8134,8134,8134,8134,0,8143,0,0,8234,8234,8234,8234,8234,8234,8234,8234,8234,8234,8234,8234,8234,8234,8234,8234,8234,8234,8234,8234,8234,8234,8224,8247,0,8248,8248,0,0,0,0,0,0,0,0,0,0,0,0,0,2147491888,0,0,0,
0,8234,8234,8234,8234,8234,8234,8234,8234,8234,8234,8234,8234,8234,8234,8234,8234,8234,0,8234,8234,8234,8234,8234,8234,8234,8234,8234,8234,8234,0,8141,0,0,8134,8134,8134,8134,8134,8134,8134,8134,8134,8134,8134,8134,8134,0,0,8117,8110,8110,0,0,8110,8110,8110,8110,8110,8110,8110,8110,8110,8110,8110,8110,8110,8110,8110,8110,8110,8110,8110,8110,8110,8110,0,0,0,0,8110,8119,0,8134,8134,8134,8134,8134,8134,8134,8134,8134,8134,0,0,8134,8134,8134,8134,8134,8134,8134,8134,8134,8134,8134,8134,0,8143,0,8234,8234,8234,8234,8234,8234,8234,8234,8234,8234,8234,8234,8234,8234,8234,8234,8234,8234,8234,8234,8234,8234,8234,8234,8247,0,0,8248,0,0,0,0,0,0,8226,0,0,0,0,0,0,0,2147491889,0,0,0,
0,8234,8234,8234,8234,8234,8234,8234,8234,8234,8234,8234,8234,8234,8234,0,0,0,0,0,8234,8234,8234,8234,8234,8234,8234,8234,8234,8234,8234,0,8141,0,0,0,0,8134,8134,8134,8134,8134,8134,8134,8134,8134,8134,8134,0,0,8117,8110,8110,0,8110,8110,8110,8110,8110,8110,8110,8110,8110,8110,8110,8110,8110,8110,8110,8110,8110,8110,8110,8110,8110,8110,0,0,8110,8118,8119,0,8134,8134,8134,8134,8134,8134,8134,8134,8134,8134,8134,8134,8134,8134,8134,8134,8134,8134,8134,8134,8134,8134,8134,8134,8134,8143,0,8234,8234,8234,8234,8234,8234,8234,8234,8234,8234,8234,8234,8234,8234,8234,8234,8234,8234,8234,8234,8234,8234,8234,8224,8247,0,0,0,0,0,0,0,0,0,0,0,0,0,0,0,0,0,0,0,0,0,0,
0,8234,8234,8234,8234,8234,8234,8234,8234,8234,8234,8234,8234,0,0,0,8287,8288,8290,8288,8289,0,8234,8234,8234,8234,8234,8234,8234,8234,8234,0,0,8141,0,0,0,8134,8134,8134,8134,8134,8134,8134,8134,8134,8134,8134,8134,0,0,8117,8110,8110,8110,8110,8110,8110,8110,8110,8110,8110,8110,8110,8110,8110,8110,8110,8110,8110,8110,8110,8110,8110,8110,0,8110,8118,8119,0,0,0,8134,8134,8134,8134,8134,8134,8134,8134,8134,8134,8134,8134,8134,8134,8134,8134,8134,8134,8134,8134,8134,8134,8134,8134,8143,8234,8234,8234,8234,8234,8234,8234,8234,8234,8234,8234,2147491882,8234,8234,8234,8234,8234,8234,8234,8234,8234,8234,8234,2147491882,8224,8247,0,0,0,0,0,0,0,0,0,0,0,8238,8239,0,0,0,0,0,0,0,0,0,0,
0,8234,8234,8234,8234,8234,8234,8234,8234,8234,8234,0,0,8287,8288,8288,8310,0,0,0,8309,8289,0,8234,8234,8234,8234,8234,8234,8234,0,8234,8234,0,8141,0,0,8134,8134,8134,8134,8134,8134,8134,8134,8134,8134,8134,8134,0,0,0,8117,8110,8110,8110,8110,8110,8110,8110,8110,8110,8110,8110,8110,8110,8110,8110,8110,8110,8110,8110,0,0,0,8110,8119,0,0,0,0,0,8134,8134,8134,8134,8134,8134,8134,8134,8134,8134,8134,8134,8134,8134,8134,8134,8134,8134,8134,8134,8134,8134,8134,8143,0,8234,8234,8234,8234,8234,8234,8234,8234,8234,8234,8234,0,8234,8234,8234,8234,8234,8234,8234,8234,8234,8234,8234,0,8235,0,0,0,2147491887,2147491886,0,0,2147491889,0,0,0,0,0,0,0,0,0,0,0,0,0,0,0,0,
0,8234,8234,8234,8234,0,8234,8234,8234,8234,0,0,8287,8310,0,0,0,8300,8300,0,0,8301,0,8234,8234,8234,8234,8234,8234,8234,8234,8234,8234,8234,0,8141,0,8134,8134,8134,8134,8134,8134,8134,8134,8134,8134,8134,8134,8134,0,0,0,8117,8110,0,8110,8110,8110,8110,8110,8110,0,8110,8110,8110,8110,8110,8110,8110,8110,8110,0,0,8110,8119,0,0,0,8134,8134,8134,8134,8134,8134,8134,8134,8134,8134,8134,8134,8134,8134,8134,8134,8134,8134,8134,8134,8134,8134,8134,8134,8134,8143,0,8234,8234,8234,8234,8234,8234,8234,8234,8234,8234,8234,8234,0,8234,8234,8234,8234,8234,8234,8234,8234,8234,8234,0,8224,8247,0,0,0,0,0,0,0,2147491888,0,0,0,0,0,0,0,0,0,0,8228,0,0,0,0,0,
0,8234,8234,8234,8234,2147491882,2147491882,2147491882,0,0,0,8287,8310,8302,8302,8302,8302,8300,8300,8302,0,8301,0,0,0,0,0,0,8234,8234,8234,8234,8234,8234,0,0,8141,0,8134,8134,8134,8134,8134,8134,8134,8134,8134,8134,8134,8134,8134,8134,0,0,8109,0,8110,8110,8110,8110,8110,8110,8110,0,0,8110,8110,8110,8110,8110,8110,8110,0,8110,8119,8134,8134,8134,8134,8134,8134,8134,8134,8134,8134,8134,8134,8134,8134,8134,8134,8134,8134,8134,8134,8134,8134,8134,8134,8134,0,0,8134,8143,0,8234,8234,8234,8234,8234,8234,0,8234,8234,8234,8234,8234,8234,8234,8234,8234,8234,8234,8234,8234,8234,8234,8234,0,8224,8247,0,8248,0,0,0,2147491889,0,0,0,0,0,0,0,0,0,0,0,0,0,0,0,0,0,0,0,
0,2147491882,2147491882,0,2147491882,2147491882,0,0,0,8287,8290,8310,0,8300,8300,8302,8302,8302,8300,8302,0,8309,8288,8290,8288,8288,8290,8289,8234,8234,8234,8234,8234,8234,8234,0,0,8141,0,8134,8134,8134,0,8134,8134,8134,8134,8134,8134,8134,8134,8134,8134,0,8117,8110,8110,8110,8110,8110,8110,8110,8110,8110,8110,8110,8110,8110,8110,8110,8110,8110,8110,8119,8134,8134,8134,8134,8134,8134,8134,8134,8134,8134,8134,8134,8134,8134,8134,8134,8134,8134,8134,8134,8134,8134,8134,8134,8134,8134,8134,8134,8143,8234,8234,8234,0,8224,8246,8246,8246,8225,0,0,8234,8234,8234,8234,8234,8234,8234,8234,8234,8234,8234,8234,8234,8224,8246,8247,0,0,8248,0,0,0,0,0,0,0,0,0,0,0,0,0,0,0,0,0,0,0,0,0,0,0,
8234,8234,8234,8234,8287,8288,8290,8288,8288,8310,0,8300,8302,8302,8302,8285,8302,8302,8302,8302,8302,0,8285,0,0,8302,0,8301,8234,8234,8234,8234,8234,8234,8234,0,0,0,8141,0,0,0,0,0,8134,8134,8134,8134,8134,8134,8134,8134,8134,8134,8134,8109,8110,8110,8110,8110,8110,8110,8110,8110,8110,8110,8110,8110,8110,8110,8110,8110,8111,8134,8134,8134,8134,8134,8134,8134,8134,8134,8134,8134,8134,8134,8134,8134,8134,8134,8134,8134,8134,8134,8134,8134,8134,8134,8134,8134,8134,8135,0,0,8234,8224,8246,8247,0,0,0,8245,8246,8225,8234,8234,8234,8234,8234,8234,8234,8234,8234,8234,8234,0,8224,8247,0,0,0,0,0,0,0,8227,0,0,0,0,0,0,0,0,0,0,0,0,0,0,0,0,0,0,0,0,
8234,8234,8234,8234,8299,0,8300,8300,0,8297,8312,8312,8312,8312,8312,8312,8298,8300,8300,8300,8302,8297,8312,8312,8298,8300,8300,8301,8234,8234,8234,8234,8234,8234,8234,8234,0,0,0,8141,0,0,0,0,8134,8134,8134,8134,8134,8134,8134,8134,8134,8134,8134,8109,8110,8110,8110,8110,8110,8110,8110,8110,8110,8110,8110,8110,8110,8110,8110,8110,8111,8134,8134,8134,8134,8134,8134,8134,8134,8134,8134,8134,8134,8134,8134,8134,8134,8134,8134,8134,8134,8134,8134,8134,8134,8134,8134,8134,8134,8134,8127,0,0,8235,0,0,8248,8248,0,0,0,8245,8225,0,0,0,8234,8234,8234,8234,8234,0,0,8224,8247,0,0,0,0,0,0,0,0,0,0,0,0,0,0,0,0,0,2147491888,0,0,0,0,0,0,2147491888,0,0,0,0,
8234,8234,8234,8234,8299,0,8302,8285,8302,8301,8234,8234,8234,8234,8234,8234,8299,8302,8302,8302,8297,8313,8234,8234,8299,8302,2147492093,8301,2147491882,8234,8234,8234,8234,8234,8234,8234,8234,0,0,0,8141,0,0,0,8134,8134,8134,8134,8134,8134,8134,8134,8134,8134,8134,8117,8110,8110,8110,8110,8110,8110,8110,8110,8110,8110,8110,8110,8110,8110,8110,8110,8110,8103,8134,8134,8134,8134,8134,8134,8134,8134,8134,8134,8134,8134,8134,8134,8134,8134,8134,8134,8134,8134,8134,8134,8134,8134,8134,8134,8134,8134,8135,0,0,8235,0,0,0,0,2147491888,0,8248,8248,8245,8246,8225,0,0,0,8234,0,0,0,8224,8247,0,0,8248,0,0,0,0,0,0,0,0,0,0,0,0,0,0,0,0,0,0,0,0,0,0,0,0,0,0,0,
8234,8234,8234,8234,8299,0,8302,8302,8297,8313,8234,8234,8234,8234,8234,8234,8299,8302,8302,8302,8301,8234,8234,8234,8311,8298,0,8301,2147491882,0,2147491882,8234,8234,8234,8234,8234,8234,8234,0,0,0,8142,8142,0,0,8134,8134,8134,8134,8134,8134,8134,8134,8134,8134,8134,8117,8118,8118,8118,8118,8118,8110,8110,8110,8110,8110,8110,8110,8110,8110,8110,8110,8110,8102,8102,8102,8102,8103,8134,8134,8134,8134,8134,8134,8134,8134,8134,8134,8134,8134,8134,8134,8134,8134,8134,8134,8134,8134,8134,8134,8134,8135,0,0,8235,0,0,2147491889,0,0,0,0,0,0,0,8233,0,8234,8234,8234,8234,8234,8224,8247,0,0,0,8248,0,0,0,0,0,0,0,0,0,0,0,0,0,0,0,0,0,0,0,0,0,0,0,0,0,0,0,
8234,8234,8234,8234,8299,8300,8300,8302,8301,8234,8234,8234,8287,8288,8288,8288,8310,8302,8300,8300,8301,8234,8234,8234,8234,8299,0,8301,8234,8234,8234,8234,8234,8234,8234,8234,8234,8234,8234,8234,8234,0,0,8133,0,8134,8134,8134,8134,8134,8134,8134,8134,8134,8134,8134,8134,8134,8134,8134,8134,8134,8117,8118,8118,8110,8110,8110,8110,8110,8110,8110,8110,8110,8110,8110,8110,8110,8110,8102,8103,8134,8134,8134,8134,8134,8134,8134,8134,8134,8134,8134,8134,8134,8134,8134,8134,8134,8134,8134,8134,8134,8135,0,0,8235,0,0,0,0,0,0,0,2147491889,0,0,8233,0,8234,8234,8234,8234,8234,8235,0,0,0,8248,0,0,0,0,2147491874,0,0,0,0,2147491875,0,0,0,0,0,0,0,0,0,0,0,0,0,0,0,0,0,0,
8234,8234,8234,8234,8299,0,8302,2147492093,8309,8288,8288,8288,8310,8302,8302,8302,8300,8300,8302,8302,8309,8288,8289,8234,8234,8299,0,8301,8234,8234,8234,8234,8234,8234,8234,8234,8234,8234,8234,8234,8234,8234,0,8142,8142,0,8134,8134,8134,8134,8134,8134,8134,8134,8134,8134,8134,8134,8134,8134,8134,8134,8134,8134,8134,8117,8118,8118,8110,8110,8110,8110,8110,8110,8110,8110,8110,8110,8110,8110,8111,8134,8134,8134,8134,8134,8134,8134,8134,8134,8134,8134,8134,8134,8134,8134,8134,8134,8134,8134,8134,8134,8135,0,0,8235,0,0,0,0,0,0,0,0,0,0,8233,0,8234,8234,8234,8234,8234,8235,0,0,0,0,0,0,0,2147491874,2147491876,0,0,0,0,0,0,0,0,0,0,0,0,0,0,0,0,0,0,0,0,0,0,0,
8234,8234,8234,8234,8311,8312,8298,8300,0,2147492093,8302,0,0,8285,8302,8302,8302,8302,8302,8302,8302,8302,8309,8288,8288,8310,0,8301,8234,8234,8234,8234,8234,8234,8234,8234,8234,8234,8234,8234,8234,8234,8234,0,0,8142,8142,0,0,0,8134,8134,8134,8134,8134,8134,8134,8134,8134,8134,8134,8134,8134,8134,8134,8134,8134,8134,8117,8118,8118,8118,8110,8110,8110,8110,8110,8110,8110,8110,8111,8134,8134,8134,8134,8134,8134,8134,8134,8134,8134,8134,8134,8134,8134,8134,8134,8134,8134,8134,8134,8134,8135,0,0,8236,8223,0,0,0,0,0,0,0,0,8221,8237,8234,8234,8234,8234,8234,8234,8235,0,0,8248,0,0,0,0,0,0,0,0,0,0,0,0,0,0,0,0,0,0,0,0,0,0,0,0,0,0,0,0,0,
8234,8234,8234,8234,0,0,8311,8312,8314,8312,8312,8312,8314,8312,8298,0,8300,8300,8302,8302,8302,8300,8300,8302,8285,0,8297,8313,8234,8234,8234,8234,8234,8234,8234,8234,8234,8234,8234,8234,8234,8234,8234,8234,0,0,0,8142,8142,8142,8134,8134,8134,8134,8134,8134,8134,8134,8134,8134,8134,8134,8134,8134,8134,8134,8134,8134,8134,8134,8134,8134,8117,8110,8110,8110,8110,8110,8110,8110,8110,8103,8134,8134,8134,8134,8134,8134,8134,8134,8134,8134,8134,8134,8134,8134,8134,8134,8134,8134,8134,8134,8134,8127,0,0,8236,8223,0,8248,2147491874,2147491875,0,0,0,8233,0,8234,8234,8234,8234,0,8224,8247,0,0,8248,0,0,0,0,0,0,0,0,0,0,0,0,0,0,0,0,0,0,0,2147491876,0,0,0,0,0,0,0,0,0,
8234,8234,8234,8234,0,8234,8234,8234,0,0,0,0,0,0,8311,8312,8298,0,0,8285,8300,8300,8302,0,0,8297,8313,0,2147491882,2147491882,8234,8234,8234,8234,8234,8234,8234,8234,8234,8234,8234,8234,8234,8234,8234,8234,8234,8234,0,0,8142,8142,8142,8134,8134,8134,8134,8134,8134,8134,8134,8134,8134,8134,8134,8134,8134,8134,8134,8134,8134,8134,8134,8109,8110,8110,8110,8110,8110,8110,8110,8110,8103,8134,8134,8134,8134,8134,8134,8134,8134,8134,8134,8134,8134,8134,8134,8134,8134,8134,8134,8134,8134,8135,0,8234,0,8235,0,0,0,0,0,8221,8222,8237,8234,8234,8234,8234,8234,8234,8235,0,0,0,0,0,0,0,0,0,0,0,0,0,0,0,0,0,0,0,0,0,0,0,2147491876,0,0,0,0,0,0,0,0,0,
8234,8234,8234,8234,8234,8234,8234,8234,8234,8234,8234,8234,8234,0,0,0,8311,8312,8314,8312,8312,8312,8312,8314,8312,8313,0,0,0,0,8234,8234,8234,8234,8234,8234,8234,8234,8234,8234,8234,8234,8234,8234,8234,8234,8234,8234,2147491882,2147491882,0,0,0,8141,8134,8134,8134,8134,8134,8134,8134,8134,8134,8134,8134,8134,8134,8134,8134,8134,8134,8134,8134,8109,8110,8110,8110,8110,8110,8110,8110,8110,8110,8103,8134,8134,8134,8134,8134,8134,8134,8134,8134,8134,8134,8134,8134,8134,8134,8134,8134,8134,8134,8135,0,8234,8234,8235,0,0,0,0,0,8233,8234,8234,8234,8234,8234,8234,8234,0,8235,0,0,0,8227,0,0,0,0,0,0,0,0,0,0,0,0,0,0,0,0,8227,0,0,0,0,0,0,0,0,0,0,0,0,
8234,8234,8234,8234,8234,8234,8234,8234,8234,8234,8234,8234,8234,0,0,8234,8234,8234,8234,8234,8234,0,0,0,0,0,0,0,0,0,0,8234,8234,8234,8234,8234,8234,8234,8234,8234,8234,8234,8234,8234,8234,8234,8234,8234,2147491882,2147491882,8234,8234,0,0,8141,8134,8134,8134,8134,8134,8134,8134,8134,8134,8134,8134,8134,8134,8134,8134,8134,8134,8134,8109,8110,8110,8110,8110,8110,8110,8110,8110,8110,8111,8134,8134,8134,8134,8134,8134,8134,8134,8134,8134,8134,8134,8134,8134,8134,8134,8134,8134,8134,8135,0,8234,8234,8235,0,0,0,0,0,8233,8234,8234,8234,8234,8234,8234,8234,0,8235,0,0,0,0,0,0,0,0,2147491887,2147491886,0,0,0,0,2147491874,2147491875,0,0,0,0,0,0,0,0,0,0,0,0,0,0,0,0,0,
8234,8234,8234,8234,8234,8234,8234,8234,8234,8234,8234,8234,8234,8234,8234,8234,8234,8234,8234,8234,8234,8234,8234,8234,8234,8234,8234,8234,8234,8234,8234,8234,8234,0,0,0,8234,8234,8234,8234,8234,8234,8234,8234,8234,8234,8234,8234,0,0,8234,8234,8234,0,0,8142,8142,8134,8134,8134,8134,8134,8134,8134,8134,8134,8134,8134,8134,8134,8134,8134,8134,8109,8110,8110,8110,8110,8110,8110,8110,8110,8110,8111,8134,8134,8134,8134,8134,8134,8134,8134,8134,8134,8134,8134,8134,8134,8134,8134,8134,8134,8134,8135,0,8234,8234,8236,8223,0,0,0,0,8233,8234,8234,8234,8234,8234,8234,8234,0,8235,0,0,0,0,0,0,0,0,0,0,0,0,0,0,0,0,0,0,0,0,0,0,0,0,0,0,0,0,0,0,0,0,0,
0,8234,8234,8234,8234,8234,8234,8234,8234,8234,8234,8234,8234,8234,8234,8234,8234,8234,8234,8234,8234,8234,8234,8234,8234,8234,8234,8234,8234,8234,8234,8234,8234,0,0,0,0,0,0,0,0,0,0,0,0,8224,0,0,0,0,8225,8234,8234,8234,0,0,0,8133,8134,8134,8134,8134,8134,8134,8134,8134,8134,8134,8134,8134,8134,8134,8134,8117,8118,8118,8118,8110,8110,8110,8110,8110,8110,8111,8134,8134,8134,8134,8134,8134,8134,8134,8134,8134,8134,8134,8134,8134,8134,8134,8134,8134,8134,8135,0,8234,8234,0,8235,0,8248,0,0,8245,8234,8234,8234,8234,8234,8234,0,0,8235,0,0,0,0,0,0,0,0,0,0,0,0,0,0,0,0,0,0,0,0,0,0,0,0,0,0,0,0,0,0,0,0,0,
0,8234,8234,0,2147491882,8234,8234,8234,8234,8234,8234,8234,8234,8234,8234,8234,8234,8234,8234,8234,8234,8234,8234,8234,8234,8234,8234,8234,8234,8234,8234,8234,8234,0,8258,8258,8258,8258,8258,8258,8258,8259,0,0,0,0,0,0,0,0,8233,0,0,8234,8234,2147491882,2147491882,8141,8134,8134,8134,8134,8134,8134,8134,8134,8134,8134,8134,8134,8134,8134,8134,8134,8134,8134,8134,8109,8110,8110,8110,8110,8110,8119,8134,8134,8134,8134,8134,8134,8134,8134,8134,8134,8134,8134,8134,8134,8134,8134,8134,8134,8134,8135,8234,8234,8234,8224,8247,0,8248,2147491889,0,0,8245,8246,8225,2147491882,0,0,0,0,8235,0,0,0,0,0,0,0,0,0,0,0,0,0,0,0,0,0,0,0,0,0,0,0,0,0,0,0,0,8238,8239,0,0,0,
0,8234,8234,0,2147491882,8234,8234,8234,8234,8234,8234,8234,8234,8234,8234,8234,8234,8234,8234,8234,8234,8234,8234,8234,8234,8234,8234,8234,8234,8234,8234,8234,8234,8269,0,0,8270,8270,8270,0,0,8272,8258,8258,8259,8235,0,8241,0,0,8245,8225,0,0,0,8234,8234,8234,8141,8134,8134,8134,8134,8134,8134,8134,8134,8134,8134,8134,8134,8134,8134,8134,8134,8134,8134,8109,8110,8110,8110,8118,8119,8134,8134,8134,8134,8134,8134,8134,8134,8134,8134,8134,8134,8134,8134,8134,8134,8134,8134,8134,8134,8135,8234,8234,8224,8247,0,0,0,2147491889,0,0,0,0,8233,8234,8234,8234,8234,0,8235,0,0,0,0,0,0,0,0,0,0,0,0,0,0,0,0,0,0,0,0,0,0,0,0,0,0,0,0,0,0,0,0,0,
0,8234,8234,8234,2147491882,8234,8234,8234,8234,8234,8234,8234,8234,8234,8234,8234,8234,8234,8234,8234,8234,8234,8234,8234,8234,8234,8234,8234,8234,8234,8234,8234,0,8269,0,0,8270,0,2147491918,8270,8270,8270,0,0,8271,8235,0,0,0,0,0,8245,8246,8246,8246,8225,0,8234,2147491882,8141,8134,8134,8134,8134,8134,8134,8134,8134,8134,8134,8134,8134,8134,8134,8134,8101,8102,8110,8110,8110,8111,8134,8134,8134,8134,8134,8134,8134,8134,8134,8134,8134,8134,8134,8134,8134,8134,8134,8134,8134,8134,8134,8134,8143,0,0,8235,0,0,0,0,0,0,0,0,0,8233,8234,8234,8234,8234,2147491882,8236,8223,0,0,8248,0,0,0,0,0,0,0,0,0,0,0,0,0,2147491876,0,0,0,0,0,0,0,0,0,0,0,0,2147491874,0,0,
0,8234,0,8234,8234,8234,8234,8234,8234,8234,8234,8234,8234,8234,8234,8234,8234,8234,8234,8234,8234,8234,8234,8234,8234,8234,8234,8234,8234,8234,8234,8234,0,8269,2147492032,8270,8270,8270,8270,8270,8270,8270,8270,0,8271,8236,8222,8223,0,8240,0,0,0,0,0,8233,0,8234,8234,0,8142,8142,8134,8134,8134,8134,8134,8134,8134,8134,8134,8134,8134,8134,8101,8110,8110,8110,8110,8110,8111,8134,8134,8134,8134,8134,8134,8134,8134,8134,8134,8134,8134,8134,8134,8134,8134,8134,8134,8134,8134,8134,8135,0,0,0,8235,0,0,8248,8248,0,0,0,0,8221,8237,8234,8234,8234,8234,2147491882,0,8235,0,0,8248,8248,0,8226,0,0,0,2147491875,0,0,0,0,0,0,0,0,0,8228,0,0,0,0,0,0,0,0,0,0,0,0,
0,0,0,0,2147491882,8234,8234,8234,8234,2147491882,8234,8234,8234,8234,8234,8234,8234,8234,8234,8234,8234,8234,8234,8234,8234,8234,8234,8234,8234,8234,8234,0,0,8269,0,0,8270,8270,8270,8270,2147491918,2147491918,8270,0,8272,8259,0,8235,0,0,0,0,0,0,0,8245,8225,0,8234,8234,0,0,8133,8134,8134,8134,8134,8134,8134,8134,8134,8134,8134,8101,8110,8110,8110,8110,8110,8110,8111,8134,8134,8134,8134,8134,8134,8134,8134,8134,8134,8134,8134,8134,8134,8134,8134,8134,8134,8134,8134,8134,8143,0,2147491882,0,8235,0,2147491876,0,0,0,0,0,0,8233,0,8234,8234,8234,8234,8234,0,8235,0,0,0,0,8248,0,0,0,0,2147491889,0,0,0,0,0,0,0,0,0,0,0,0,0,0,0,0,0,0,0,0,0,0,
0,0,8234,8234,8234,8234,8234,8234,8234,8234,8234,8234,8234,8234,8234,8234,8234,8234,8234,8234,8234,8234,8234,8234,8234,8234,8234,8234,8234,8234,8234,8234,0,8269,8270,8270,8270,8270,8270,8270,8270,8270,8270,8270,8270,8271,0,0,8223,0,0,0,0,0,0,0,8233,0,0,2147491882,2147491882,0,8141,8134,8134,8134,8134,8134,8134,8134,8134,8134,8134,8109,8110,8110,8110,8110,8110,8110,8111,8134,8134,8134,8134,8134,8134,8134,8134,8134,8134,8134,8134,8134,8134,8134,8134,8134,8134,8134,8134,8143,2147491882,2147491882,2147491882,0,8236,8223,0,0,0,0,0,8221,8222,8237,2147491882,8234,8234,8234,8234,8234,8234,8236,8223,0,0,0,0,0,0,0,0,0,0,0,0,0,0,0,0,0,0,0,0,0,0,0,0,0,8241,0,0,0,0,0,
0,0,8234,8234,8234,8234,8234,8234,8234,8234,8234,8234,8234,8234,8234,8234,8234,8234,8234,8234,8234,8234,8234,8234,8234,8234,8234,8234,8234,8234,8234,8234,0,8269,8270,8270,8270,8270,8270,8270,2147492032,8270,8270,2147491918,8270,8271,0,0,0,8223,0,0,8241,0,0,0,8245,8246,8246,8246,8225,0,0,8141,8134,8134,8134,8134,8134,8134,8134,8134,8134,8109,8110,8110,8110,8110,8110,8110,8110,8102,8102,8102,8103,8134,8134,8134,8134,8134,8134,8134,8134,8134,8134,8134,8134,8134,8134,8134,8143,8234,8234,8234,8234,0,0,8236,8222,8223,0,0,8221,8237,8234,8234,8234,8234,8234,8234,8234,8234,8234,0,8236,8222,8223,0,0,0,0,0,0,0,0,0,0,0,2147491887,2147491886,0,0,0,0,0,0,0,0,0,0,0,0,0,0,0,0,
0,0,8234,8234,8234,8234,8234,8234,8234,8234,8234,8234,8234,8234,8234,8234,8234,8234,8234,8234,8234,8234,8234,8234,8234,8234,8234,8234,8234,8234,8234,8234,0,8269,0,8270,0,8270,8270,8270,8270,8270,8270,8270,8270,8271,0,0,0,8235,0,0,0,0,0,8228,0,0,0,0,8245,8225,0,0,8141,8134,8134,8134,8134,8134,8134,8134,8134,8117,8110,8110,8110,8110,8110,8110,8110,8110,8110,8110,8110,8103,8134,8134,8134,8134,8134,8134,8134,8134,8134,8134,8134,8134,8134,8135,0,8234,2147491882,2147491882,8234,8234,0,0,0,8236,8222,8222,8237,0,8234,8234,8234,8234,8234,8234,8234,8234,8234,8234,0,0,8236,8223,0,0,0,8248,0,0,0,0,0,0,0,0,0,0,0,0,0,0,0,0,0,0,0,0,0,0,0,0,
0,0,8234,8234,8234,8234,8234,8234,8234,8234,8234,8234,8234,8234,8234,0,0,0,8234,8234,8234,8234,8234,8234,8234,8234,8234,8234,8234,8234,8234,8234,0,8269,0,8270,8270,0,8270,8270,8270,8270,8270,8270,0,8271,8234,8234,0,0,8222,8223,0,0,0,0,0,0,0,8228,0,8233,0,0,0,8141,8134,8134,8134,8134,8134,8134,8134,8134,8109,8110,8110,8110,8110,8110,8110,8110,8110,8110,8110,8110,8103,8134,8134,8134,8134,8134,8134,8134,8134,8134,8134,8134,8134,8135,0,8234,2147491882,2147491882,8234,8234,8234,8234,8234,2147491882,2147491882,2147491882,8234,0,8234,8234,8234,8234,8234,8234,8234,8234,8234,8234,8234,8234,0,8236,8223,0,0,0,8248,0,0,0,0,0,0,0,0,0,0,0,0,0,0,0,0,0,0,0,0,8248,8248,0,
0,0,8234,8234,8234,8234,8234,8234,8234,8234,8234,8234,8234,8234,8234,8234,8234,8234,8234,8234,8234,8234,8234,8234,8234,8234,8234,8234,8234,8234,8234,8234,0,8281,8261,0,8270,8270,8270,8270,8270,8249,8270,2147491918,8249,8271,0,8234,8234,8234,8234,8235,0,0,0,0,0,0,0,0,0,8233,0,0,0,0,8142,8142,8142,8142,8134,8134,8134,8134,8117,8118,8118,8118,8118,8118,8118,8118,8118,8110,8110,8110,8110,8103,8134,8134,8134,8134,8134,8134,8134,8134,8134,8134,8134,8134,8127,8234,8234,0,8234,8234,0,0,0,0,0,0,0,0,8234,8234,8234,8234,8234,8234,8234,8234,8234,8234,8234,8234,8234,0,8236,8223,0,0,0,0,0,0,0,0,0,0,0,0,0,0,8238,8239,0,0,0,0,0,0,0,8248,0,8221,
0,0,8234,8234,8234,8234,8234,8234,8234,8234,8234,8234,8234,8234,8234,8234,8234,8234,8234,8234,8234,8234,8234,8234,8234,8234,8234,8234,8234,8234,8234,8234,0,0,8281,8282,8261,8249,8249,8270,2147491918,8230,8232,2147491918,2147491918,8271,0,8234,8234,8234,8234,0,8222,8222,8222,8222,8222,8222,8222,8222,8222,8237,0,0,0,0,0,0,0,0,8141,8134,8134,8134,8134,8134,8134,8134,8134,8134,8134,8134,8134,8117,8110,8110,8110,8111,8134,8134,8134,8134,8134,8134,8134,8134,8134,8134,8134,8134,8135,0,2147491882,2147491882,0,0,0,0,0,0,0,0,0,0,0,0,0,0,8234,8234,8234,8234,8234,8234,8234,8234,8234,8234,0,8235,0,0,0,0,0,0,0,2147491876,2147491875,0,0,0,0,0,0,0,8228,0,0,0,0,8248,0,0,8221,8237,
0,0,8234,8234,8234,8234,8234,8234,8234,8234,8234,8234,8234,8234,8234,8234,8234,8234,8234,8234,8234,8234,8234,8234,8234,8234,8234,8234,8234,8234,8234,0,0,0,0,0,8281,8261,0,8270,8230,8277,8276,8232,0,8272,8259,8234,8234,8234,8234,8234,8234,8234,8234,8234,8234,8234,8234,8234,8234,8234,8234,8234,8234,0,0,0,0,0,8133,8134,8134,8134,8134,8134,8134,8134,8134,8134,8134,8134,8134,8134,8117,8118,8118,8119,8134,8134,8134,8134,8134,8134,8134,8134,8134,8134,8134,8134,8134,8127,0,8234,0,0,0,0,0,0,8248,2147491874,0,0,0,0,0,0,8234,8234,8234,8234,8234,8234,8234,8234,8234,8234,0,8236,8223,0,0,0,0,0,0,0,2147491889,0,0,0,0,0,0,0,0,0,0,0,0,8248,0,8221,8237,0,
0,0,0,8234,8234,8234,8234,8234,8234,8234,8234,8234,8234,8234,8234,8234,8234,8234,8234,8234,8234,8234,8234,8234,8234,8234,8234,8234,8234,8234,8234,8234,8234,8234,8234,8234,8234,8281,8261,8270,8242,8234,8234,8276,8232,0,8271,8234,8234,8234,8234,8234,8234,8234,8234,8234,8234,8234,8234,0,0,0,0,0,8234,8234,0,0,0,0,8133,8134,8134,8134,8134,8134,8134,8134,8134,8134,8134,8134,8134,8134,8134,8134,8134,8134,8134,8134,8134,8134,8134,8134,8134,8134,8134,8134,8134,8134,8134,8134,8127,8234,2147491882,0,0,0,0,0,0,0,0,0,0,0,0,0,8234,8234,8234,8234,8234,8234,8234,8234,8234,8234,0,0,8235,0,0,0,0,0,0,0,0,0,0,0,0,0,0,0,0,0,0,0,0,0,8221,8237,0,0,
0,0,8234,8234,8234,8234,8234,8234,8234,8234,8234,8234,8234,8234,8234,8234,8234,8234,8234,8234,8234,8234,8234,8234,8234,8234,8234,8234,8234,8234,8234,8234,8234,8234,8234,8234,8234,0,8269,2147491918,8242,8234,8234,8234,8276,8232,8271,8234,8234,8234,8234,8234,8234,8234,0,0,0,0,0,0,0,0,0,0,0,8234,8234,0,0,0,8141,8134,8134,8134,8134,8134,8143,8142,8142,8142,8142,8142,8134,8134,8134,8134,8134,8134,8134,8134,8134,8134,8134,8134,8134,8134,8134,8134,8134,8134,8134,8134,8134,8127,8234,0,0,2147491875,0,0,0,0,0,0,8248,0,0,0,8234,8234,8234,8234,8234,8234,8234,8234,8234,8234,8234,0,8236,8223,0,0,0,0,0,0,0,0,0,0,0,0,0,2147491889,0,0,0,0,0,8221,8237,8234,8234,8234,
0,0,8234,8234,8234,8234,8234,8234,8234,8234,8234,8234,8234,8234,8234,8234,8234,8234,8234,8234,8234,8234,8234,8234,8234,8234,8234,8234,8234,8234,8234,8234,8234,8234,8234,8234,8234,0,8269,2147491918,8242,8234,8234,8234,0,8244,8271,8234,8234,8234,8234,8234,8234,8234,0,0,0,0,0,0,0,0,0,0,0,0,8234,8234,0,0,0,8141,8134,8134,8134,8143,0,0,0,0,0,0,8141,8134,8134,8134,8134,8134,8134,8134,8134,8134,8134,8134,8134,8134,8134,8134,8134,8134,8134,8134,8134,8135,0,0,0,0,0,2147491875,0,0,0,0,0,0,0,0,8234,8234,8234,8234,8234,8234,8234,8234,8234,8234,8234,0,0,8235,0,0,0,8248,0,0,0,0,8240,0,0,0,0,2147491889,0,0,0,0,8221,8237,0,8234,8234,8234,
0,0,8234,8234,8234,8234,8234,8234,8234,8234,8234,8234,8234,8234,8234,8234,8234,8234,8234,8234,8234,8234,8234,8234,8234,8234,8234,8234,8234,8234,8234,8234,8234,8234,8234,8234,8234,0,8269,2147491918,8242,8234,8234,8234,8234,8244,8271,8234,8234,8234,8234,8234,8234,0,0,0,0,0,0,0,0,0,0,0,0,0,0,8234,8234,0,0,0,8142,8142,8143,0,0,8234,8234,8234,0,0,0,8141,8134,8134,8134,8134,8134,8134,8134,8134,8134,8134,8134,8134,8134,8134,8134,8134,8134,8134,8134,8135,0,0,0,0,0,0,0,0,0,0,0,0,0,8234,8234,8234,8234,8234,8234,8234,8234,8234,8234,8234,8234,0,0,8236,8223,0,0,0,0,0,0,0,0,0,0,0,0,0,0,0,0,8221,8237,0,0,8234,8234,8234,
0,0,8234,8234,8234,8234,8234,8234,8234,8234,8234,8234,8234,8234,8234,8234,8234,8234,8234,8234,8234,8234,8234,8234,8234,8234,8234,8234,8234,8234,8234,8234,8234,8234,8234,8234,8234,0,8269,2147491918,8242,8234,8234,8234,0,8244,8271,8234,8234,8234,8234,8234,0,0,0,0,0,0,0,0,0,0,0,0,0,0,0,0,8234,0,0,0,0,0,0,0,8234,8234,8234,8234,8234,0,0,8133,8134,8134,8134,8134,8134,8134,8134,8134,8134,8134,8134,8134,8134,8134,8134,8134,8134,8134,8134,8135,0,0,0,0,0,0,0,0,0,0,0,0,0,8234,8234,8234,8234,8234,8234,8234,8234,8234,8234,8234,8234,8234,0,0,8235,0,0,0,0,0,0,0,0,0,0,0,0,0,0,8248,0,8233,0,8234,8234,8234,8234,8234,
0,0,8234,8234,8234,8234,8234,8234,8234,8234,8234,8234,8234,8234,8234,8234,8234,8234,8234,8234,8234,8234,8234,8234,8234,8234,8234,8234,8234,8234,8234,8234,8234,8234,8234,8234,8234,0,8269,8270,8254,8265,0,8264,8255,8256,8271,0,8234,8234,0,0,0,0,0,0,0,0,8226,8226,0,0,0,8228,0,0,0,0,8234,8234,0,8234,8234,0,0,0,8234,8234,8234,8234,8234,8234,0,8133,8134,8134,8134,8134,8134,8134,8134,8134,8134,8134,8134,8134,8134,8134,8134,8134,8134,8134,8134,8135,0,0,0,0,0,0,0,0,0,0,0,0,0,8234,8234,8234,8234,8234,8234,8234,8234,8234,8234,8234,8234,8234,8234,0,8236,8222,8223,0,0,0,0,0,0,0,0,0,0,0,0,8248,8221,8237,0,8234,8234,8234,8234,8234,
0,0,8234,8234,8234,8234,8234,8234,8234,8234,8234,8234,8234,0,0,8234,8234,8234,8234,8234,8234,8234,8234,8234,8234,8234,8234,8234,8234,8234,8234,8234,8234,8234,8234,8234,8234,0,8269,2147491918,0,8254,8255,8256,8260,8282,8283,0,8234,0,0,0,0,0,2147491887,2147491886,8241,8226,8226,0,0,0,0,0,0,0,0,8234,8234,8234,8234,8234,8384,8384,0,0,0,0,0,0,0,8234,8234,8141,8134,8134,8134,8134,8134,8134,8134,8134,8134,8134,8134,8134,8134,8134,8134,8134,8134,8134,8134,8135,0,0,0,0,0,0,0,0,0,0,0,0,0,8234,8234,8234,8234,8234,8234,8234,8234,8234,8234,8234,8234,8234,8234,8234,8234,0,8236,8222,8222,8223,0,0,0,8248,8248,0,0,0,0,8221,8237,0,0,8234,8234,8234,8234,8234,
0,0,0,0,0,0,2147491882,0,8234,8234,8234,8234,0,0,0,0,0,0,0,0,0,0,8234,8234,8234,8234,0,8234,0,8234,8234,8234,8234,8234,8234,8234,8234,0,8281,8282,8282,8282,8282,8282,8283,0,0,0,0,0,0,0,8241,0,0,8248,8226,8226,0,0,8226,8226,8249,8249,0,0,8234,8234,0,8234,8234,8234,0,0,0,0,0,0,0,0,0,0,8234,8234,8141,8134,8134,8134,8134,8134,8134,8134,8134,8134,8134,8134,8134,8134,8134,8134,8134,8134,8134,8135,0,8234,0,0,0,0,0,0,0,0,0,8234,8234,8234,8234,8234,8234,8234,8234,8234,8234,8234,8234,8234,8234,8234,8234,8234,8234,8234,8234,8234,0,8236,8222,8222,8222,8222,8222,8222,8222,8222,8222,8237,0,0,0,8234,8234,8234,8234,8234,
0,0,0,0,0,2147491882,2147491882,8234,8234,8234,8234,8234,0,0,0,8257,8258,8258,8258,8258,8258,8258,8259,0,0,8249,8249,8249,0,8234,8234,8234,8234,8234,8234,8234,8234,0,0,0,0,0,0,0,8234,8234,8234,8234,0,0,0,0,0,0,8226,8226,8226,0,0,0,8226,8248,8249,0,0,0,8234,8234,0,8234,8234,0,0,0,0,0,0,0,0,0,0,0,0,8234,0,8141,8134,8134,8134,8134,8134,8134,8134,8134,8134,8134,8134,8134,8134,8134,8134,8134,8134,8135,0,8234,8234,0,0,0,0,0,0,0,0,8234,8234,8234,8234,8234,8234,8234,8234,8234,8234,8234,8234,8234,8234,8234,8234,8234,8234,8234,8234,8234,0,0,0,0,0,0,0,0,0,0,0,8234,8234,8234,8234,8234,8234,8234,8234,8234,
0,0,0,8234,8234,8234,8234,8234,8234,8234,8234,8234,0,0,8257,8273,8249,8270,8270,8270,8249,8249,8272,8258,8259,8249,8249,8249,0,0,0,0,0,0,0,0,0,0,0,0,0,0,0,8234,8234,8234,8234,8234,0,0,0,0,0,8226,8226,8226,0,0,0,0,0,0,8249,0,0,8234,8234,0,0,0,0,0,0,0,8302,0,8297,8298,0,0,0,0,0,8234,8234,0,8141,8134,8134,8134,8134,8134,8134,8134,8134,8134,8134,8134,8134,8134,8134,8134,8134,8135,0,8234,8234,0,0,0,0,0,0,0,0,8234,8234,8234,8234,8234,8234,8234,8234,8234,8234,8234,8234,8234,8234,8234,8234,8234,8234,8234,8234,8234,0,8234,8234,8234,8234,8234,8234,8234,8234,8234,8234,8234,8234,8234,8234,8234,8234,8234,8234,8234,
0,0,8234,8234,8234,8234,8234,8234,8234,8234,8234,8234,8234,8249,8269,8249,8270,8270,8270,8270,8270,8270,8270,8249,8272,8258,8258,8258,8258,8258,8258,8258,8258,8258,8259,0,0,0,0,0,0,0,0,8234,8234,8234,8234,8234,0,0,0,0,8248,8248,8226,0,0,0,0,0,0,8249,8249,0,0,8234,0,0,0,0,0,0,0,0,0,0,8309,8310,0,0,0,0,0,0,8234,0,0,8141,8134,8134,8134,8134,8134,8134,8134,8134,8134,8134,8134,8134,8134,8134,8134,8143,0,8234,8234,0,0,0,0,0,0,0,0,8234,8234,8234,8234,8234,8234,8234,8234,8234,8234,8234,8234,8234,8234,8234,8234,8234,8234,8234,8234,8234,0,8234,8234,8234,8234,8234,8234,8234,8234,8234,8234,8234,8234,8234,8234,8234,8234,8234,8234,0,
0,0,8234,8234,8234,8234,8234,8234,8234,8234,8234,8234,8234,8249,8269,8249,8270,8270,8270,8270,8270,8270,8270,8270,8270,8270,8270,8270,8270,8270,8270,8270,8270,8270,8271,0,0,0,0,0,0,0,8234,8234,8234,8234,8234,8234,0,0,0,0,0,8226,0,0,0,8238,8239,0,0,8249,8249,0,0,8234,0,0,0,0,0,0,0,0,0,0,0,0,0,0,0,0,0,0,8234,8234,0,0,8141,8134,8134,8134,8134,8134,8134,8134,8134,8134,8134,8134,8134,8134,8143,0,8234,8234,8234,0,0,0,0,0,0,0,0,0,8234,8234,8234,8234,8234,8234,8234,8234,8234,8234,8234,8234,8234,8234,8234,8234,8234,8234,8234,0,8234,8234,8234,8234,8234,8234,8234,8234,8234,8234,8234,8234,8234,8234,8234,8234,8234,8234,8234,0,
0,0,8234,8234,8234,8234,8234,8234,8234,8234,8234,8234,8234,8249,8281,8261,8249,8270,8270,8270,8270,8270,8270,8230,8231,8231,8231,8231,8232,8249,8270,2147492032,8270,8270,8272,8259,0,0,0,0,0,0,8234,8234,8234,8234,8234,8234,0,0,0,0,0,0,0,0,8249,0,0,0,8227,8249,8249,8249,8234,8234,0,0,0,0,0,0,0,0,8302,0,0,0,0,8302,0,0,0,0,0,0,2147492032,8234,0,8141,8134,8134,8134,8134,8134,8134,8134,8134,8134,8134,8142,8143,0,2147491882,8234,0,0,0,0,0,0,0,0,0,0,0,0,0,0,0,8234,8234,8234,8234,8234,8234,8234,8234,8234,8234,8234,8234,8234,8234,8234,0,8234,8234,8234,8234,8234,8234,8234,8234,8234,8234,8234,8234,8234,8234,8234,8234,8234,8234,0,0,
0,2147492032,8234,8234,8234,8234,8234,8234,8234,8234,8234,8234,8234,8234,8249,8281,8261,8270,8270,8270,8270,8270,8230,8277,8249,8234,8234,8249,8276,8231,8232,0,8270,8270,0,8271,0,0,0,0,0,0,8234,8234,8234,8234,8234,0,0,0,0,0,0,0,0,0,8249,8249,8249,8226,8226,0,8249,8249,8234,8234,0,0,0,0,0,0,0,0,0,8302,0,0,0,0,0,0,0,0,0,0,0,8234,0,0,8141,8134,8134,8134,8134,8134,8134,8134,8134,8143,0,0,8234,2147491882,0,0,0,0,0,0,0,0,0,0,0,0,0,0,0,0,0,0,0,8234,8234,8234,8234,8234,8234,8234,8234,8234,8234,8234,8234,8234,8234,8234,8234,8234,8234,8234,8234,8234,8234,8234,8234,8234,8234,8234,8234,8234,8234,8234,0,0,
0,0,8234,8234,8234,8234,8234,8234,8234,8234,8234,8234,8234,8234,8234,8249,8281,8261,8249,8249,8270,8270,8242,8234,8234,8234,8234,8234,8234,0,8244,0,8270,8270,0,8271,0,0,0,0,0,0,8234,8234,8234,8234,8234,0,0,0,0,0,0,0,0,0,8249,8249,8249,8241,0,0,8249,8249,8234,8234,0,0,0,0,8234,0,8234,0,0,0,0,0,0,0,0,2147492093,0,0,0,0,0,8234,8234,0,0,8142,8134,8134,8134,8134,8134,8134,8143,0,0,0,0,0,0,0,2147491875,0,0,0,0,0,0,0,0,0,0,0,0,0,0,0,0,0,0,8234,8234,8234,8234,8234,8234,8234,8234,8234,8234,8234,8234,8234,8234,8234,8234,8234,8234,8234,8234,8234,8234,8234,8234,8234,8234,8234,8234,8234,0,0,
0,0,8234,8234,8234,8234,8234,8234,8234,8234,8234,8234,8234,8234,8234,8249,8249,8281,8261,8249,8270,8230,8277,8234,8234,8234,8234,8234,8234,0,8244,0,8270,8270,0,8271,0,0,0,8234,8234,8234,8234,8234,8234,8234,0,0,0,0,0,0,0,0,0,0,0,8249,8249,8249,8249,8249,8249,8249,8234,0,0,0,0,0,0,0,0,8234,0,0,0,0,0,0,0,0,0,0,0,0,0,0,8234,8234,0,0,8133,8134,8134,8134,8134,8135,0,0,0,0,0,0,0,0,0,0,0,0,0,0,2147491889,0,0,8248,0,0,0,0,0,0,0,0,0,8234,8234,8234,8234,8234,8234,8234,8234,8234,8234,8234,8234,8234,8234,8234,8234,8234,8234,8234,8234,8234,8234,8234,8234,8234,8234,8234,8234,8234,0,0,
0,0,0,8234,8234,8234,8234,8234,8234,8234,8234,8234,8234,8234,8234,8249,8249,8249,8269,8249,8270,8242,8249,8234,8234,8234,8234,8234,8234,8234,8244,0,8270,0,8270,8271,0,8234,8234,8234,8234,8234,8234,8234,8234,8234,0,0,0,0,0,0,0,0,0,0,0,8249,8249,8249,8249,8249,8234,8234,8234,0,0,0,0,0,0,0,0,0,0,0,0,0,0,0,0,0,0,0,0,0,8483,8234,8234,8234,8394,8234,8141,8142,8142,8142,8142,8143,0,0,0,0,0,0,8248,0,0,0,0,0,0,0,0,0,0,0,0,0,0,0,0,0,0,0,0,8234,8234,8234,8234,8234,8234,8234,8234,8234,8234,8234,8234,8234,8234,8234,8234,8234,8234,8234,8234,8234,8234,8234,8234,8234,8234,8234,8234,0,0,0,
0,0,8234,8234,8234,8234,8234,8234,8234,8234,8234,8234,8234,8234,8234,8249,8249,8249,8281,8261,8270,8242,8249,8234,8234,8234,8234,8234,8234,8234,8244,0,8270,0,8260,8283,0,8234,8234,8234,8234,8234,8234,8234,8234,0,0,0,0,0,0,0,0,0,8234,8234,0,8234,8234,8234,8234,8234,8234,0,8234,0,0,0,0,0,0,8302,0,0,0,0,0,0,0,0,0,0,8317,8234,8234,8320,8495,8234,8234,8234,8234,8234,8234,0,0,0,0,0,0,0,0,0,0,2147491876,0,0,0,0,0,0,0,0,0,0,0,0,0,2147491874,0,8248,8248,0,0,0,0,8234,8234,8234,8234,8234,8234,8234,8234,8234,8234,8234,8234,8234,8234,8234,8234,8234,8234,8234,8234,8234,8234,8234,8234,8234,8234,8234,8234,0,0,0,
0,0,8234,8234,8234,8234,8234,8234,8234,8234,8234,8234,8234,8234,8249,8249,8249,8249,8257,8273,8270,8242,8249,8234,8234,8234,8234,8234,8234,8234,8276,8232,8270,8270,8271,0,0,8234,8234,8234,8234,8234,8234,8234,8234,8234,0,0,0,0,0,0,0,8234,8234,8234,8234,8234,8234,8234,8234,0,0,0,0,0,0,0,0,0,0,0,0,0,0,0,0,0,8375,8234,8234,8378,8234,8234,8234,8234,8507,8234,8234,8234,8234,8234,8234,0,0,0,0,0,0,0,0,0,0,0,0,0,0,0,0,0,0,0,0,0,0,2147491889,0,0,0,0,8248,8248,0,0,0,0,8234,8234,8234,8234,8234,8234,8234,8234,8234,8234,8234,8234,8234,8234,8234,8234,8234,8234,8234,8234,8234,8234,8234,8234,8234,8234,8234,0,0,0,
0,0,8234,8234,8234,8234,8234,8234,8234,8234,2147491882,8249,8249,8249,8257,8258,8258,8258,8273,8249,8230,8277,8234,8234,8234,8234,8234,8234,8234,8234,0,8244,8270,8270,8271,0,0,8234,8234,8234,8234,8234,8234,8234,8234,8234,8234,8234,0,0,0,0,0,8234,8234,8234,8234,8234,8234,8234,8234,0,0,0,0,0,0,0,0,0,0,0,0,0,0,0,0,0,8234,8234,8234,8234,8234,8234,8234,8234,8519,8234,8234,8234,8234,8234,8234,0,0,0,0,0,0,0,8248,0,0,0,0,0,0,0,0,0,2147491874,0,0,0,0,0,0,0,0,0,0,0,0,0,0,0,0,0,0,8234,8234,8234,8234,0,8234,8234,8234,8234,8234,8234,8234,8234,8234,8234,8234,8234,8234,8234,8234,8234,8234,8234,8234,0,0,0,
0,8234,8234,8234,8234,8234,8234,8234,8234,8234,8249,8249,8249,8257,8273,8270,8270,8270,8249,8230,8277,8249,8234,8234,8234,8234,8234,8234,8234,8234,2147491882,8276,8232,2147491918,8272,8258,8258,8259,0,0,0,0,8234,8234,8234,8234,8234,8234,0,0,0,0,0,8234,8234,8234,8234,8234,8234,8234,8234,8234,0,2147492093,0,0,2147491882,2147491882,0,0,0,0,0,0,8302,0,0,2147491882,8234,8234,8234,8234,8234,8234,8234,8234,0,8234,8234,8234,8234,8234,8234,0,0,0,8248,0,0,0,0,0,0,0,2147491889,0,0,0,0,2147491888,0,0,2147491887,2147491886,0,0,0,2147491874,0,0,0,0,0,0,0,0,0,0,0,0,0,0,0,8234,8234,8234,8234,8234,8234,8234,8234,8234,8234,8234,8234,8234,8234,8234,8234,8234,8234,8234,8234,0,0,0,
0,8234,8234,8234,8234,8234,8234,8234,8234,8234,8249,8257,8258,8273,2147491918,8270,8270,8270,8249,8242,8249,8249,8234,8234,8234,8234,8234,8234,8234,8234,8234,8234,8244,2147491918,0,0,0,8272,8258,8258,8258,8259,8234,8234,8234,8234,8234,8234,0,0,0,0,0,8234,8234,8234,8234,8234,8234,8234,8234,8234,0,0,0,0,0,2147491882,0,0,0,0,0,0,0,0,0,8234,8234,8234,8234,8234,8234,8234,8234,8234,0,0,8234,8234,8234,0,0,0,0,0,8248,0,0,0,0,0,0,0,0,0,0,0,0,0,0,0,0,0,0,0,0,0,0,0,0,0,2147491889,0,0,0,0,0,0,0,0,0,0,8234,8234,8234,8234,8234,8234,8234,8234,8234,8234,8234,8234,8234,8234,8234,8234,8234,8234,8234,8234,0,0,0,
0,8234,8234,8234,8234,8234,8234,8234,8234,8234,8249,8269,8249,8270,2147491918,8270,8270,8384,8249,8242,8249,8249,8234,8234,8234,8234,8234,8234,8234,8234,8234,8234,8244,8270,8270,8270,2147491918,8270,8270,2147491918,2147491918,8271,8234,8234,8234,8234,8234,8234,0,0,0,0,0,8234,8234,8234,8234,8234,8234,8234,8234,8234,0,0,0,0,0,0,8234,8234,0,0,0,0,0,0,8234,8234,8234,0,8234,0,8234,8234,8234,8375,8234,8234,8234,8234,8234,0,0,0,0,0,8248,0,0,0,0,0,0,0,0,0,0,0,0,0,0,0,0,0,0,2147491876,2147491888,0,0,8248,0,0,0,0,0,0,8248,0,0,0,0,0,0,0,8234,8234,8234,8234,8234,8234,8234,8234,8234,8234,8234,8234,8234,8234,8234,8234,8234,8234,8234,0,0,0,
0,8234,8234,8234,8234,8234,8234,8234,8234,8234,8249,8269,8249,2147491918,2147491918,8270,8270,2147491918,8253,8254,8265,8249,8249,8249,2147491882,8234,8234,8234,8234,8234,8234,8234,8244,0,8270,8270,8270,8270,8270,8270,2147491918,8271,0,0,0,0,0,0,0,0,0,0,0,8234,8234,8234,8234,8234,8234,8234,8234,8234,8234,8234,8234,8234,8234,8234,2147491882,2147491882,2147491882,0,0,0,0,8234,8234,8234,8234,8234,8234,0,8234,8234,8234,8234,8234,8234,8234,8234,0,0,0,0,0,0,0,0,0,0,0,0,0,0,0,0,0,0,0,0,0,0,0,0,0,0,0,0,0,0,0,0,0,0,0,0,0,0,0,0,0,0,0,0,0,8234,8234,8234,8234,8234,8234,8234,8234,8234,8234,8234,8234,8234,8234,8234,8234,8234,8234,8234,8234,0,
8234,8234,8234,8234,8234,8234,8234,8234,8234,8234,8249,8281,8261,8249,8249,8270,8270,8270,2147491918,8253,8254,8265,8249,8249,8249,8234,8234,8234,8234,8234,8234,8234,8276,8232,0,8270,2147491918,8270,8270,2147491918,0,8271,0,0,0,0,0,0,0,0,0,0,0,0,0,0,0,0,0,0,0,0,0,0,0,0,0,0,0,2147491882,2147491882,2147491882,2147491882,8234,2147491882,8234,0,8234,8234,8476,8234,2147491882,2147491882,8234,8234,8234,8234,8234,8234,8234,0,0,0,0,0,8238,8239,0,0,0,0,0,0,0,0,0,0,0,0,0,0,0,0,0,0,0,0,0,0,0,0,0,0,0,0,0,0,0,0,0,0,0,0,0,0,8234,8234,8234,8234,8234,8234,8234,8234,8234,8234,8234,8234,8234,8234,8234,8234,8234,8234,8234,8234,0,
8234,8234,8234,8234,8234,8234,8234,8234,8234,8234,8249,8249,8281,8261,8249,8270,8270,8270,8270,8270,8270,8254,8255,8255,8265,8249,8249,2147491882,8234,8234,8234,8234,0,8244,0,8270,8270,2147491918,0,0,8260,8283,0,0,0,0,0,0,0,0,0,0,0,0,0,0,0,0,0,0,8248,0,0,8248,8248,8248,0,0,0,0,0,0,0,8234,8234,8234,2147491882,8234,8234,0,0,0,0,8234,8234,8234,8234,8234,8234,8234,0,0,0,0,0,0,0,0,0,0,0,0,0,0,0,0,0,0,0,0,0,0,0,0,0,0,0,0,0,0,0,0,0,0,0,0,0,0,0,0,0,0,0,0,0,0,8234,8234,8234,8234,8234,8234,8234,8234,8234,8234,8234,8234,8234,8234,8234,8234,8234,8234,8234,0,
8234,8234,8234,8234,8234,8234,8234,8234,8234,8234,0,8249,8249,8269,8249,8249,8249,8270,8270,8270,8270,8249,8249,8253,8254,8255,8255,8255,8265,8249,0,8257,8258,8270,8270,8270,8270,8260,8282,8282,8283,0,0,0,0,0,0,0,0,0,0,0,0,0,0,0,0,0,0,0,0,0,0,0,0,0,0,0,0,0,0,0,0,8234,8234,0,8234,8234,8234,8234,8234,8234,8234,8234,0,0,8234,8234,8234,8517,0,0,0,0,0,8248,0,0,0,0,0,0,2147491876,0,0,0,0,0,0,0,0,0,0,0,0,0,0,0,0,0,0,0,0,0,0,0,0,0,0,0,0,0,0,0,0,0,8234,8234,8234,8234,8234,8234,8234,8234,8234,8234,8234,8234,8234,8234,8234,8234,8234,8234,8234,0,
8234,8234,8234,8234,8234,8234,8234,8234,8234,8234,8234,8249,8249,8281,8282,8261,8249,8249,8270,8270,8270,8270,8270,8270,8249,8249,8249,8253,8254,8255,8255,8273,8270,8270,8270,8270,0,8271,8234,8234,8234,8234,0,0,0,0,0,0,0,0,0,0,0,0,0,0,0,0,0,0,0,0,0,2147491887,2147491886,0,0,8240,0,0,0,0,0,0,0,0,0,0,0,0,0,0,8234,8234,8234,8234,8234,8234,8234,0,0,0,0,0,8248,8248,0,0,2147491876,0,0,0,0,0,8248,0,0,0,0,2147491874,2147491874,2147491876,0,0,0,0,0,0,0,0,0,0,0,0,0,0,0,0,0,0,2147491889,0,0,0,0,0,8234,8234,8234,8234,8234,8234,8234,8234,8234,8234,8234,8234,8234,8234,8234,8234,8234,8234,8234,0,
8234,8234,8234,8234,8234,8234,8234,8234,8234,8234,8234,8234,8249,8249,8249,8281,8282,8282,8261,8270,8270,8270,8270,8270,8270,8270,8270,8270,8270,8270,8270,8270,8270,8270,8270,8270,8260,8283,8234,8234,8234,8234,0,0,0,0,0,0,8248,0,0,0,0,0,0,0,0,0,0,0,0,0,0,8240,0,0,0,0,0,0,0,0,0,0,0,0,0,0,0,0,0,8234,8234,8234,8234,8234,8234,8234,8234,8234,8234,0,0,0,0,0,0,0,0,0,0,0,0,0,0,0,0,0,0,0,0,0,0,0,0,0,0,0,0,0,0,0,0,0,0,0,0,0,0,0,0,0,0,8248,0,0,0,8234,8234,8234,8234,8234,8234,8234,8234,8234,8234,8234,8234,8234,8234,8234,8234,8234,8234,0,
8234,8234,8234,8234,8234,8234,8234,8234,8234,8234,8234,8234,8234,8234,8249,8249,8249,8249,8281,8261,8249,8249,8270,8270,8270,8270,8270,8270,8270,8270,8270,8270,8270,8270,8270,8260,8283,0,8234,8234,8234,8234,0,0,0,0,0,8228,0,0,0,0,8238,8239,0,0,0,0,0,0,0,0,0,0,0,0,0,0,0,0,0,0,0,0,0,0,0,0,0,0,8234,0,0,0,0,0,0,0,0,0,0,0,0,0,0,0,0,0,0,0,0,0,0,0,0,0,0,0,0,0,0,0,0,0,0,2147491889,0,0,0,0,0,0,0,0,0,0,0,0,0,0,0,0,0,8248,0,0,0,8234,8234,8234,8234,8234,8234,8234,8234,8234,8234,8234,8234,8234,8234,8234,8234,8234,8234,0,
8234,8234,8234,8234,8234,8234,8234,8234,8234,8234,8234,8234,8234,8234,8234,8234,8234,8234,8249,8281,8282,8261,8249,8249,8249,8270,8270,8270,8270,8270,8270,8270,8270,0,8260,8283,0,0,8234,8234,8234,8234,8234,8234,0,0,0,0,0,0,0,0,0,0,8227,0,8227,0,0,0,0,0,0,0,0,0,0,0,0,0,0,0,0,0,0,0,0,0,0,0,0,0,0,0,0,0,0,0,0,0,0,0,0,0,0,2147491888,0,0,0,0,0,0,0,0,0,0,0,0,0,0,0,0,0,0,2147491875,2147491889,0,0,0,0,0,0,0,0,0,0,2147491887,2147491886,0,0,0,0,0,0,0,0,0,8234,8234,8234,8234,8234,8234,8234,8234,8234,8234,8234,8234,8234,8234,8234,8234,8234,8234,0,
8234,8234,8234,8234,8234,8234,8234,8234,8234,8234,8234,8234,8234,8234,8234,8234,8234,8234,8234,8234,8249,8281,8282,8261,8249,8249,8249,8270,8249,8249,8270,0,0,0,8271,0,8234,8234,8234,8234,8234,8234,8234,8234,0,0,0,0,8248,0,0,0,0,0,0,0,0,0,0,0,0,0,0,0,0,0,0,0,0,0,0,0,0,0,0,0,0,0,0,0,0,0,0,0,0,0,0,0,0,0,0,0,0,0,0,2147491875,0,8238,8239,0,0,0,0,0,0,0,0,0,0,0,0,0,0,0,0,0,0,0,0,0,0,0,0,0,0,0,2147491875,0,0,0,0,0,0,0,0,0,0,8234,8234,8234,8234,8234,8234,8234,8234,8234,8234,8234,8234,8234,8234,8234,8234,8234,8234,8234,
8234,8234,8234,8234,8234,8234,8234,8234,8234,8234,8234,8234,8234,8234,8234,8234,8234,8234,8234,8234,8234,8249,8249,8281,8282,8282,8282,8282,8282,8282,8261,0,0,8260,8283,8234,8234,8234,8234,8234,8234,8234,8234,8234,0,0,0,0,0,0,0,0,0,0,0,0,0,0,0,0,0,0,0,0,0,0,0,0,0,0,0,0,0,0,0,0,0,0,0,0,0,0,0,0,0,0,0,0,0,0,0,0,0,0,0,0,0,0,2147491874,0,0,0,2147491875,0,0,0,0,2147491875,0,0,0,0,0,0,0,0,0,0,0,0,0,0,0,0,0,0,0,0,0,0,0,2147491889,0,0,0,0,0,8234,8234,8234,8234,8234,8234,8234,8234,8234,8234,8234,8234,8234,8234,8234,8234,8234,8234,8234,
0,8234,8234,8234,8234,8234,8234,8234,8234,8234,8234,8234,8234,8234,8234,8234,8234,8234,8234,8234,8234,8234,8249,8249,8249,8249,8249,8249,8249,0,8281,8282,8282,8283,0,8234,8234,8234,8234,8234,8234,8234,8234,8234,0,0,0,0,0,0,0,0,0,0,8238,8239,0,0,0,0,0,0,0,0,0,0,0,0,0,0,0,0,0,0,0,0,0,0,0,0,0,0,0,0,0,0,0,0,0,0,8248,8248,0,0,0,0,0,0,2147491888,0,0,0,2147491889,0,0,0,8238,8239,8239,0,0,0,0,0,0,0,0,0,0,0,0,0,0,0,0,0,0,0,0,0,0,2147491874,0,0,0,0,0,8234,8234,8234,8234,8234,8234,8234,8234,8234,8234,8234,8234,8234,8234,8234,8234,8234,8234,8234,
0,8234,8234,8234,8234,8234,8234,8234,8234,8234,8234,8234,8234,8234,8234,8234,8234,8234,8234,8234,8234,8234,8234,8234,8249,8234,8234,8234,8234,8234,0,0,0,0,8234,8234,8234,8234,8234,8234,8234,0,0,0,0,0,0,0,0,0,0,8227,0,0,0,0,0,0,8227,0,0,0,0,0,0,0,0,0,0,0,0,0,0,0,0,0,0,0,0,0,0,0,0,0,0,0,8248,8248,0,0,0,0,0,0,0,0,0,0,0,0,0,0,0,0,0,0,0,0,0,0,0,2147491876,0,0,0,0,0,0,0,0,0,0,0,0,0,0,0,0,0,0,0,0,0,0,8248,0,0,8234,8234,8234,8234,8234,8234,0,8234,8234,8234,8234,8234,8234,8234,8234,8234,8234,8234,8234,
0,8234,8234,8234,8234,8234,8234,8234,8234,8234,8234,8234,8234,8234,8234,8234,8234,8234,8234,8234,8234,8234,8234,8234,8234,8234,8234,8234,8234,8234,0,0,0,8234,8234,8234,8234,8234,8234,8234,0,0,0,0,0,0,0,0,0,0,0,0,0,0,0,0,0,0,0,0,0,0,0,0,0,0,0,0,0,0,0,0,8228,0,0,0,0,0,0,0,0,0,0,0,0,0,0,0,0,0,0,2147491888,0,0,0,0,0,0,0,0,0,0,0,0,0,0,0,0,0,0,0,0,0,0,0,0,0,0,0,0,0,0,2147491875,0,0,0,0,0,0,0,0,0,0,0,8248,0,0,0,2147491882,8234,8234,8234,8234,8234,8234,8234,8234,8234,8234,8234,8234,8234,8234,8234,8234,8234,
0,8234,8234,8234,8234,8234,8234,8234,8234,8234,8234,8234,8234,8234,8234,8234,8234,8234,8234,8234,8234,8234,8234,8234,8234,8234,8234,8234,8234,8234,0,8234,8234,8234,8234,8234,8234,8234,8234,8234,0,0,0,0,0,0,0,0,0,0,0,0,0,0,8240,0,0,0,0,0,0,0,0,0,8290,0,8290,0,0,0,0,0,0,2147491887,2147491886,0,0,0,0,0,0,0,0,0,0,0,0,0,0,0,0,0,0,0,0,0,0,0,0,0,0,0,0,0,0,0,0,0,0,0,0,0,0,0,0,0,0,0,0,0,0,0,2147491876,0,0,0,0,0,0,0,0,0,0,0,8248,0,0,0,2147491882,8234,8234,8234,8234,8234,8234,8234,8234,8234,8234,8234,8234,8234,8234,8234,8234,8234,
0,8234,8234,8234,8234,8234,8234,8234,8234,8234,8234,8234,8234,8234,8234,8234,8234,8234,8234,8234,8234,8234,8234,8234,8234,8234,8234,8234,8234,8234,8234,8234,8234,8234,8234,8234,8234,8234,8234,8234,0,0,0,0,0,0,0,2147491887,2147491886,0,0,0,0,0,0,0,0,0,0,0,0,0,0,0,0,0,0,8302,0,0,0,0,0,0,0,0,0,0,0,0,0,0,0,0,0,0,0,0,0,0,0,0,0,0,0,0,0,0,0,0,0,0,0,0,0,0,0,0,0,0,0,0,0,0,0,0,0,0,0,0,0,0,0,0,0,0,0,0,0,0,0,0,0,0,0,0,0,0,0,8234,8234,8234,8234,8234,8234,8234,8234,8234,8234,8234,8234,8234,8234,8234,8234,8234,
0,8234,8234,8234,8234,8234,8234,8234,8234,8234,8234,8234,8234,8234,8234,8234,8234,8234,8234,0,8234,8234,8234,8234,8234,8234,8234,8234,8234,8234,8234,8234,8234,8234,8234,8234,8234,8234,8234,8234,0,0,0,0,0,0,0,0,8227,0,0,0,0,0,0,0,0,0,0,0,0,0,0,0,0,0,0,0,0,0,0,0,0,2147491875,0,0,0,0,0,0,0,8290,0,0,0,0,0,0,0,0,0,0,0,0,0,0,0,0,2147491888,0,8248,0,0,0,2147491876,0,0,0,0,0,0,0,0,0,0,0,0,0,0,0,0,0,0,0,0,0,0,0,0,0,0,0,2147491876,0,0,0,0,0,0,8234,8234,8234,8234,8234,8234,8234,8234,8234,8234,0,8234,8234,8234,8234,8234,8234,
0,8234,8234,8234,8234,8234,8234,8234,8234,8234,8234,8234,8234,8234,8234,8234,8234,8234,8234,8234,8234,8234,8234,8234,8234,8234,8234,8234,8234,8234,8234,8234,8234,8234,8234,8234,8234,8234,8234,8234,0,0,0,0,0,0,0,0,0,0,0,0,0,0,0,0,0,0,0,0,0,0,0,0,0,0,0,0,0,0,0,0,0,0,0,8228,0,0,0,0,0,0,0,0,0,0,0,0,0,0,0,0,0,0,0,0,0,0,2147491874,0,0,0,0,2147491874,0,0,0,0,2147491889,0,0,0,0,0,0,0,0,0,0,0,0,0,0,0,0,0,0,2147491875,0,0,0,0,0,0,0,0,0,0,0,8234,8234,8234,8234,8234,8234,8234,0,0,0,8234,8234,8234,8234,8234,8234,0,
0,8234,8234,8234,8234,8234,8234,8234,8234,8234,8234,8234,8234,8234,8234,8234,8234,8234,8234,8234,8234,8234,8234,8234,8234,8234,8234,8234,8234,8234,8234,8234,8234,8234,8234,8234,8234,8234,8234,0,0,0,0,0,0,0,0,0,0,0,0,0,0,0,0,0,0,0,0,0,0,0,0,0,0,0,0,0,0,0,0,0,0,0,0,0,0,0,0,0,0,0,8302,0,0,0,0,0,0,0,0,0,0,0,0,0,0,0,0,0,2147491874,0,0,0,0,0,0,0,0,0,0,0,0,0,0,0,0,0,0,2147491876,0,0,0,0,2147491887,2147491886,0,0,0,0,0,0,0,0,0,8248,0,0,0,8234,8234,8234,8234,8234,8234,8234,8234,8234,8234,8234,8234,8234,8234,8234,8234,0,
0,0,8234,8234,8234,8234,8234,8234,8234,8234,8234,8234,8234,8234,8234,8234,8234,8234,8234,8234,8234,8234,8234,8234,8234,8234,8234,8234,8234,8234,8234,8234,8234,8234,8234,8234,8234,8234,0,0,0,0,8248,0,0,0,0,0,0,8234,8234,8234,8234,8234,8234,8234,8234,0,0,0,0,0,0,0,8225,8234,8234,8234,8234,8235,0,0,0,0,0,0,8248,8248,0,0,0,0,0,0,0,0,0,0,0,0,0,0,0,0,0,0,0,0,0,0,0,0,0,0,0,0,0,0,0,0,0,0,0,0,0,0,0,0,0,0,0,0,0,0,0,0,0,0,0,0,0,0,0,0,0,8248,0,0,0,0,8234,8234,8234,8234,8234,8234,8234,8234,8234,8234,8234,8234,8234,8234,8234,8234,
0,0,8234,8234,8234,8234,8234,8234,8234,8234,8234,8234,8234,8234,8234,8234,8234,8234,8234,8234,8234,8234,8234,8234,8234,8234,8234,8234,8234,8234,8234,8234,8234,8234,8234,8234,8234,0,0,0,0,0,0,0,0,0,0,0,8234,8234,8234,8234,8234,8234,8234,8234,8234,8234,0,0,0,0,0,0,8233,8234,8234,8234,8234,8236,0,0,0,0,0,0,0,0,0,0,0,0,0,8314,0,0,0,0,0,0,2147491876,0,0,0,0,0,0,0,0,0,0,0,0,0,0,0,0,0,0,0,0,0,0,0,0,0,0,0,0,0,0,0,0,0,0,0,0,0,0,0,0,0,0,0,0,0,0,0,0,0,0,8234,8234,8234,8234,8234,8234,8234,8234,8234,8234,8234,8234,8234,8234,8234,
0,0,8234,8234,8234,8234,8234,8234,8234,8234,8234,8234,8234,8234,8234,8234,8234,8234,8234,8234,8234,8234,8234,8234,8234,8234,8234,8234,8234,8234,0,8234,8234,8234,8234,8234,0,0,0,0,0,8248,0,0,0,0,8234,8234,8234,8234,8234,8234,8234,8234,8234,8234,8234,8234,8234,0,0,0,0,0,0,0,0,0,0,0,0,0,0,0,0,0,0,0,0,0,0,0,0,0,0,0,0,0,0,0,2147491874,0,0,0,0,0,0,0,0,0,0,0,0,0,0,0,0,0,0,0,0,0,0,0,0,0,0,0,0,0,0,0,0,0,0,0,0,0,0,0,0,0,0,0,0,0,0,0,0,0,0,8234,8234,8234,8234,8234,8234,8234,8234,8234,8234,8234,8234,8234,8234,8234,
0,0,8234,8234,8234,8234,8234,8234,8234,8234,8234,8234,8234,8234,8234,8234,8234,8234,8234,8234,8234,8234,8234,8234,8234,8234,8234,8234,8234,8234,8234,8234,8234,8234,8234,8234,0,0,0,0,0,0,0,0,0,8234,8234,8234,8234,8234,8234,8234,8234,8234,8234,8234,8234,8234,8234,0,0,0,0,0,0,0,0,0,8290,0,0,0,0,0,0,0,0,0,0,0,0,0,0,0,0,0,0,0,0,0,0,0,0,0,0,0,0,0,0,0,0,0,0,0,0,0,0,2147491876,0,0,0,0,0,0,0,0,0,0,0,0,0,0,0,0,0,0,0,0,0,0,0,0,0,0,0,0,0,0,0,0,0,8234,8234,8234,8234,8234,8234,8234,8234,8234,8234,8234,8234,8234,8234,8234,
0,0,8234,8234,8234,8234,8234,8234,8234,8234,8234,8234,8234,8234,8234,8234,8234,8234,8234,8234,8234,8234,8234,8234,8234,8234,8234,8234,8234,8234,8234,8234,8234,8234,8234,8234,8234,0,0,0,0,0,0,0,8234,8234,8234,8234,8234,8234,8234,8234,8234,8234,8234,8234,8234,8234,8234,0,0,0,0,0,0,0,0,8285,0,0,0,0,8290,0,0,0,0,0,0,0,0,0,0,0,0,0,0,0,0,0,0,8248,0,0,0,0,0,0,0,0,0,0,0,0,0,0,0,0,0,0,0,0,0,0,0,0,0,0,0,0,0,0,0,0,0,0,0,0,0,0,0,2147491875,0,0,0,0,0,0,0,0,0,0,8234,8234,8234,8234,8234,8234,8234,8234,8234,8234,8234,8234,8234,8234,
0,0,8234,8234,8234,8234,8234,8234,8234,8234,8234,8234,8234,8234,8234,8234,8234,8234,8234,8234,8234,8234,8234,8234,8234,8234,8234,8234,8234,0,0,8234,8234,8234,8234,8234,8234,8234,8234,8234,8234,8234,8234,8234,8234,8234,8234,8234,8234,8234,8234,8234,8234,8234,8234,8234,8234,8234,8234,8234,0,0,0,0,0,0,0,0,8300,8300,0,8285,0,0,0,0,8290,0,0,0,0,0,0,0,0,0,0,0,0,0,0,0,0,0,0,0,2147491876,2147491876,0,0,0,0,0,0,0,0,0,0,0,0,0,0,0,0,0,0,0,0,0,0,0,0,0,0,0,0,0,0,0,0,0,0,0,0,0,2147491876,2147491876,0,0,0,0,0,8234,8234,8234,8234,8234,8234,8234,8234,8234,8234,8234,8234,8234,8234,
0,0,8234,8234,8234,8234,8234,8234,8234,8234,8234,8234,8234,8234,8234,8234,8234,8234,8234,8234,8234,8234,8234,8234,8234,8234,8234,8234,0,0,0,0,8234,8234,8234,8234,8234,8234,8234,8234,8234,8234,8234,8234,8234,8234,8234,8234,8234,8234,8234,8234,8234,8234,8234,8234,8234,8234,8234,8234,8234,8234,8234,0,0,0,0,0,8314,0,0,0,0,0,0,0,0,0,0,0,0,0,0,0,0,0,0,0,0,0,0,0,2147491889,0,0,0,0,0,0,0,0,0,0,0,0,0,0,0,0,0,0,0,0,0,0,0,0,0,0,0,0,0,0,0,0,0,0,0,0,0,0,0,0,0,0,0,2147491874,0,0,0,0,0,0,8234,8234,8234,8234,8234,8234,8234,8234,8234,8234,8234,8234,8234,
0,0,8234,8234,8234,8234,8234,8234,8234,8234,8234,8234,8234,8234,8234,8234,8234,8234,8234,8234,8234,8234,8234,8234,8234,8234,8234,0,0,0,0,0,8234,8234,8234,8234,8234,8234,8234,8234,8234,8234,8234,8234,8234,8234,8234,8234,0,8234,8234,8234,8234,8234,8234,8234,8234,8234,8234,8234,8234,8234,8234,8234,8234,0,0,0,0,0,0,8285,0,8302,0,8300,8300,8300,0,0,0,0,0,0,8290,0,0,0,0,0,0,0,0,0,0,0,0,0,0,0,0,0,0,0,0,0,0,0,0,0,0,0,0,0,0,0,0,0,0,0,0,0,0,0,0,0,0,0,0,0,0,0,0,0,0,0,2147491889,0,0,0,0,0,0,0,0,8234,8234,8234,8234,8234,8234,8234,8234,8234,8234,8234,
0,0,8234,8234,8234,8234,8234,8234,8234,8234,8234,8234,8234,8234,8234,8234,8234,8234,8234,8234,0,0,0,0,0,0,0,0,0,0,0,0,0,8234,8234,8234,8234,8234,8234,8234,8234,8234,8234,8234,8234,8234,8234,8234,8234,8234,8234,8234,8234,8234,8234,8234,8234,8234,8234,8234,8234,8234,8234,8234,8234,0,0,0,0,0,0,0,0,0,8286,0,0,0,8285,0,0,0,0,0,0,0,0,0,0,0,0,0,0,0,0,0,0,0,0,0,0,0,0,0,0,0,0,0,0,0,0,0,0,0,0,0,0,0,0,0,2147491887,2147491886,0,0,0,0,0,0,0,0,0,0,0,0,0,8238,8239,0,8248,8248,0,0,0,0,0,0,8234,8234,8234,8234,8234,8234,8234,8234,8234,8234,
0,0,8234,8234,8234,8234,8234,8234,8234,8234,8234,8234,8234,8234,8234,8234,8234,8234,8234,0,8125,8126,8126,8126,8126,8126,8126,8126,8126,8126,8126,8127,0,8234,8234,8234,8234,8234,8234,8234,8234,8234,8234,8234,8234,8234,8234,8234,8234,8234,8234,8234,8234,8234,8234,8234,8234,8234,8234,8234,8234,8234,8234,8234,8234,8234,8234,8234,0,0,0,0,0,8297,8312,8298,0,8302,0,0,0,0,8445,0,0,0,0,0,0,0,0,0,0,0,0,0,0,0,0,0,0,0,0,0,0,0,0,0,0,0,0,0,0,0,0,0,2147491875,0,0,0,0,0,0,2147491889,0,0,0,0,0,0,0,0,0,0,0,0,0,0,0,8248,0,0,0,0,0,0,8234,8234,8234,8234,8234,8234,8234,8234,8234,8234,
0,0,8234,8234,8234,8234,8234,8234,8234,8234,8234,8234,8234,8234,8234,8234,8234,0,0,8125,0,0,0,8134,8134,8134,8134,8134,8134,8134,0,0,8127,0,0,8234,8234,8234,8234,8234,8234,8234,8234,8234,8234,8234,8234,8234,8234,8234,8234,8234,8234,8234,8234,8234,8234,8234,8234,8234,8234,8234,8234,8234,8234,8234,8234,8234,0,0,0,0,8286,8309,8288,8310,0,0,0,0,0,0,0,0,8285,0,0,0,0,0,0,0,0,0,0,0,0,0,0,0,0,0,0,0,0,0,0,0,0,0,0,0,0,0,0,0,0,0,0,0,0,0,0,0,0,0,0,0,0,0,0,0,0,0,0,0,0,0,0,0,0,0,0,0,0,8234,8234,8234,8234,8234,8234,8234,8234,8234,8234,0,
0,0,8234,8234,8234,8234,8234,8234,8234,8234,8234,8234,8234,8234,8234,8234,0,0,8125,0,0,0,0,8134,8134,8134,8134,8134,8134,8134,8134,0,8135,0,0,8234,8234,8234,8234,8234,8234,8234,8234,8234,8234,8234,8234,8234,8234,8234,8234,8234,8234,8234,8234,8234,8234,8234,8234,8234,8234,8234,8234,8234,8234,8234,8234,8234,8234,0,0,0,0,0,8302,0,0,8300,8300,0,0,0,0,0,0,8300,8300,8300,0,0,0,0,0,0,0,0,0,0,0,0,0,0,0,0,0,0,0,0,0,0,0,0,0,0,0,8248,0,0,0,0,0,0,0,0,0,0,0,0,0,0,0,0,0,0,0,0,0,0,0,0,0,0,0,0,0,8234,8234,8234,8234,8234,8234,8234,8234,8234,8234,0,
0,0,8234,8234,8234,8234,8234,8234,8234,8234,8234,8234,8234,8234,0,0,0,8125,0,0,8134,8134,8134,8134,8134,8134,8134,8134,8134,8134,8134,0,8135,0,2147491882,8234,8234,8234,8234,8234,8234,8234,8234,8234,8234,8234,8234,8234,8234,8234,8234,8234,8234,8234,8234,8234,8234,8234,8234,8234,8234,8234,8234,8234,8234,8234,8234,8234,8234,8234,0,0,8314,0,0,0,0,0,0,0,0,8234,8234,0,0,0,0,0,0,0,0,0,0,0,0,0,0,0,0,0,0,0,0,0,0,0,0,0,0,0,0,0,0,2147491874,0,0,0,0,0,0,0,0,0,0,0,0,0,0,0,0,0,0,0,0,0,0,0,0,0,0,0,0,0,0,0,8234,8234,8234,8234,8234,8234,8234,8234,8234,8234,0,
0,0,8234,8234,8234,8234,8234,8234,8234,8234,8234,8234,8234,8234,0,8125,8126,0,8134,8134,8134,8134,8134,8134,8134,8134,8134,8134,8134,8134,0,0,8135,0,0,8234,8234,8234,8234,8234,8234,8234,8234,8234,8234,8234,8234,8234,8234,8234,8234,8234,8234,8234,8234,8234,8234,8234,8234,8234,8234,8234,8234,8234,8234,8234,8234,8234,8234,8234,0,0,0,0,0,0,0,0,0,0,0,0,0,0,0,0,0,8302,0,0,0,0,0,0,0,0,0,0,0,0,0,0,0,0,0,0,0,0,2147491889,0,0,0,0,2147491887,2147491886,0,0,0,0,2147491888,0,0,0,0,0,0,0,0,0,0,0,0,0,0,0,0,0,0,0,0,8248,0,0,0,0,8234,8234,8234,8234,8234,8234,8234,8234,8234,8234,0,
0,0,8234,8234,8234,8234,8234,8234,8234,8234,8234,0,8234,0,8125,0,8134,8134,8134,8134,8134,8134,8134,8134,8134,8134,8134,8134,8134,8134,0,0,8127,0,0,8234,8234,8234,8234,8234,8234,8234,8234,8234,8234,8234,8234,8234,8234,8234,8234,8234,8234,8234,8234,8234,8234,8234,8234,8234,8234,8234,8234,8234,8234,8234,8234,8234,8234,8234,0,0,0,0,0,8300,8300,8300,0,0,0,0,0,0,0,0,8300,8300,8300,0,0,0,0,0,0,0,0,0,0,0,0,0,0,0,0,0,0,0,0,0,0,0,0,0,0,0,0,0,0,2147491874,0,0,0,0,0,0,0,0,0,0,0,0,0,0,0,0,0,0,2147491875,2147491889,8248,0,0,0,0,8234,8234,8234,8234,8234,8234,8234,8234,8234,8234,0,
0,0,8234,8234,8234,8234,8234,8234,8234,8234,8234,8234,0,8125,0,0,8134,8134,8134,8134,8134,8134,8134,8134,8134,8134,8134,8134,8134,8134,8134,0,8135,0,0,8234,8234,8234,8234,8234,8234,8234,8234,8234,8234,8234,8234,8234,8234,8234,8234,8234,8234,8234,8234,8234,8234,8234,8234,8234,8234,8234,8234,8234,8234,8234,8234,8234,8234,8234,8234,0,0,0,0,0,0,0,8302,8286,8286,0,0,0,0,0,8286,0,0,0,0,0,0,0,0,0,0,0,0,0,0,0,0,0,0,0,0,0,0,0,0,0,0,0,2147491874,0,0,0,0,0,0,0,0,0,0,0,0,0,0,0,0,0,0,0,0,0,0,0,0,0,0,8248,8221,0,0,8234,8234,8234,8234,8234,8234,8234,8234,8234,8234,0,
0,0,8234,8234,8234,8234,8234,8234,8234,8234,8234,8234,0,8133,0,0,8134,8134,8134,8134,8134,8134,8134,8134,8134,8134,8134,8134,8134,8134,8134,0,8135,0,0,0,8234,8234,8234,8234,8234,8234,8234,8234,8234,8234,8234,0,0,8234,8234,8234,8234,8234,8234,8234,8234,8234,8234,2147491882,8234,8234,8234,8234,8234,8234,8234,8234,8234,8234,8234,0,0,0,0,0,8286,0,0,0,0,0,8300,8300,8300,0,0,0,8286,0,0,0,0,0,0,0,0,0,0,0,0,0,0,0,0,0,0,0,0,0,0,0,0,2147491889,2147491888,0,0,0,0,0,0,0,0,0,0,0,0,0,0,0,0,0,0,0,0,0,0,0,0,0,0,8248,0,0,0,8234,8234,8234,8234,8234,8234,8234,8234,8234,8234,0,
0,0,8234,8234,8234,8234,8234,8234,8234,8234,8234,0,0,8133,0,8134,8134,8134,8134,8134,8134,8134,8134,8134,8134,8134,8134,8134,8134,8134,8134,8134,0,8127,0,0,8234,8234,8234,8234,8234,8234,8234,8234,8234,8234,8234,2147491882,8234,8234,8234,8234,8234,8234,8234,8234,8234,8234,8234,8234,8234,8234,8234,8234,8234,8234,8234,8234,8234,8234,8234,8234,0,0,0,0,8314,0,0,0,0,8302,0,0,0,0,0,8302,0,0,0,0,0,0,0,0,0,0,0,0,0,0,0,8290,0,0,8290,0,0,0,0,0,0,0,0,0,0,0,0,0,0,0,0,0,0,0,0,0,0,0,0,0,0,0,0,0,0,0,0,0,0,0,0,0,0,8234,8234,8234,8234,8234,8234,8234,8234,8234,8234,0,
0,0,8234,8234,8234,8234,8234,8234,8234,8234,8234,0,0,8133,0,8134,8134,8134,8134,8134,8134,8134,8134,8134,8134,8134,8134,8134,8134,8134,8134,8134,8134,8135,0,0,8234,8234,8234,8234,8234,8234,8234,8234,8234,8234,8234,2147491882,8234,8234,8234,8234,8234,8234,8234,8234,8234,8234,8234,8234,8234,8234,8234,8234,8234,8234,8234,8234,8234,8234,8234,8234,8234,0,0,0,0,0,0,8300,8300,8300,0,8285,0,8297,8298,0,0,0,0,0,0,0,0,0,0,0,0,0,0,0,0,0,0,0,0,0,0,0,0,0,0,0,0,0,0,0,0,0,0,0,0,0,0,0,0,2147491875,0,0,0,0,0,0,0,0,2147491874,0,8238,8239,0,0,0,0,0,2147491882,8234,8234,8234,8234,8234,8234,8234,8234,8234,0,
0,8234,8234,8234,8234,8234,8234,8234,8234,8234,0,0,0,8133,0,8134,8134,8134,8134,8134,8134,8134,8134,8134,8134,8134,8134,8134,8134,8134,8134,8134,8134,8134,8126,8127,0,0,8234,8234,8234,8234,8234,8234,8234,8234,8234,8234,8234,8234,8234,8234,8234,8234,8234,8234,8234,8234,8234,8234,8234,8234,8234,8234,8234,8234,8234,8234,8234,8234,8234,8234,8234,0,0,0,0,0,0,0,0,0,8300,8300,0,8309,8310,0,0,0,0,0,0,8290,0,8290,0,0,0,8290,0,0,8302,0,0,0,2147492093,0,0,0,0,0,0,0,0,0,0,0,0,0,0,0,0,0,2147491887,2147491886,0,0,0,0,0,0,0,0,0,0,2147491889,0,8238,8239,0,8221,0,0,0,8234,8234,8234,8234,8234,8234,8234,8234,8234,8234,0,
0,8234,8234,8234,8234,8234,8234,8234,0,0,0,0,8125,0,0,8134,8134,8134,8134,8134,8134,8134,8134,8134,8134,8134,8134,8134,8134,8134,8134,8134,8134,8134,8134,0,8127,0,0,0,0,0,2147491882,8234,8234,8234,8234,8234,8234,8234,8234,8234,8234,0,8234,8234,8234,8234,8234,8234,8234,8234,8234,8234,8234,8234,8234,8234,8234,8234,8234,8234,8234,0,0,0,0,0,0,0,0,8286,0,8300,8300,0,0,0,0,0,8286,0,0,0,0,0,0,0,0,0,0,0,8302,0,8300,8300,0,0,0,0,0,0,0,0,2147491874,0,0,0,0,0,0,0,0,0,2147491887,2147491886,0,0,0,0,0,0,0,0,0,0,0,0,0,0,0,0,0,0,0,8234,8234,8234,8234,8234,8234,8234,8234,8234,8234,0,
0,8234,8234,8234,8234,8234,8234,0,0,8125,8126,8126,8134,8134,8134,8134,8134,8134,8134,8134,8134,8134,8134,8134,8134,8134,8134,8134,8134,8134,8134,8134,8134,8134,8134,8134,0,8126,8127,0,0,0,0,8234,8234,8234,8234,8234,8234,8234,8234,8234,8234,8234,0,8234,8234,8234,8234,8234,8234,8234,8234,8234,8234,8234,8234,8234,8234,8234,8234,8234,8234,8234,8234,8234,8234,0,0,0,0,0,0,8286,8300,8300,8300,8300,0,0,0,0,0,0,0,0,0,0,0,8285,0,8285,0,0,0,0,0,0,0,0,0,0,0,0,0,0,0,0,0,0,0,0,0,0,0,0,0,0,2147491876,0,0,0,0,0,0,0,0,0,0,0,0,0,0,0,8234,8234,8234,8234,8234,8234,8234,8234,8234,8234,8234,0,
0,8234,8234,8234,8234,0,0,0,8125,0,0,8137,0,8134,8134,8134,8134,8134,8134,8134,8134,8134,8134,8134,8134,8134,8134,8134,8134,8134,8134,8134,8134,8134,8134,8134,8134,8134,0,8126,8127,0,0,8234,8234,8234,8234,8234,8234,8234,8234,8234,8234,8234,0,8234,8234,8234,8234,8234,8234,8234,8234,8234,8234,8234,8234,8234,8234,8234,8234,8234,8234,8234,8234,8234,8234,0,0,0,0,0,0,0,0,0,0,0,0,0,0,0,0,8234,8234,8234,8234,0,0,0,0,8300,8300,0,0,8314,0,0,0,0,0,0,0,0,0,0,0,0,0,0,0,0,0,0,0,0,0,0,0,0,0,0,0,0,0,0,0,0,0,0,0,0,0,0,8234,8234,8234,8234,8234,8234,8234,8234,8234,8234,8234,0,
0,0,0,0,0,0,8125,8126,0,8134,8134,8134,8134,8134,8134,8134,8134,8134,8134,8134,8134,8134,8134,8134,8134,8134,8134,8134,8134,8134,8134,8134,8134,8134,8134,8134,8134,8134,8134,8134,0,8127,0,0,0,0,2147491882,8234,8234,8234,8234,8234,8234,8234,8234,8234,8234,8234,8234,2147491882,8234,8234,8234,8234,8234,8234,8234,8234,8234,8234,8234,8234,8234,8234,8234,8234,8234,8234,0,0,0,0,0,0,8302,0,8285,0,0,0,0,8234,8234,0,0,0,8234,0,0,0,0,0,0,0,0,0,0,0,0,0,0,0,0,0,0,0,2147491874,2147491889,0,0,0,0,0,0,0,0,0,0,0,0,0,0,0,2147491888,0,0,0,0,0,0,0,0,0,8234,8234,8234,8234,8234,8234,8234,8234,8234,8234,8234,8234,0,
0,0,0,0,8125,8126,0,0,8134,8134,8134,8134,8134,8134,8134,8134,8134,8134,8134,8134,8134,8134,8134,8134,8134,8134,8134,8134,8134,8134,8134,8134,8134,8134,8134,8134,8134,8134,8134,8134,8134,0,8126,8127,0,0,0,8234,8234,8234,8234,8234,8234,8234,8234,8234,8234,8234,8234,0,8234,8234,8234,8234,8234,8234,8234,8234,8234,8234,8234,8234,8234,8234,8234,8234,8234,8234,0,0,0,0,0,8286,0,0,0,0,0,0,0,8234,8234,8234,8234,8234,8234,0,0,0,0,0,0,0,0,0,8234,8234,8234,8234,0,0,0,0,0,0,0,0,0,0,0,0,0,0,0,0,0,0,0,0,0,0,2147491889,2147491876,0,0,0,0,0,0,0,8234,8234,8234,8234,8234,8234,8234,8234,8234,8234,8234,8234,8234,8234,0,
0,0,8125,8126,0,0,8134,8134,8134,8134,8134,8134,8134,8134,8134,8134,8134,8134,8134,8134,8134,8134,8134,8134,8134,8134,8134,8134,8134,8134,8134,8134,8134,8134,8134,8134,8134,8134,8134,8134,8134,0,8137,0,8126,8127,0,0,0,0,8234,8234,8234,8234,8234,8234,8234,8234,8234,0,8234,8234,8234,8234,8234,8234,8234,8234,8234,8234,8234,8234,8234,8234,8234,8234,8234,8234,8234,8234,8234,0,0,0,0,8300,8300,0,0,0,0,0,0,0,0,0,0,0,0,0,0,8302,0,8285,0,0,8234,8234,8234,8234,0,0,0,0,0,0,0,0,0,0,0,0,0,0,0,0,2147491889,0,0,0,0,0,0,0,0,0,0,0,0,0,0,8234,8234,8234,8234,8234,8234,8234,8234,8234,8234,8234,8234,8234,8234,0,
0,8125,0,0,0,8134,8134,8134,8134,8134,8134,8134,8134,8134,8134,8134,8134,8134,8134,8134,8134,8134,8134,8134,8134,8134,8134,8134,8134,8134,8134,8134,8134,8134,8134,8134,8134,8134,8134,8134,8134,8134,8134,8134,0,0,8127,0,0,0,8234,8234,8234,8234,8234,8234,8234,8234,8234,8234,8234,8234,8234,8234,8234,8234,8234,8234,8234,8234,8234,8234,8234,8234,8234,8234,8234,8234,8234,8234,8234,0,0,0,8286,0,2147492093,0,0,0,0,0,0,0,0,0,0,0,0,8285,0,0,0,0,0,0,8234,8234,8234,8234,0,0,0,0,0,0,8248,0,0,0,0,0,0,0,0,0,0,0,0,0,0,0,0,0,0,8248,0,0,0,0,8234,8234,8234,8234,8234,8234,8234,8234,8234,8234,8234,8234,8234,8234,8234,0,
0,8133,0,8134,8134,8134,8134,8134,8134,8134,8134,8134,8134,8134,8134,8134,8134,8134,8134,8134,8134,8134,8134,8134,8134,8134,8134,8134,8134,8134,8134,8134,8134,8134,8134,8134,8134,8134,8134,8134,8134,8134,8134,8134,8134,0,0,8127,0,0,0,8234,8234,8234,8234,8234,8234,8234,8234,8234,8234,8234,8234,8234,8234,8234,8234,8234,8234,8234,8234,8234,8234,8234,8234,8234,8234,8234,8234,8234,8234,8234,0,0,0,0,8302,0,0,8300,8300,8300,8300,8300,8300,0,0,0,0,0,0,8445,0,8285,0,0,8234,8234,8234,8234,8234,8234,0,0,0,0,0,0,0,0,0,0,0,0,0,0,0,0,8238,8239,0,0,0,0,0,0,0,0,0,0,8234,8234,8234,8234,8234,8234,8234,8234,8234,8234,8234,8234,8234,8234,8234,0,
8125,0,8134,8134,8134,8134,8134,8134,8134,8134,8134,8134,8134,8134,8134,8134,8134,8134,8134,8134,8134,8134,8134,8134,8134,8134,8134,8134,8134,8134,8134,8134,8134,8134,8134,8134,8134,8134,8134,8134,8134,8134,8134,8134,8134,8134,0,0,8127,0,0,0,8234,8234,8234,8234,8234,8234,8234,8234,8234,8234,8234,8234,8234,8234,8234,8234,8234,8234,8234,8234,8234,8234,8234,8234,8234,8234,8234,8234,8234,8234,0,0,0,0,0,0,0,0,0,0,0,8285,0,0,8285,0,8300,8300,0,0,0,0,0,0,0,8234,8234,8234,8234,8234,0,0,0,0,0,0,0,0,0,0,0,0,0,0,0,0,8238,8239,2147491889,0,0,0,0,0,8234,8234,8234,8234,8234,8234,8234,8234,8234,8234,8234,8234,8234,8234,8234,8234,8234,8234,8234,0,
0,0,8134,8134,8134,8134,8134,8134,8134,8134,8134,8134,8134,8134,8134,8134,8134,8134,8134,8134,8134,8134,8134,8134,8134,8134,8134,8134,8134,8134,8134,8134,8134,8134,8134,8134,8134,8134,8134,8134,8134,8134,8134,8134,8134,8134,8134,0,0,8127,0,0,8234,8234,8234,8234,8234,8234,8234,8234,8234,8234,8234,8234,8234,8234,8234,8234,8234,8234,8234,8234,8234,8234,8234,8234,8234,8234,8234,8234,8234,8234,0,0,0,0,0,0,8300,0,0,8445,0,0,0,8314,0,0,8314,0,0,0,0,0,0,0,0,8234,8234,8234,8234,8234,0,0,0,0,0,0,0,0,0,0,0,2147491875,0,0,0,0,0,2147491876,2147491874,0,0,0,0,0,8234,8234,8234,8234,8234,8234,8234,8234,8234,8234,8234,8234,8234,8234,8234,8234,8234,8234,8234,0,
0,8134,8134,8134,8134,8134,8134,8134,8134,8134,8134,8134,8134,8134,8134,8134,8134,8134,8134,8134,8134,8134,8134,8134,8134,8134,8134,8134,8134,8134,8134,8134,8134,8134,8134,8134,8134,8134,8134,8134,8134,8134,8134,8134,8134,8134,8134,8134,0,0,8127,0,0,8234,8234,8234,8234,8234,8234,8234,8234,8234,8234,8234,8234,8234,8234,8234,8234,8234,8234,8234,8234,8234,8234,8234,8234,8234,8234,8234,8234,8234,0,0,0,0,0,8314,0,0,0,0,8286,0,0,0,0,0,0,0,0,0,0,8285,0,0,0,8234,8234,8234,8234,8234,2147491882,0,0,0,0,0,0,8248,0,0,0,0,0,0,0,0,0,0,0,0,0,0,0,0,8234,8234,8234,8234,8234,8234,8234,8234,8234,8234,8234,8234,8234,8234,8234,8234,8234,8234,8234,0,
0,8134,8134,8134,8134,8134,8134,8134,8134,8134,8134,8134,8134,8134,8134,8134,8134,8134,8134,8134,8134,8134,8134,8134,8134,8134,8134,8134,8134,8134,8134,8134,8134,8134,8134,8134,8134,8134,8134,8134,8134,8134,8134,8134,8134,8134,8134,8134,8134,0,8135,0,0,8234,8234,8234,8234,8234,8234,8234,8234,8234,8234,8234,8234,8234,8234,8234,8234,8234,8234,8234,8234,8234,8234,8234,8234,8234,8234,8234,8234,8234,0,0,0,0,0,0,0,0,0,0,0,0,0,0,0,0,0,0,0,0,8314,0,0,0,0,8234,8234,8234,8234,8234,2147491882,2147491882,0,0,0,0,0,0,0,0,0,0,0,0,8248,0,0,0,8248,0,0,0,0,0,8234,8234,8234,8234,8234,8234,8234,8234,8234,8234,8234,8234,8234,8234,8234,8234,8234,8234,8234,0,
0,8134,8134,8134,8134,8134,8134,8134,8134,8134,8134,8134,8134,8134,8134,8134,8134,8134,8134,8134,8134,8134,8134,8134,8134,8134,8134,8134,8134,8134,8134,8134,8134,8134,8134,8134,8134,8134,8134,8134,8134,8134,8134,8134,8134,8134,8134,8134,8134,8134,0,8127,0,0,8234,8234,8234,8234,8234,8234,8234,8234,8234,8234,8234,8234,8234,8234,8234,8234,8234,8234,8234,8234,8234,8234,8234,8234,8234,8234,8234,8234,2147491882,8234,8234,8234,8234,8234,8234,0,0,0,8314,0,8234,8234,8234,8234,8234,8234,8234,8234,8234,8234,8234,8234,8234,8234,8234,8234,8234,8234,8234,8234,8234,8234,0,0,0,0,0,0,0,0,0,0,0,0,0,0,0,0,0,0,8234,8234,8234,8234,8234,8234,8234,8234,8234,8234,8234,8234,8234,8234,8234,8234,8234,8234,8234,8234,8234,0,
0,8134,8134,8134,8134,8134,8134,8134,8134,8134,8134,8134,8134,8134,8134,8134,8134,8134,8134,8134,8134,8134,8134,8134,8134,8134,8134,8134,8134,8134,8134,8134,8134,8134,8134,8134,8134,8134,8134,8134,8134,8134,8134,8134,8134,8134,8134,8134,8134,8134,8134,0,8127,0,0,8234,8234,8234,8234,8234,8234,8234,8234,8234,8234,8234,8234,8234,8234,8234,8234,8234,8234,8234,8234,8234,8234,0,8234,8234,8234,8234,8234,8234,8234,8234,8234,8234,8234,8234,8234,8234,8234,8234,8234,8234,8234,8234,8234,8234,8234,8234,8234,8234,8234,8234,8234,8234,8234,8234,8234,8234,8234,8234,8234,8234,8234,0,0,0,0,0,0,0,0,0,0,0,0,0,0,0,0,0,8234,8234,8234,8234,8234,8234,8234,8234,8234,8234,8234,8234,8234,8234,8234,8234,8234,8234,8234,8234,8234,0,
0,8134,8134,8134,8134,8134,8134,8134,8134,8134,8134,8134,8134,8134,8134,8134,8134,8134,8134,8134,8134,8134,8134,8134,8134,8134,8134,8134,8134,8134,8134,8134,8134,8134,8134,8134,8134,8134,8134,8134,8134,8134,8134,8134,8134,8134,8134,8134,8134,8134,8134,0,8135,0,0,8234,8234,8234,8234,8234,8234,8234,8234,8234,8234,8234,8234,8234,8234,8234,8234,8234,8234,8234,8234,8234,8234,8234,8234,8234,8234,8234,8234,8234,8234,8234,8234,8234,8234,8234,8234,8234,8234,8234,8234,8234,8234,8234,8234,8234,8234,8234,8234,8234,8234,8234,8234,8234,8234,8234,8234,8234,8234,8234,8234,8234,8234,8234,8234,8234,0,0,0,0,0,0,0,0,0,0,8234,8234,8234,8234,8234,8234,8234,8234,8234,8234,8234,8234,8234,8234,8234,8234,8234,8234,8234,8234,8234,8234,8234,8234,8234,0,
0,8134,8134,8134,8134,8134,8134,8134,8134,8134,8134,8134,8134,8134,8134,8134,8134,8134,8134,8134,8134,8134,8134,8134,8134,8134,8134,8134,8134,8134,8134,8134,8134,8134,8134,8134,8134,8134,8134,8134,8134,8134,8134,8134,8134,8134,8134,8134,8134,8134,8134,0,0,8127,0,0,8234,8234,8234,8234,8234,8234,8234,8234,8234,8234,8234,8234,8234,8234,8234,8234,8234,8234,8234,8234,8234,8234,8234,8234,8234,8234,8234,8234,8234,8234,8234,8234,8234,8234,8234,8234,8234,8234,8234,8234,8234,8234,8234,8234,8234,8234,8234,8234,8234,8234,8234,8234,8234,8234,8234,8234,8234,8234,8234,8234,8234,8234,8234,8234,8234,8234,8234,8234,8234,8234,8234,8234,8234,8234,8234,8234,8234,8234,8234,8234,8234,8234,8234,8234,8234,8234,8234,8234,8234,8234,8234,8234,8234,8234,8234,8234,8234,8234,8234,0,
0,8134,8134,8134,8134,8134,8134,8134,8134,8134,8134,8134,8134,8134,8134,8134,8134,8134,8134,8134,8134,8134,8134,8134,8134,8134,8134,8134,8134,8134,8134,8134,8134,8134,8134,8134,8134,8134,8134,8134,8134,8134,8134,8134,8134,8134,8134,8134,8134,8134,8134,8134,8134,0,8127,0,0,8234,8234,8234,8234,8234,8234,8234,8234,8234,8234,8234,8234,8234,8234,8234,8234,8234,8234,8234,8234,8234,8234,8234,8234,8234,8234,8234,8234,8234,8234,8234,8234,8234,8234,8234,8234,8234,8234,8234,8234,8234,0,0,0,0,0,0,8234,8234,8234,8234,8234,8234,8234,8234,8234,8234,8234,8234,8234,8234,8234,8234,8234,8234,8234,8234,8234,8234,8234,8234,8234,8234,8234,8234,8234,8234,8234,8234,8234,8234,8234,8234,8234,8234,8234,8234,8234,8234,8234,8234,8234,8234,8234,8234,8234,8234,8234,0,
0,8134,8134,8134,8134,8134,8134,8134,8134,8134,8134,8134,8134,8134,8134,8134,8134,8134,8134,8134,8134,8134,0,8134,8134,8134,8134,8134,8134,8134,8134,8134,8134,8134,8134,8134,8134,8134,8134,8134,8134,8134,8134,8134,8134,8134,8134,8134,8134,8134,8134,8134,8134,8134,0,8127,0,0,8234,8234,8234,8234,8234,8234,8234,8234,8234,8234,8234,8234,8234,8234,8234,8234,8234,8234,8234,8234,8234,8234,8234,2147491882,8234,8234,8234,8234,8234,8234,8234,8234,8234,8234,8234,8234,8234,8234,8234,8234,0,0,0,0,0,0,8234,8234,8234,8234,8234,8234,8234,8234,8234,8234,8234,8234,8234,8234,8234,8234,8234,8234,8234,8234,8234,8234,8234,8234,8234,8234,8234,8234,8234,8234,8234,8234,8234,8234,8234,8234,8234,8234,8234,8234,8234,8234,8234,8234,8234,8234,8234,8234,8234,8234,8234,0,
0,8134,8134,8134,8134,8134,8134,8134,8134,8134,8134,8134,8134,8134,8134,8134,8134,8134,8134,8134,8134,8134,8134,8134,8134,8134,8134,8134,8134,8134,8134,8134,8134,8134,8134,8134,8134,8134,8134,8134,8134,8134,8134,8134,8134,8134,8134,8134,8134,8134,8134,8134,8134,8134,8134,0,8127,0,0,0,8234,8234,8234,8234,8234,8234,8234,8234,8234,8234,8234,8234,8234,8234,8234,8234,8234,8234,8234,8234,8234,8234,8234,8234,8234,8234,0,8234,8234,8234,8234,8234,8234,8234,8234,8234,8234,8234,8234,8234,8234,8234,8234,8234,8234,8234,8234,8234,8234,8234,8234,8234,8234,8234,8234,8234,8234,8234,8234,8234,8234,8234,8234,8234,8234,8234,8234,8234,8234,8234,8234,8234,8234,8234,8234,8234,8234,8234,8234,8234,8234,8234,8234,8234,8234,8234,8234,8234,8234,8234,8234,8234,8234,8234,8234,0,
0,8134,8134,8134,8134,8134,8134,8134,8134,8134,8134,8134,8134,8134,8134,8134,8134,8134,8134,8134,8134,8134,8134,8134,8134,8134,8134,8134,8134,8134,8134,8134,8134,8134,8134,8134,8134,8134,8134,8134,8134,8134,8134,8134,8134,8134,8134,8134,8134,8134,8134,8134,8134,8134,8134,0,8135,0,0,0,0,8234,8234,8234,8234,8234,8234,8234,8234,8234,8234,8234,8234,8234,8234,8234,8234,8234,8234,8234,8234,8234,8234,8234,8234,8234,8234,8234,8234,8234,8234,8234,8234,8234,8234,8234,8234,8234,8234,8234,8234,8234,8234,8234,8234,8234,8234,8234,8234,8234,8234,8234,8234,8234,8234,8234,8234,8234,0,0,0,0,8234,2147491882,8234,8234,8234,8234,8234,8234,8234,8234,8234,8234,8234,8234,8234,8234,8234,8234,8234,8234,8234,8234,8234,8234,8234,8234,8234,8234,8234,8234,8234,8234,8234,0,
0,8134,8134,8134,8134,8134,8134,8134,8134,8134,8134,8134,8134,8134,8134,8134,8134,8134,8134,8134,8134,8134,8134,8134,8134,8134,8134,8134,8134,8134,8134,8134,8134,8134,8134,8134,8134,8134,8134,8134,8134,8134,8134,8134,8134,8134,8134,8134,8134,8134,8134,8134,8134,8134,8134,8134,0,8127,0,0,0,8234,8234,8234,8234,8234,8234,8234,8234,8234,8234,8234,8234,8234,8234,8234,8234,8234,8234,8234,8234,8234,8234,8234,8234,8234,8234,8234,8234,8234,8234,8234,8234,8234,8234,8234,8234,8234,8234,8234,8234,8234,8234,8234,8234,8234,8234,8234,8234,8234,8234,8234,8234,8234,8234,8234,8234,8234,8234,8234,8234,8234,8234,8234,8234,8234,8234,8234,8234,8234,8234,8234,8234,8234,8234,8234,8234,8234,8234,8234,8234,8234,8234,8234,8234,8234,8234,8234,8234,8234,8234,8234,8234,8234,8234,0,
0,8134,8134,8134,8134,8134,8134,8134,8134,8134,8134,8134,8134,8134,8134,8134,8134,8134,8134,8134,8134,8134,8134,8134,8134,8134,8134,8134,8134,8134,8134,8134,8134,8134,8134,8134,8134,8134,8134,8134,8134,8134,8134,8134,8134,8134,8134,8134,8134,8134,8134,8134,8134,8134,8134,8134,0,8135,0,0,0,8234,8234,8234,8234,8234,8234,8234,8234,8234,8234,8234,8234,8234,8234,8234,8234,8234,8234,8234,8234,8234,8234,8234,8234,8234,8234,8234,8234,8234,8234,8234,8234,8234,8234,8234,8234,8234,8234,8234,8234,8234,8234,8234,8234,8234,8234,8234,8234,8234,8234,8234,8234,8234,8234,8234,8234,8234,8234,8234,8234,8234,8234,8234,8234,8234,8234,8234,8234,8234,8234,8234,8234,8234,8234,8234,8234,8234,8234,8234,8234,8234,8234,8234,8234,8234,8234,8234,8234,8234,8234,8234,8234,8234,8234,0,
0,8134,8134,8134,8134,8134,8134,8134,8134,8134,8134,8134,8134,8134,8134,8134,8134,8134,8134,8134,8134,8134,8134,8134,8134,8134,8134,8134,8134,8134,8134,8134,8134,8134,8134,8134,8134,8134,8134,8134,8134,8134,8134,8134,8134,8134,8134,8134,8134,8134,8134,8134,8134,8134,8134,8134,8134,0,8127,0,0,8234,8234,8234,8234,8234,8234,8234,8234,8234,8234,0,8234,8234,8234,8234,8234,8234,8234,8234,8234,8234,8234,8234,8234,8234,8234,8234,8234,8234,8234,8234,8234,8234,8234,8234,8234,8234,8234,8234,8234,8234,8234,8234,8234,8234,8234,8234,8234,0,8234,8234,8234,8234,8234,8234,8234,8234,8234,8234,8234,8234,8234,8234,8234,8234,8234,8234,8234,8234,8234,8234,8234,8234,8234,8234,8234,8234,8234,8234,8234,8234,8234,8234,8234,8234,8234,8234,8234,8234,8234,8234,8234,8234,8234,8234,
0,8134,8134,8134,8134,8134,8134,8134,8134,8134,8134,8134,8134,8134,8134,8134,8134,8134,8134,8134,8134,8134,8134,8134,8134,8134,8134,8134,8134,8134,8134,8134,8134,8134,8134,8134,8134,8134,8134,8134,8134,8134,8134,8134,8134,8134,8134,8134,8134,8134,8134,8134,8134,8134,8134,8134,8134,8134,8135,0,0,8234,8234,8234,8234,8234,8234,8234,8234,8234,8234,8234,8234,8234,8234,8234,8234,8234,8234,2147491882,8234,8234,8234,8234,8234,8234,8234,8234,8234,8234,8234,8234,8234,8234,8234,8234,8234,8234,8234,8234,8234,8234,8234,8234,8234,8234,8234,8234,0,0,8234,8234,8234,8234,8234,8234,8234,8234,8234,8234,8234,8234,8234,8234,8234,8234,8234,8234,8234,8234,8234,8234,8234,8234,8234,8234,8234,8234,8234,8234,8234,8234,8234,8234,8234,8234,8234,8234,8234,8234,8234,8234,8234,8234,8234,8234,
0,8134,8134,8134,8134,8134,8134,8134,8134,8134,8134,8134,8134,8134,8134,8134,8134,8134,8134,8134,8134,8134,8134,8134,8134,8134,8134,8134,8134,8134,8134,8134,8134,8134,8134,8134,8134,8134,8134,8134,8134,8134,8134,8134,8134,8134,8134,8134,8134,8134,8134,8134,8134,8134,8134,8134,8134,8134,0,8127,0,0,0,8234,8234,8234,8234,8234,8234,8234,8234,8234,8234,8234,8234,8234,8234,8234,8234,8234,8234,8234,8234,8234,8234,8234,8234,8234,8234,8234,8234,8234,8234,8234,8234,8234,8234,8234,8234,8234,8234,8234,8234,8234,8234,8234,8234,8234,8234,8234,8234,8234,8234,8234,8234,8234,8234,8234,8234,8234,2147491882,8234,8234,8234,8234,8234,8234,8234,8234,8234,8234,8234,8234,8234,8234,8234,8234,8234,8234,8234,8234,8234,8234,8234,8234,8234,8234,8234,8234,8234,8234,8234,8234,8234,8234,8234,
0,8134,8134,8134,8134,8134,8134,8134,8134,8134,8134,8134,8134,8134,8134,8134,8134,8134,8134,8134,8134,8134,8134,8134,8134,8134,8134,0,8134,8134,8134,8134,8134,8134,8134,8134,8134,8134,8134,8134,8134,8134,8134,8134,8134,8134,8134,8134,8134,8134,8134,8134,8134,8134,8134,8134,8134,8134,0,8135,0,8234,8234,8234,8234,8234,8234,8234,8234,8234,8234,8234,8234,8234,8234,8234,8234,8234,8234,8234,8234,8234,8234,8234,8234,8234,8234,8234,8234,8234,8234,8234,8234,8234,8234,8234,8234,8234,8234,8234,8234,8234,8234,8234,8234,8234,8234,8234,8234,8234,8234,8234,8234,8234,8234,8234,8234,8234,8234,8234,8234,8234,8234,8234,8234,8234,8234,8234,8234,8234,8234,8234,8234,8234,8234,8234,8234,8234,8234,8234,8234,8234,8234,8234,8234,8234,8234,8234,8234,8234,8234,8234,8234,8234,8234,8234,
0,8134,8134,8134,8134,8134,8134,8134,8134,8134,8134,8134,8134,8134,8134,8134,8134,8134,8134,8134,8134,8134,8134,8134,8134,8134,8134,0,8134,8134,8134,8134,8134,8134,8134,8134,8134,8134,8134,8134,8134,8134,8134,8134,8134,8134,8134,8134,8134,8134,8134,8134,8134,8134,8134,8134,8134,8134,8134,0,8127,0,0,0,8234,8234,8234,8234,8234,8234,8234,8234,8234,8234,8234,8234,8234,8234,8234,8234,8234,8234,8234,8234,8234,8234,8234,8234,8234,8234,8234,8234,8234,8234,8234,8234,8234,8234,8234,8234,8234,8234,8234,8234,8234,8234,8234,8234,8234,8234,8234,8234,8234,8234,8234,8234,8234,8234,8234,8234,8234,8234,8234,8234,8234,8234,8234,8234,8234,8234,8234,8234,8234,8234,8234,8234,8234,8234,8234,8234,8234,8234,8234,8234,8234,8234,8234,8234,8234,8234,8234,8234,8234,8234,8234,8234,
0,8134,8134,8134,8134,8134,8134,8134,8134,8134,8134,2147492090,8134,8134,8134,8134,8134,8134,8134,8134,8134,8134,8134,8134,8134,8134,8134,8134,8134,8134,8134,8134,8134,8134,8134,8134,8134,8134,8134,8134,8134,8134,8134,8134,8134,8134,8134,8134,8134,8134,8134,8134,8134,8134,8134,8134,8134,8134,8134,0,8135,0,0,0,8234,8234,8234,8234,8234,0,0,0,8234,8234,8234,8234,8234,8234,8234,8234,8234,8234,8234,8234,8234,8234,8234,8234,8234,8234,8234,8234,8234,8234,8234,8234,8234,8234,8234,8234,8234,8234,8234,8234,8234,8234,8234,8234,8234,8234,8234,8234,8234,8234,8234,8234,8234,8234,8234,8234,8234,8234,8234,8234,8234,8234,8234,8234,8234,8234,8234,8234,8234,8234,8234,8234,8234,8234,8234,8234,8234,8234,8234,8234,8234,8234,8234,8234,8234,8234,8234,8234,8234,8234,8234,8234,
0,8134,8134,8134,8134,8134,8134,8134,8134,8134,8134,8134,8134,8134,8134,8134,8134,8134,8134,8134,8134,8134,8134,8134,8134,8134,8134,8134,8134,8134,8134,8134,8134,8134,8134,8134,8134,8134,8134,8134,8134,8134,8134,8134,8134,8134,8134,8134,8134,8134,8134,8134,8134,8134,8134,8134,8134,8134,8134,8134,0,8127,0,0,8234,8234,8234,8234,0,0,0,0,0,0,0,0,0,0,0,0,0,8234,8234,8234,8234,0,0,8234,8234,8234,8234,8234,8234,8234,8234,8234,8234,8234,8234,8234,8234,8234,8234,8234,8234,8234,8234,8234,8234,8234,8234,8234,8234,8234,8234,8234,8234,8234,8234,8234,8234,8234,8234,8234,8234,8234,8234,8234,8234,8234,8234,8234,8234,8234,8234,8234,8234,8234,8234,8234,8234,8234,8234,8234,8234,8234,8234,8234,8234,8234,8234,8234,8234,8234,8234,8234,
0,8134,8134,8134,8134,8134,8134,8134,8134,0,0,8134,8134,8134,8134,8134,8134,8134,8134,8134,8134,8134,8134,8134,8134,8134,8134,8134,8134,8134,8134,8134,8134,8134,8134,8134,8134,8134,8134,8134,8134,8134,8134,8134,8134,8134,8134,8134,8134,8134,8134,8134,8134,8134,8134,8134,8134,8134,8134,8134,0,8135,0,0,8234,8234,8234,8234,8234,8234,8234,8234,8234,8234,0,0,0,0,0,8234,8234,8234,8234,8234,8234,8234,0,0,8234,8234,8234,8234,8234,8234,8234,0,8234,8234,8234,8234,8234,8234,0,8234,8234,8234,8234,8234,8234,8234,8234,8234,8234,8234,8234,8234,8234,8234,8234,2147491882,8234,8234,8234,8234,8234,8234,8234,8234,8234,8234,8234,8234,8234,8234,8234,8234,8234,8234,8234,8234,8234,8234,8234,8234,8234,8234,8234,8234,8234,8234,8234,8234,8234,8234,8234,8234,
0,8134,8134,8134,8134,8134,8134,8134,8134,8134,8134,8134,8134,8134,8134,8134,8134,8134,8134,8134,8134,8134,8134,8134,8134,8134,8134,8134,8134,8134,8134,8134,8134,8134,8134,8134,8134,8134,8134,8134,8134,8134,8134,8134,8134,8134,8134,8134,8134,8134,8134,8134,8134,8134,8134,8134,8134,8134,8134,8134,0,8135,0,0,8234,8234,8234,8234,8234,8234,8234,8234,8234,8234,8234,8234,8234,8234,8234,8234,8234,8234,8234,8234,8234,8234,8234,8234,8234,8234,8234,8234,8234,8234,8234,8234,8234,8234,8234,8234,8234,8234,8234,8234,8234,8234,8234,8234,8234,8234,8234,8234,8234,8234,8234,8234,8234,8234,8234,8234,8234,8234,8234,8234,8234,8234,8234,8234,8234,8234,8234,8234,8234,8234,8234,8234,8234,8234,8234,8234,8234,8234,8234,8234,8234,8234,8234,8234,8234,8234,8234,8234,8234,8234,8234,0,
0,8134,8134,8134,8134,8134,8134,8134,8134,8134,8134,8134,8134,8134,8134,8134,8134,8134,8134,8134,8134,8134,8134,8134,8134,8134,8134,8134,8134,8134,8134,8134,8134,8134,8134,8134,8134,8134,8134,8134,8134,8134,8134,8134,8134,8134,8134,8134,8134,8134,8134,8134,8134,8134,8134,8134,8134,8134,8134,8134,0,8135,0,0,8234,8234,8234,8234,8234,8234,8234,8234,8234,8234,8234,8234,8234,8234,8234,8234,8234,8234,8234,8234,8234,8234,8234,8234,8234,8234,8234,8234,8234,8234,8234,8234,8234,8234,8234,8234,8234,8234,8234,8234,8234,8234,8234,8234,8234,8234,8234,8234,8234,8234,8234,8234,8234,8234,8234,8234,8234,8234,8234,8234,8234,8234,8234,8234,8234,8234,8234,8234,8234,8234,8234,8234,8234,8234,8234,8234,8234,8234,8234,8234,8234,8234,8234,8234,8234,8234,8234,8234,8234,8234,8234,0,
0,8134,8134,8134,8134,8134,8134,8134,8134,8134,8134,8134,8134,8134,8134,8134,8134,8134,8134,8134,8134,8134,8134,8134,8134,8134,8134,8134,8134,8134,8134,8134,8134,8134,8134,8134,8134,8134,8134,8134,8134,8134,8134,8134,8134,8134,8134,8134,8134,8134,8134,8134,8134,8134,8134,8134,8134,8134,8134,8134,0,8143,0,0,8234,8234,8234,8234,8234,8234,8234,8234,8234,8234,8234,8234,8234,8234,8234,8234,8234,8234,8234,8234,8234,8234,8234,8234,8234,8234,8234,8234,8234,8234,8234,8234,8234,8234,8234,8234,8234,8234,8234,8234,8234,8234,8234,8234,8234,8234,8234,8234,8234,8234,8234,8234,8234,8234,8234,8234,8234,8234,8234,8234,8234,8234,8234,8234,8234,8234,8234,8234,8234,8234,8234,8234,8234,8234,8234,8234,8234,8234,8234,8234,8234,8234,8234,8234,8234,8234,8234,8234,8234,8234,0,0,
0,8134,8134,8134,8134,8134,8134,8134,8134,8134,8134,8134,8134,8134,8134,8134,8134,8134,8134,8134,8134,8134,8134,8134,8134,8134,8134,8134,8134,8134,8134,8134,8134,8134,8134,8134,8134,8134,8134,8134,8134,8134,8134,8134,8134,8134,8134,8134,8134,8134,8134,8134,8134,8134,8134,8134,8134,8134,8134,8134,8135,0,0,0,8234,8234,8234,8234,0,0,0,8234,8234,8234,8234,8234,8234,8234,8234,8234,8234,8234,8234,8234,8234,8234,8234,8234,8234,8234,8234,0,8234,8234,8234,8234,8234,8234,8234,8234,8234,8234,8234,8234,8234,8234,0,0,0,0,0,0,0,0,0,0,8234,8234,8234,8234,8234,8234,8234,8234,8234,8234,8234,8234,8234,8234,8234,8234,8234,8234,8234,0,8234,8234,8234,8234,8234,8234,8234,8234,8234,8234,8234,8234,8234,8234,8234,8234,8234,0,0,0,
0,0,8134,8134,8134,8134,8134,8134,8134,8134,8134,8134,8134,8134,8134,8134,8134,8134,8134,8134,8134,8134,8134,8134,8134,8134,8134,8134,8134,8134,8134,8134,8134,8134,8134,8134,8134,8134,8134,8134,8134,8134,8134,8134,8134,8134,8134,8134,8134,8134,8134,8134,8134,8134,8134,8134,8134,8134,8134,0,8143,0,0,0,0,0,0,0,0,0,0,0,0,0,0,0,0,0,0,0,0,0,8234,8234,8234,8234,8234,8234,0,0,0,0,0,0,0,0,0,0,0,8234,8234,8234,8234,8234,8234,8234,0,0,0,0,0,0,0,0,0,0,0,0,0,0,0,0,0,0,0,0,0,0,0,0,0,0,0,0,0,0,0,8234,8234,8234,8234,8234,8234,8234,8234,8234,8234,8234,8234,8234,8234,8234,0,0,0,0
</data>
 </layer>
 <objectgroup id="4" name="trees"/>
 <objectgroup id="5" name="stop">
  <object id="90" x="4034" y="544" width="28.6667" height="12.6667"/>
  <object id="91" x="4069.67" y="549.666" width="28.6667" height="12.6667"/>
  <object id="92" x="4103" y="558.333" width="28.6667" height="12.6667"/>
  <object id="93" x="4137.67" y="567" width="28.6667" height="12.6667"/>
  <object id="94" x="4172.34" y="577.666" width="28.6667" height="12.6667"/>
  <object id="95" x="4206.34" y="586.333" width="28.6667" height="12.6667"/>
  <object id="96" x="4239.67" y="595.666" width="28.6667" height="12.6667"/>
  <object id="97" x="4273.67" y="605" width="28.6667" height="12.6667"/>
  <object id="98" x="4307.67" y="613" width="28.6667" height="12.6667"/>
  <object id="99" x="4342.34" y="621" width="28.6667" height="12.6667"/>
  <object id="100" x="4377" y="630.333" width="28.6667" height="12.6667"/>
  <object id="101" x="4412.34" y="638.333" width="28.6667" height="12.6667"/>
  <object id="102" x="4449.67" y="647" width="28.6667" height="12.6667"/>
  <object id="103" x="4486.34" y="657.666" width="28.6667" height="12.6667"/>
  <object id="104" x="4875" y="699" width="28.6667" height="12.6667"/>
  <object id="107" x="4837.67" y="715" width="28.6667" height="12.6667"/>
  <object id="108" x="4801.67" y="727" width="28.6667" height="12.6667"/>
  <object id="109" x="4721.67" y="728.333" width="28.6667" height="12.6667"/>
  <object id="110" x="4763.67" y="742.334" width="28.6667" height="12.6667"/>
  <object id="111" x="4683.67" y="714.333" width="28.6667" height="12.6667"/>
  <object id="112" x="4649.67" y="703.666" width="28.6667" height="12.6667"/>
  <object id="113" x="4616.33" y="695.666" width="28.6667" height="12.6667"/>
  <object id="114" x="4573.67" y="674.333" width="28.6667" height="12.6667"/>
  <object id="115" x="4533.67" y="665.666" width="28.6667" height="12.6667"/>
  <object id="116" x="4913.67" y="689.667" width="28.6667" height="12.6667"/>
  <object id="117" x="4336" y="116" width="300" height="121"/>
  <object id="119" x="4673" y="125" width="284" height="183"/>
  <object id="126" x="4068" y="196" width="28" height="280"/>
  <object id="127" x="3902.67" y="198.667" width="29.3333" height="274.667"/>
 </objectgroup>
 <objectgroup id="6" name="dealler">
  <object id="123" x="4352" y="119" width="282" height="161"/>
 </objectgroup>
 <objectgroup id="7" name="store">
  <object id="124" x="4676" y="155" width="282" height="196"/>
 </objectgroup>
</map>
